; generated by Slic3r 1.33.3-prusa3d on 2017-03-28 at 20:49:19

; external perimeters extrusion width = 0.45mm
; perimeters extrusion width = 0.45mm
; infill extrusion width = 0.45mm
; solid infill extrusion width = 0.45mm
; top infill extrusion width = 0.45mm

; external perimeters extrusion width = 0.45mm
; perimeters extrusion width = 0.45mm
; infill extrusion width = 0.45mm
; solid infill extrusion width = 0.45mm
; top infill extrusion width = 0.45mm

; external perimeters extrusion width = 0.45mm
; perimeters extrusion width = 0.45mm
; infill extrusion width = 0.45mm
; solid infill extrusion width = 0.45mm
; top infill extrusion width = 0.45mm

M107
M115 U3.0.9 ; tell printer latest fw version
M83  ; extruder relative mode
M104 S230 ; set extruder temp
M140 S85 ; set bed temp
M190 S85 ; wait for bed temp
M109 S230 ; wait for extruder temp
G28 W ; home all without mesh bed level
G80 ; mesh bed leveling
G1 Y-3.0 F1000.0 ; go outside pritn area
G1 X60.0 E9.0  F1000.0 ; intro line
G1 X100.0 E12.5  F1000.0 ; intro line
G21 ; set units to millimeters
G90 ; use absolute coordinates
M83 ; use relative distances for extrusion
G1 E-0.80000 F2100.00000
G1 Z0.200 F7200.000
G1 X46.501 Y48.985 F7200.000
G1 E0.80000 F2100.00000
M204 S1000
G1 F2100
G1 X46.676 Y48.779 E0.00847
G1 X46.876 Y48.592 E0.00859
G1 X47.097 Y48.429 E0.00859
G1 X47.334 Y48.292 E0.00859
G1 X47.586 Y48.184 E0.00859
G1 X47.849 Y48.106 E0.00859
G1 X48.119 Y48.058 E0.00859
G1 X48.392 Y48.042 E0.00859
G1 X70.080 Y48.042 E0.68001
G1 X99.263 Y48.901 E0.91541
G1 X137.180 Y52.052 E1.19296
G1 X137.546 Y52.141 E0.01179
G1 X206.799 Y75.069 E2.28730
G1 X207.051 Y75.169 E0.00847
G1 X207.289 Y75.296 E0.00847
G1 X207.535 Y75.468 E0.00943
G1 X207.758 Y75.670 E0.00943
G1 X207.953 Y75.899 E0.00943
G1 X208.118 Y76.150 E0.00943
G1 X208.250 Y76.421 E0.00943
G1 X208.347 Y76.705 E0.00943
G1 X208.407 Y77.000 E0.00943
G1 X208.429 Y77.300 E0.00943
G1 X208.429 Y146.337 E2.16461
G1 X208.406 Y146.660 E0.01014
G1 X208.338 Y146.976 E0.01014
G1 X208.230 Y147.277 E0.01002
G1 X208.081 Y147.564 E0.01014
G1 X207.913 Y147.805 E0.00919
G1 X207.717 Y148.022 E0.00919
G1 X207.496 Y148.214 E0.00919
G1 X207.249 Y148.380 E0.00931
G1 X206.987 Y148.511 E0.00919
G1 X206.711 Y148.610 E0.00919
G1 X206.425 Y148.673 E0.00919
G1 X206.133 Y148.701 E0.00919
G1 X92.212 Y152.171 E3.57357
G1 X70.456 Y152.171 E0.68215
G1 X70.107 Y152.138 E0.01098
G1 X21.375 Y143.796 E1.55021
G1 X20.945 Y143.678 E0.01395
G1 X20.545 Y143.483 E0.01395
G1 X20.302 Y143.313 E0.00931
G1 X20.082 Y143.114 E0.00931
G1 X19.886 Y142.886 E0.00943
G1 X19.722 Y142.638 E0.00931
G1 X19.591 Y142.372 E0.00931
G1 X19.493 Y142.092 E0.00931
G1 X19.432 Y141.801 E0.00931
G1 X19.407 Y141.501 E0.00943
G1 X19.406 Y92.450 E1.53797
G1 X19.428 Y92.135 E0.00991
G1 X19.491 Y91.825 E0.00991
G1 X19.608 Y91.495 E0.01098
G1 X19.772 Y91.186 E0.01098
G1 X46.465 Y49.033 E1.56439
G1 F5760
G1 X46.503 Y48.982 E-0.02210
G1 F5760
G1 X46.505 Y48.979 E-0.00132
G1 F5760
G1 X46.508 Y48.976 E-0.00132
G1 F5760
G1 X46.510 Y48.973 E-0.00132
G1 F5760
G1 X46.512 Y48.970 E-0.00132
G1 F5760
G1 X46.515 Y48.967 E-0.00132
G1 F5760
G1 X46.517 Y48.964 E-0.00132
G1 F5760
G1 X46.519 Y48.961 E-0.00132
G1 F5760
G1 X46.522 Y48.958 E-0.00132
G1 F5760
G1 X46.524 Y48.955 E-0.00132
G1 F5760
G1 X46.526 Y48.952 E-0.00132
G1 F5760
G1 X46.529 Y48.949 E-0.00132
G1 F5760
G1 X46.531 Y48.946 E-0.00132
G1 F5760
G1 X46.533 Y48.943 E-0.00132
G1 F5760
G1 X46.536 Y48.940 E-0.00132
G1 F5760
G1 X46.538 Y48.937 E-0.00132
G1 F5760
G1 X46.541 Y48.934 E-0.00132
G1 F5760
G1 X46.543 Y48.931 E-0.00132
G1 F5760
G1 X46.545 Y48.928 E-0.00132
G1 F5760
G1 X46.548 Y48.925 E-0.00132
G1 F5760
G1 X46.550 Y48.922 E-0.00132
G1 F5760
G1 X46.553 Y48.919 E-0.00132
G1 F5760
G1 X46.555 Y48.916 E-0.00132
G1 F5760
G1 X46.557 Y48.913 E-0.00132
G1 F5760
G1 X46.560 Y48.910 E-0.00132
G1 F5760
G1 X46.562 Y48.907 E-0.00132
G1 F5760
G1 X46.565 Y48.904 E-0.00132
G1 F5760
G1 X46.567 Y48.901 E-0.00132
G1 F5760
G1 X46.569 Y48.898 E-0.00132
G1 F5760
G1 X46.572 Y48.895 E-0.00132
G1 F5760
G1 X46.574 Y48.892 E-0.00132
G1 F5760
G1 X46.577 Y48.890 E-0.00132
G1 F5760
G1 X46.579 Y48.887 E-0.00132
G1 F5760
G1 X46.582 Y48.884 E-0.00132
G1 F5760
G1 X46.584 Y48.881 E-0.00132
G1 F5760
G1 X46.587 Y48.878 E-0.00132
G1 F5760
G1 X46.589 Y48.875 E-0.00132
G1 F5760
G1 X46.592 Y48.872 E-0.00132
G1 F5760
G1 X46.594 Y48.869 E-0.00132
G1 F5760
G1 X46.597 Y48.866 E-0.00132
G1 F5760
G1 X46.599 Y48.863 E-0.00132
G1 F5760
G1 X46.602 Y48.861 E-0.00132
G1 F5760
G1 X46.604 Y48.858 E-0.00132
G1 F5760
G1 X46.607 Y48.855 E-0.00132
G1 F5760
G1 X46.609 Y48.852 E-0.00132
G1 F5760
G1 X46.612 Y48.849 E-0.00132
G1 F5760
G1 X46.614 Y48.846 E-0.00132
G1 F5760
G1 X46.617 Y48.843 E-0.00132
G1 F5760
G1 X46.619 Y48.841 E-0.00132
G1 F5760
G1 X46.622 Y48.838 E-0.00132
G1 F5760
G1 X46.624 Y48.835 E-0.00132
G1 F5760
G1 X46.627 Y48.832 E-0.00132
G1 F5760
G1 X46.629 Y48.829 E-0.00132
G1 F5760
G1 X46.632 Y48.826 E-0.00132
G1 F5760
G1 X46.634 Y48.824 E-0.00132
G1 F5760
G1 X46.637 Y48.821 E-0.00132
G1 F5760
G1 X46.640 Y48.818 E-0.00132
G1 F5760
G1 X46.642 Y48.815 E-0.00132
G1 F5760
G1 X46.645 Y48.812 E-0.00132
G1 F5760
G1 X46.647 Y48.809 E-0.00132
G1 F5760
G1 X46.650 Y48.807 E-0.00132
G1 F5760
G1 X46.652 Y48.804 E-0.00132
G1 F5760
G1 X46.655 Y48.801 E-0.00132
G1 F5760
G1 X46.658 Y48.798 E-0.00132
G1 F5760
G1 X46.660 Y48.796 E-0.00132
G1 F5760
G1 X46.663 Y48.793 E-0.00132
G1 F5760
G1 X46.665 Y48.790 E-0.00132
G1 F5760
G1 X46.668 Y48.787 E-0.00132
G1 F5760
G1 X46.671 Y48.784 E-0.00132
G1 F5760
G1 X46.673 Y48.782 E-0.00132
G1 F5760
G1 X46.676 Y48.779 E-0.00132
G1 F5760
G1 X46.679 Y48.776 E-0.00132
G1 F5760
G1 X46.681 Y48.773 E-0.00132
G1 F5760
G1 X46.684 Y48.771 E-0.00132
G1 F5760
G1 X46.686 Y48.768 E-0.00132
G1 F5760
G1 X46.689 Y48.765 E-0.00132
G1 F5760
G1 X46.692 Y48.762 E-0.00132
G1 F5760
G1 X46.694 Y48.760 E-0.00132
G1 F5760
G1 X46.697 Y48.757 E-0.00132
G1 F5760
G1 X46.700 Y48.754 E-0.00132
G1 F5760
G1 X46.702 Y48.752 E-0.00132
G1 F5760
G1 X46.705 Y48.749 E-0.00132
G1 F5760
G1 X46.708 Y48.746 E-0.00132
G1 F5760
G1 X46.710 Y48.743 E-0.00132
G1 F5760
G1 X46.713 Y48.741 E-0.00132
G1 F5760
G1 X46.716 Y48.738 E-0.00132
G1 F5760
G1 X46.718 Y48.735 E-0.00132
G1 F5760
G1 X46.721 Y48.733 E-0.00132
G1 F5760
G1 X46.724 Y48.730 E-0.00132
G1 F5760
G1 X46.727 Y48.727 E-0.00132
G1 F5760
G1 X46.729 Y48.725 E-0.00132
G1 F5760
G1 X46.732 Y48.722 E-0.00132
G1 F5760
G1 X46.735 Y48.719 E-0.00132
G1 F5760
G1 X46.737 Y48.717 E-0.00132
G1 F5760
G1 X46.740 Y48.714 E-0.00132
G1 F5760
G1 X46.743 Y48.711 E-0.00132
G1 F5760
G1 X46.746 Y48.709 E-0.00132
G1 F5760
G1 X46.748 Y48.706 E-0.00132
G1 F5760
G1 X46.751 Y48.703 E-0.00132
G1 F5760
G1 X46.754 Y48.701 E-0.00132
G1 F5760
G1 X46.757 Y48.698 E-0.00132
G1 F5760
G1 X46.759 Y48.695 E-0.00132
G1 F5760
G1 X46.762 Y48.693 E-0.00132
G1 F5760
G1 X46.765 Y48.690 E-0.00132
G1 F5760
G1 X46.768 Y48.688 E-0.00132
G1 F5760
G1 X46.771 Y48.685 E-0.00132
G1 F5760
G1 X46.773 Y48.682 E-0.00132
G1 F5760
G1 X46.776 Y48.680 E-0.00132
G1 F5760
G1 X46.779 Y48.677 E-0.00132
G1 F5760
G1 X46.782 Y48.675 E-0.00132
G1 F5760
G1 X46.784 Y48.672 E-0.00132
G1 F5760
G1 X46.787 Y48.669 E-0.00132
G1 F5760
G1 X46.790 Y48.667 E-0.00132
G1 F5760
G1 X46.793 Y48.664 E-0.00132
G1 F5760
G1 X46.796 Y48.662 E-0.00132
G1 F5760
G1 X46.799 Y48.659 E-0.00132
G1 F5760
G1 X46.801 Y48.657 E-0.00132
G1 F5760
G1 X46.804 Y48.654 E-0.00132
G1 F5760
G1 X46.807 Y48.652 E-0.00132
G1 F5760
G1 X46.810 Y48.649 E-0.00132
G1 F5760
G1 X46.813 Y48.646 E-0.00132
G1 F5760
G1 X46.816 Y48.644 E-0.00132
G1 F5760
G1 X46.818 Y48.641 E-0.00132
G1 F5760
G1 X46.821 Y48.639 E-0.00132
G1 F5760
G1 X46.824 Y48.636 E-0.00132
G1 F5760
G1 X46.827 Y48.634 E-0.00132
G1 F5760
G1 X46.830 Y48.631 E-0.00132
G1 F5760
G1 X46.833 Y48.629 E-0.00132
G1 F5760
G1 X46.836 Y48.626 E-0.00132
G1 F5760
G1 X46.838 Y48.624 E-0.00132
G1 F5760
G1 X46.841 Y48.621 E-0.00132
G1 F5760
G1 X46.844 Y48.619 E-0.00132
G1 F5760
G1 X46.847 Y48.616 E-0.00132
G1 F5760
G1 X46.850 Y48.614 E-0.00132
G1 F5760
G1 X46.853 Y48.611 E-0.00132
G1 F5760
G1 X46.856 Y48.609 E-0.00132
G1 F5760
G1 X46.859 Y48.606 E-0.00132
G1 F5760
G1 X46.862 Y48.604 E-0.00132
G1 F5760
G1 X46.864 Y48.602 E-0.00132
G1 F5760
G1 X46.867 Y48.599 E-0.00132
G1 F5760
G1 X46.870 Y48.597 E-0.00132
G1 F5760
G1 X46.873 Y48.594 E-0.00132
G1 F5760
G1 X46.876 Y48.592 E-0.00132
G1 F5760
G1 X46.879 Y48.589 E-0.00132
G1 F5760
G1 X46.882 Y48.587 E-0.00132
G1 F5760
G1 X46.885 Y48.584 E-0.00132
G1 F5760
G1 X46.888 Y48.582 E-0.00132
G1 F5760
G1 X46.891 Y48.580 E-0.00132
G1 F5760
G1 X46.894 Y48.577 E-0.00132
G1 F5760
G1 X46.897 Y48.575 E-0.00132
G1 F5760
G1 X46.900 Y48.572 E-0.00132
G1 F5760
G1 X46.903 Y48.570 E-0.00132
G1 F5760
G1 X46.906 Y48.568 E-0.00132
G1 F5760
G1 X46.909 Y48.565 E-0.00132
G1 F5760
G1 X46.912 Y48.563 E-0.00132
G1 F5760
G1 X46.915 Y48.560 E-0.00132
G1 F5760
G1 X46.918 Y48.558 E-0.00132
G1 F5760
G1 X46.920 Y48.556 E-0.00132
G1 F5760
G1 X46.923 Y48.553 E-0.00132
G1 F5760
G1 X46.926 Y48.551 E-0.00132
G1 F5760
G1 X46.929 Y48.549 E-0.00132
G1 F5760
G1 X46.932 Y48.546 E-0.00132
G1 F5760
G1 X46.935 Y48.544 E-0.00132
G1 F5760
G1 X46.938 Y48.542 E-0.00132
G1 F5760
G1 X46.941 Y48.539 E-0.00132
G1 F5760
G1 X46.945 Y48.537 E-0.00132
G1 F5760
G1 X46.948 Y48.535 E-0.00132
G1 F5760
G1 X46.951 Y48.532 E-0.00132
G1 F5760
G1 X46.954 Y48.530 E-0.00132
G1 F5760
G1 X46.957 Y48.528 E-0.00132
G1 F5760
G1 X46.960 Y48.525 E-0.00132
G1 F5760
G1 X46.963 Y48.523 E-0.00132
G1 F5760
G1 X46.966 Y48.521 E-0.00132
G1 F5760
G1 X46.969 Y48.519 E-0.00132
G1 F5760
G1 X46.972 Y48.516 E-0.00132
G1 F5760
G1 X46.975 Y48.514 E-0.00132
G1 F5760
G1 X46.978 Y48.512 E-0.00132
G1 F5760
G1 X46.981 Y48.509 E-0.00132
G1 F5760
G1 X46.984 Y48.507 E-0.00132
G1 F5760
G1 X46.987 Y48.505 E-0.00132
G1 F5760
G1 X46.990 Y48.503 E-0.00132
G1 F5760
G1 X46.993 Y48.500 E-0.00132
G1 F5760
G1 X46.996 Y48.498 E-0.00132
G1 F5760
G1 X46.999 Y48.496 E-0.00132
G1 F5760
G1 X47.002 Y48.494 E-0.00132
G1 F5760
G1 X47.006 Y48.491 E-0.00132
G1 F5760
G1 X47.009 Y48.489 E-0.00132
G1 F5760
G1 X47.012 Y48.487 E-0.00132
G1 F5760
G1 X47.015 Y48.485 E-0.00132
G1 F5760
G1 X47.018 Y48.483 E-0.00132
G1 F5760
G1 X47.021 Y48.480 E-0.00132
G1 F5760
G1 X47.024 Y48.478 E-0.00132
G1 F5760
G1 X47.027 Y48.476 E-0.00132
G1 F5760
G1 X47.030 Y48.474 E-0.00132
G1 F5760
G1 X47.034 Y48.472 E-0.00132
G1 F5760
G1 X47.037 Y48.469 E-0.00132
G1 F5760
G1 X47.040 Y48.467 E-0.00132
G1 F5760
G1 X47.043 Y48.465 E-0.00132
G1 F5760
G1 X47.046 Y48.463 E-0.00132
G1 F5760
G1 X47.049 Y48.461 E-0.00132
G1 F5760
G1 X47.052 Y48.459 E-0.00132
G1 F5760
G1 X47.055 Y48.456 E-0.00132
G1 F5760
G1 X47.059 Y48.454 E-0.00132
G1 F5760
G1 X47.062 Y48.452 E-0.00132
G1 F5760
G1 X47.065 Y48.450 E-0.00132
G1 F5760
G1 X47.068 Y48.448 E-0.00132
G1 F5760
G1 X47.071 Y48.446 E-0.00132
G1 F5760
G1 X47.074 Y48.444 E-0.00132
G1 F5760
G1 X47.078 Y48.441 E-0.00132
G1 F5760
G1 X47.081 Y48.439 E-0.00132
G1 F5760
G1 X47.084 Y48.437 E-0.00132
G1 F5760
G1 X47.087 Y48.435 E-0.00132
G1 F5760
G1 X47.090 Y48.433 E-0.00132
G1 F5760
G1 X47.093 Y48.431 E-0.00132
G1 F5760
G1 X47.097 Y48.429 E-0.00132
G1 F5760
G1 X47.100 Y48.427 E-0.00132
G1 F5760
G1 X47.103 Y48.425 E-0.00132
G1 F5760
G1 X47.106 Y48.423 E-0.00132
G1 F5760
G1 X47.109 Y48.421 E-0.00132
G1 F5760
G1 X47.113 Y48.419 E-0.00132
G1 F5760
G1 X47.116 Y48.416 E-0.00132
G1 F5760
G1 X47.119 Y48.414 E-0.00132
G1 F5760
G1 X47.122 Y48.412 E-0.00132
G1 F5760
G1 X47.125 Y48.410 E-0.00132
G1 F5760
G1 X47.129 Y48.408 E-0.00132
G1 F5760
G1 X47.132 Y48.406 E-0.00132
G1 F5760
G1 X47.135 Y48.404 E-0.00132
G1 F5760
G1 X47.138 Y48.402 E-0.00132
G1 F5760
G1 X47.142 Y48.400 E-0.00132
G1 F5760
G1 X47.145 Y48.398 E-0.00132
G1 F5760
G1 X47.148 Y48.396 E-0.00132
G1 F5760
G1 X47.151 Y48.394 E-0.00132
G1 F5760
G1 X47.155 Y48.392 E-0.00132
G1 F5760
G1 X47.158 Y48.390 E-0.00132
G1 F5760
G1 X47.161 Y48.388 E-0.00132
G1 F5760
G1 X47.164 Y48.386 E-0.00132
G1 F5760
G1 X47.168 Y48.384 E-0.00132
G1 F5760
G1 X47.171 Y48.382 E-0.00132
G1 F5760
G1 X47.174 Y48.380 E-0.00132
G1 F5760
G1 X47.177 Y48.378 E-0.00132
G1 F5760
G1 X47.181 Y48.376 E-0.00132
G1 F5760
G1 X47.184 Y48.375 E-0.00132
G1 F5760
G1 X47.187 Y48.373 E-0.00132
G1 F5760
G1 X47.190 Y48.371 E-0.00132
G1 F5760
G1 X47.194 Y48.369 E-0.00132
G1 F5760
G1 X47.197 Y48.367 E-0.00132
G1 F5760
G1 X47.200 Y48.365 E-0.00132
G1 F5760
G1 X47.204 Y48.363 E-0.00132
G1 F5760
G1 X47.207 Y48.361 E-0.00132
G1 F5760
G1 X47.210 Y48.359 E-0.00132
G1 F5760
G1 X47.214 Y48.357 E-0.00132
G1 F5760
G1 X47.217 Y48.355 E-0.00132
G1 F5760
G1 X47.220 Y48.353 E-0.00132
G1 F5760
G1 X47.223 Y48.352 E-0.00132
G1 F5760
G1 X47.227 Y48.350 E-0.00132
G1 F5760
G1 X47.230 Y48.348 E-0.00132
G1 F5760
G1 X47.233 Y48.346 E-0.00132
G1 F5760
G1 X47.237 Y48.344 E-0.00132
G1 F5760
G1 X47.240 Y48.342 E-0.00132
G1 F5760
G1 X47.243 Y48.340 E-0.00132
G1 F5760
G1 X47.247 Y48.339 E-0.00132
G1 F5760
G1 X47.250 Y48.337 E-0.00132
G1 F5760
G1 X47.253 Y48.335 E-0.00132
G1 F5760
G1 X47.257 Y48.333 E-0.00132
G1 F5760
G1 X47.260 Y48.331 E-0.00132
G1 F5760
G1 X47.263 Y48.329 E-0.00132
G1 F5760
G1 X47.267 Y48.328 E-0.00132
G1 F5760
G1 X47.270 Y48.326 E-0.00132
G1 F5760
G1 X47.273 Y48.324 E-0.00132
G1 F5760
G1 X47.277 Y48.322 E-0.00132
G1 F5760
G1 X47.280 Y48.320 E-0.00132
G1 F5760
G1 X47.284 Y48.319 E-0.00132
G1 F5760
G1 X47.287 Y48.317 E-0.00132
G1 F5760
G1 X47.290 Y48.315 E-0.00132
G1 F5760
G1 X47.294 Y48.313 E-0.00132
G1 F5760
G1 X47.297 Y48.312 E-0.00132
G1 F5760
G1 X47.300 Y48.310 E-0.00132
G1 F5760
G1 X47.304 Y48.308 E-0.00132
G1 F5760
G1 X47.307 Y48.306 E-0.00132
G1 F5760
G1 X47.311 Y48.305 E-0.00132
G1 F5760
G1 X47.314 Y48.303 E-0.00132
G1 F5760
G1 X47.317 Y48.301 E-0.00132
G1 F5760
G1 X47.321 Y48.299 E-0.00132
G1 F5760
G1 X47.324 Y48.298 E-0.00132
G1 F5760
G1 X47.328 Y48.296 E-0.00132
G1 F5760
G1 X47.331 Y48.294 E-0.00132
G1 F5760
G1 X47.334 Y48.292 E-0.00132
G1 F5760
G1 X47.338 Y48.291 E-0.00132
G1 F5760
G1 X47.341 Y48.289 E-0.00132
G1 F5760
G1 X47.345 Y48.287 E-0.00132
G1 F5760
G1 X47.348 Y48.286 E-0.00132
G1 F5760
G1 X47.351 Y48.284 E-0.00132
G1 F5760
G1 X47.355 Y48.282 E-0.00132
G1 F5760
G1 X47.358 Y48.281 E-0.00132
G1 F5760
G1 X47.362 Y48.279 E-0.00132
G1 F5760
G1 X47.365 Y48.277 E-0.00132
G1 F5760
G1 X47.369 Y48.276 E-0.00132
G1 F5760
G1 X47.372 Y48.274 E-0.00132
G1 F5760
G1 X47.375 Y48.272 E-0.00132
G1 F5760
G1 X47.379 Y48.271 E-0.00132
G1 F5760
G1 X47.382 Y48.269 E-0.00132
G1 F5760
G1 X47.386 Y48.268 E-0.00132
G1 F5760
G1 X47.389 Y48.266 E-0.00132
G1 F5760
G1 X47.393 Y48.264 E-0.00132
G1 F5760
G1 X47.396 Y48.263 E-0.00132
G1 F5760
G1 X47.400 Y48.261 E-0.00132
G1 F5760
G1 X47.403 Y48.260 E-0.00132
G1 F5760
G1 X47.407 Y48.258 E-0.00132
G1 F5760
G1 X47.410 Y48.256 E-0.00132
G1 F5760
G1 X47.413 Y48.255 E-0.00132
G1 F5760
G1 X47.417 Y48.253 E-0.00132
G1 F5760
G1 X47.420 Y48.252 E-0.00132
G1 F5760
G1 X47.424 Y48.250 E-0.00132
G1 F5760
G1 X47.427 Y48.249 E-0.00132
G1 F5760
G1 X47.431 Y48.247 E-0.00132
G1 F5760
G1 X47.434 Y48.245 E-0.00132
G1 F5760
G1 X47.438 Y48.244 E-0.00132
G1 F5760
G1 X47.441 Y48.242 E-0.00132
G1 F5760
G1 X47.445 Y48.241 E-0.00132
G1 F5760
G1 X47.448 Y48.239 E-0.00132
G1 F5760
G1 X47.452 Y48.238 E-0.00132
G1 F5760
G1 X47.455 Y48.236 E-0.00132
G1 F5760
G1 X47.459 Y48.235 E-0.00132
G1 F5760
G1 X47.462 Y48.233 E-0.00132
G1 F5760
G1 X47.466 Y48.232 E-0.00132
G1 F5760
G1 X47.469 Y48.230 E-0.00132
G1 F5760
G1 X47.473 Y48.229 E-0.00132
G1 F5760
G1 X47.476 Y48.227 E-0.00132
G1 F5760
G1 X47.480 Y48.226 E-0.00132
G1 F5760
G1 X47.483 Y48.224 E-0.00132
G1 F5760
G1 X47.487 Y48.223 E-0.00132
G1 F5760
G1 X47.490 Y48.222 E-0.00132
G1 F5760
G1 X47.494 Y48.220 E-0.00132
G1 F5760
G1 X47.497 Y48.219 E-0.00132
G1 F5760
G1 X47.501 Y48.217 E-0.00132
G1 F5760
G1 X47.504 Y48.216 E-0.00132
G1 F5760
G1 X47.508 Y48.214 E-0.00132
G1 F5760
G1 X47.512 Y48.213 E-0.00132
G1 F5760
G1 X47.515 Y48.211 E-0.00132
G1 F5760
G1 X47.519 Y48.210 E-0.00132
G1 F5760
G1 X47.522 Y48.209 E-0.00132
G1 F5760
G1 X47.526 Y48.207 E-0.00132
G1 F5760
G1 X47.529 Y48.206 E-0.00132
G1 F5760
G1 X47.533 Y48.204 E-0.00132
G1 F5760
G1 X47.536 Y48.203 E-0.00132
G1 F5760
