; generated by Slic3r 1.33.3-prusa3d on 2017-03-29 at 22:10:46

; external perimeters extrusion width = 0.45mm
; perimeters extrusion width = 0.45mm
; infill extrusion width = 0.45mm
; solid infill extrusion width = 0.45mm
; top infill extrusion width = 0.40mm

; external perimeters extrusion width = 0.45mm
; perimeters extrusion width = 0.45mm
; infill extrusion width = 0.45mm
; solid infill extrusion width = 0.45mm
; top infill extrusion width = 0.40mm

; external perimeters extrusion width = 0.45mm
; perimeters extrusion width = 0.45mm
; infill extrusion width = 0.45mm
; solid infill extrusion width = 0.45mm
; top infill extrusion width = 0.40mm

M107
M115 U3.0.9 ; tell printer latest fw version
M83  ; extruder relative mode
M104 S230 ; set extruder temp
M140 S85 ; set bed temp
M190 S85 ; wait for bed temp
M109 S230 ; wait for extruder temp
G28 W ; home all without mesh bed level
G80 ; mesh bed leveling
G1 Y-3.0 F1000.0 ; go outside pritn area
G1 X60.0 E9.0  F1000.0 ; intro line
G1 X100.0 E12.5  F1000.0 ; intro line
G21 ; set units to millimeters
G90 ; use absolute coordinates
M83 ; use relative distances for extrusion
G1 E-0.80000 F2100.00000
G1 Z0.200 F7200.000
G1 X14.651 Y17.616 F7200.000
G1 E0.80000 F2100.00000
M204 S1000
G1 F2100
G1 X14.722 Y17.208 E0.01300
G1 X14.862 Y16.817 E0.01300
G1 X15.068 Y16.458 E0.01300
G1 X15.334 Y16.139 E0.01300
G1 X15.650 Y15.871 E0.01300
G1 X16.009 Y15.663 E0.01300
G1 X16.398 Y15.520 E0.01300
G1 X16.806 Y15.447 E0.01300
G1 X38.674 Y15.437 E0.68564
G1 X212.511 Y17.860 E5.45106
G1 X212.814 Y17.884 E0.00955
G1 X213.112 Y17.947 E0.00955
G1 X213.403 Y18.049 E0.00967
G1 X213.675 Y18.186 E0.00955
G1 X214.019 Y18.431 E0.01324
G1 X214.317 Y18.736 E0.01336
G1 X214.553 Y19.085 E0.01324
G1 X214.725 Y19.475 E0.01336
G1 X232.747 Y74.294 E1.80929
G1 X232.840 Y74.686 E0.01264
G1 X232.866 Y75.036 E0.01100
G1 X232.866 Y144.047 E2.16380
G1 X232.844 Y144.359 E0.00979
G1 X232.781 Y144.665 E0.00979
G1 X232.679 Y144.959 E0.00979
G1 X232.539 Y145.238 E0.00979
G1 X232.376 Y145.482 E0.00919
G1 X232.181 Y145.706 E0.00931
G1 X231.962 Y145.901 E0.00919
G1 X231.718 Y146.070 E0.00931
G1 X231.459 Y146.206 E0.00919
G1 X231.180 Y146.310 E0.00931
G1 X230.891 Y146.379 E0.00931
G1 X230.600 Y146.410 E0.00919
G1 X208.839 Y146.413 E0.68230
G1 X208.467 Y146.383 E0.01169
G1 X208.170 Y146.316 E0.00954
G1 X171.211 Y135.413 E1.20820
G1 X16.085 Y68.999 E5.29090
G1 X15.820 Y68.866 E0.00931
G1 X15.570 Y68.698 E0.00943
G1 X15.344 Y68.499 E0.00943
G1 X15.145 Y68.274 E0.00943
G1 X14.973 Y68.023 E0.00955
G1 X14.837 Y67.754 E0.00943
G1 X14.735 Y67.468 E0.00955
G1 X14.671 Y67.174 E0.00943
G1 X14.644 Y66.871 E0.00955
G1 X14.647 Y17.676 E1.54246
G1 F5760
G1 X14.652 Y17.612 E-0.02210
G1 F5760
G1 X14.652 Y17.609 E-0.00132
G1 F5760
G1 X14.652 Y17.605 E-0.00132
G1 F5760
G1 X14.653 Y17.601 E-0.00132
G1 F5760
G1 X14.653 Y17.597 E-0.00132
G1 F5760
G1 X14.653 Y17.594 E-0.00132
G1 F5760
G1 X14.654 Y17.590 E-0.00132
G1 F5760
G1 X14.654 Y17.586 E-0.00132
G1 F5760
G1 X14.655 Y17.582 E-0.00132
G1 F5760
G1 X14.655 Y17.578 E-0.00132
G1 F5760
G1 X14.655 Y17.575 E-0.00132
G1 F5760
G1 X14.656 Y17.571 E-0.00132
G1 F5760
G1 X14.656 Y17.567 E-0.00132
G1 F5760
G1 X14.656 Y17.563 E-0.00132
G1 F5760
G1 X14.657 Y17.559 E-0.00132
G1 F5760
G1 X14.657 Y17.556 E-0.00132
G1 F5760
G1 X14.658 Y17.552 E-0.00132
G1 F5760
G1 X14.658 Y17.548 E-0.00132
G1 F5760
G1 X14.659 Y17.544 E-0.00132
G1 F5760
G1 X14.659 Y17.540 E-0.00132
G1 F5760
G1 X14.659 Y17.537 E-0.00132
G1 F5760
G1 X14.660 Y17.533 E-0.00132
G1 F5760
G1 X14.660 Y17.529 E-0.00132
G1 F5760
G1 X14.661 Y17.525 E-0.00132
G1 F5760
G1 X14.661 Y17.522 E-0.00132
G1 F5760
G1 X14.662 Y17.518 E-0.00132
G1 F5760
G1 X14.662 Y17.514 E-0.00132
G1 F5760
G1 X14.663 Y17.510 E-0.00132
G1 F5760
G1 X14.663 Y17.506 E-0.00132
G1 F5760
G1 X14.664 Y17.503 E-0.00132
G1 F5760
G1 X14.664 Y17.499 E-0.00132
G1 F5760
G1 X14.665 Y17.495 E-0.00132
G1 F5760
G1 X14.665 Y17.491 E-0.00132
G1 F5760
G1 X14.666 Y17.488 E-0.00132
G1 F5760
G1 X14.666 Y17.484 E-0.00132
G1 F5760
G1 X14.667 Y17.480 E-0.00132
G1 F5760
G1 X14.667 Y17.476 E-0.00132
G1 F5760
G1 X14.668 Y17.472 E-0.00132
G1 F5760
G1 X14.668 Y17.469 E-0.00132
G1 F5760
G1 X14.669 Y17.465 E-0.00132
G1 F5760
G1 X14.670 Y17.461 E-0.00132
G1 F5760
G1 X14.670 Y17.457 E-0.00132
G1 F5760
G1 X14.671 Y17.454 E-0.00132
G1 F5760
G1 X14.671 Y17.450 E-0.00132
G1 F5760
G1 X14.672 Y17.446 E-0.00132
G1 F5760
G1 X14.672 Y17.442 E-0.00132
G1 F5760
G1 X14.673 Y17.439 E-0.00132
G1 F5760
G1 X14.674 Y17.435 E-0.00132
G1 F5760
G1 X14.674 Y17.431 E-0.00132
G1 F5760
G1 X14.675 Y17.427 E-0.00132
G1 F5760
G1 X14.675 Y17.424 E-0.00132
G1 F5760
G1 X14.676 Y17.420 E-0.00132
G1 F5760
G1 X14.677 Y17.416 E-0.00132
G1 F5760
G1 X14.677 Y17.412 E-0.00132
G1 F5760
G1 X14.678 Y17.409 E-0.00132
G1 F5760
G1 X14.679 Y17.405 E-0.00132
G1 F5760
G1 X14.679 Y17.401 E-0.00132
G1 F5760
G1 X14.680 Y17.397 E-0.00132
G1 F5760
G1 X14.681 Y17.394 E-0.00132
G1 F5760
G1 X14.681 Y17.390 E-0.00132
G1 F5760
G1 X14.682 Y17.386 E-0.00132
G1 F5760
G1 X14.683 Y17.382 E-0.00132
G1 F5760
G1 X14.683 Y17.379 E-0.00132
G1 F5760
G1 X14.684 Y17.375 E-0.00132
G1 F5760
G1 X14.685 Y17.371 E-0.00132
G1 F5760
G1 X14.686 Y17.367 E-0.00132
G1 F5760
G1 X14.686 Y17.364 E-0.00132
G1 F5760
G1 X14.687 Y17.360 E-0.00132
G1 F5760
G1 X14.688 Y17.356 E-0.00132
G1 F5760
G1 X14.688 Y17.352 E-0.00132
G1 F5760
G1 X14.689 Y17.349 E-0.00132
G1 F5760
G1 X14.690 Y17.345 E-0.00132
G1 F5760
G1 X14.691 Y17.341 E-0.00132
G1 F5760
G1 X14.691 Y17.337 E-0.00132
G1 F5760
G1 X14.692 Y17.334 E-0.00132
G1 F5760
G1 X14.693 Y17.330 E-0.00132
G1 F5760
G1 X14.694 Y17.326 E-0.00132
G1 F5760
G1 X14.695 Y17.323 E-0.00132
G1 F5760
G1 X14.695 Y17.319 E-0.00132
G1 F5760
G1 X14.696 Y17.315 E-0.00132
G1 F5760
G1 X14.697 Y17.311 E-0.00132
G1 F5760
G1 X14.698 Y17.308 E-0.00132
G1 F5760
G1 X14.699 Y17.304 E-0.00132
G1 F5760
G1 X14.699 Y17.300 E-0.00132
G1 F5760
G1 X14.700 Y17.296 E-0.00132
G1 F5760
G1 X14.701 Y17.293 E-0.00132
G1 F5760
G1 X14.702 Y17.289 E-0.00132
G1 F5760
G1 X14.703 Y17.285 E-0.00132
G1 F5760
G1 X14.704 Y17.282 E-0.00132
G1 F5760
G1 X14.704 Y17.278 E-0.00132
G1 F5760
G1 X14.705 Y17.274 E-0.00132
G1 F5760
G1 X14.706 Y17.270 E-0.00132
G1 F5760
G1 X14.707 Y17.267 E-0.00132
G1 F5760
G1 X14.708 Y17.263 E-0.00132
G1 F5760
G1 X14.709 Y17.259 E-0.00132
G1 F5760
G1 X14.710 Y17.256 E-0.00132
G1 F5760
G1 X14.711 Y17.252 E-0.00132
G1 F5760
G1 X14.712 Y17.248 E-0.00132
G1 F5760
G1 X14.712 Y17.245 E-0.00132
G1 F5760
G1 X14.713 Y17.241 E-0.00132
G1 F5760
G1 X14.714 Y17.237 E-0.00132
G1 F5760
G1 X14.715 Y17.233 E-0.00132
G1 F5760
G1 X14.716 Y17.230 E-0.00132
G1 F5760
G1 X14.717 Y17.226 E-0.00132
G1 F5760
G1 X14.718 Y17.222 E-0.00132
G1 F5760
G1 X14.719 Y17.219 E-0.00132
G1 F5760
G1 X14.720 Y17.215 E-0.00132
G1 F5760
G1 X14.721 Y17.211 E-0.00132
G1 F5760
G1 X14.722 Y17.208 E-0.00132
G1 F5760
G1 X14.723 Y17.204 E-0.00132
G1 F5760
G1 X14.724 Y17.200 E-0.00132
G1 F5760
G1 X14.725 Y17.197 E-0.00132
G1 F5760
G1 X14.726 Y17.193 E-0.00132
G1 F5760
G1 X14.727 Y17.189 E-0.00132
G1 F5760
G1 X14.728 Y17.186 E-0.00132
G1 F5760
G1 X14.729 Y17.182 E-0.00132
G1 F5760
G1 X14.730 Y17.178 E-0.00132
G1 F5760
G1 X14.731 Y17.175 E-0.00132
G1 F5760
G1 X14.732 Y17.171 E-0.00132
G1 F5760
G1 X14.733 Y17.167 E-0.00132
G1 F5760
G1 X14.734 Y17.164 E-0.00132
G1 F5760
G1 X14.735 Y17.160 E-0.00132
G1 F5760
G1 X14.736 Y17.156 E-0.00132
G1 F5760
G1 X14.737 Y17.153 E-0.00132
G1 F5760
G1 X14.738 Y17.149 E-0.00132
G1 F5760
G1 X14.739 Y17.145 E-0.00132
G1 F5760
G1 X14.740 Y17.142 E-0.00132
G1 F5760
G1 X14.741 Y17.138 E-0.00132
G1 F5760
G1 X14.742 Y17.134 E-0.00132
G1 F5760
G1 X14.744 Y17.131 E-0.00132
G1 F5760
G1 X14.745 Y17.127 E-0.00132
G1 F5760
G1 X14.746 Y17.123 E-0.00132
G1 F5760
G1 X14.747 Y17.120 E-0.00132
G1 F5760
G1 X14.748 Y17.116 E-0.00132
G1 F5760
G1 X14.749 Y17.112 E-0.00132
G1 F5760
G1 X14.750 Y17.109 E-0.00132
G1 F5760
G1 X14.751 Y17.105 E-0.00132
G1 F5760
G1 X14.752 Y17.102 E-0.00132
G1 F5760
G1 X14.754 Y17.098 E-0.00132
G1 F5760
G1 X14.755 Y17.094 E-0.00132
G1 F5760
G1 X14.756 Y17.091 E-0.00132
G1 F5760
G1 X14.757 Y17.087 E-0.00132
G1 F5760
G1 X14.758 Y17.083 E-0.00132
G1 F5760
G1 X14.759 Y17.080 E-0.00132
G1 F5760
G1 X14.761 Y17.076 E-0.00132
G1 F5760
G1 X14.762 Y17.073 E-0.00132
G1 F5760
G1 X14.763 Y17.069 E-0.00132
G1 F5760
G1 X14.764 Y17.065 E-0.00132
G1 F5760
G1 X14.765 Y17.062 E-0.00132
G1 F5760
G1 X14.767 Y17.058 E-0.00132
G1 F5760
G1 X14.768 Y17.054 E-0.00132
G1 F5760
G1 X14.769 Y17.051 E-0.00132
G1 F5760
G1 X14.770 Y17.047 E-0.00132
G1 F5760
G1 X14.772 Y17.044 E-0.00132
G1 F5760
G1 X14.773 Y17.040 E-0.00132
G1 F5760
G1 X14.774 Y17.036 E-0.00132
G1 F5760
G1 X14.775 Y17.033 E-0.00132
G1 F5760
G1 X14.776 Y17.029 E-0.00132
G1 F5760
G1 X14.778 Y17.026 E-0.00132
G1 F5760
G1 X14.779 Y17.022 E-0.00132
G1 F5760
G1 X14.780 Y17.018 E-0.00132
G1 F5760
G1 X14.782 Y17.015 E-0.00132
G1 F5760
G1 X14.783 Y17.011 E-0.00132
G1 F5760
G1 X14.784 Y17.008 E-0.00132
G1 F5760
G1 X14.785 Y17.004 E-0.00132
G1 F5760
G1 X14.787 Y17.001 E-0.00132
G1 F5760
G1 X14.788 Y16.997 E-0.00132
G1 F5760
G1 X14.789 Y16.993 E-0.00132
G1 F5760
G1 X14.791 Y16.990 E-0.00132
G1 F5760
G1 X14.792 Y16.986 E-0.00132
G1 F5760
G1 X14.793 Y16.983 E-0.00132
G1 F5760
G1 X14.795 Y16.979 E-0.00132
G1 F5760
G1 X14.796 Y16.976 E-0.00132
G1 F5760
G1 X14.797 Y16.972 E-0.00132
G1 F5760
G1 X14.799 Y16.968 E-0.00132
G1 F5760
G1 X14.800 Y16.965 E-0.00132
G1 F5760
G1 X14.801 Y16.961 E-0.00132
G1 F5760
G1 X14.803 Y16.958 E-0.00132
G1 F5760
G1 X14.804 Y16.954 E-0.00132
G1 F5760
G1 X14.806 Y16.951 E-0.00132
G1 F5760
G1 X14.807 Y16.947 E-0.00132
G1 F5760
G1 X14.808 Y16.944 E-0.00132
G1 F5760
G1 X14.810 Y16.940 E-0.00132
G1 F5760
G1 X14.811 Y16.936 E-0.00132
G1 F5760
G1 X14.813 Y16.933 E-0.00132
G1 F5760
G1 X14.814 Y16.929 E-0.00132
G1 F5760
G1 X14.815 Y16.926 E-0.00132
G1 F5760
G1 X14.817 Y16.922 E-0.00132
G1 F5760
G1 X14.818 Y16.919 E-0.00132
G1 F5760
G1 X14.820 Y16.915 E-0.00132
G1 F5760
G1 X14.821 Y16.912 E-0.00132
G1 F5760
G1 X14.823 Y16.908 E-0.00132
G1 F5760
G1 X14.824 Y16.905 E-0.00132
G1 F5760
G1 X14.825 Y16.901 E-0.00132
G1 F5760
G1 X14.827 Y16.898 E-0.00132
G1 F5760
G1 X14.828 Y16.894 E-0.00132
G1 F5760
G1 X14.830 Y16.891 E-0.00132
G1 F5760
G1 X14.831 Y16.887 E-0.00132
G1 F5760
G1 X14.833 Y16.884 E-0.00132
G1 F5760
G1 X14.834 Y16.880 E-0.00132
G1 F5760
G1 X14.836 Y16.877 E-0.00132
G1 F5760
G1 X14.837 Y16.873 E-0.00132
G1 F5760
G1 X14.839 Y16.870 E-0.00132
G1 F5760
G1 X14.840 Y16.866 E-0.00132
G1 F5760
G1 X14.842 Y16.863 E-0.00132
G1 F5760
G1 X14.843 Y16.859 E-0.00132
G1 F5760
G1 X14.845 Y16.856 E-0.00132
G1 F5760
G1 X14.847 Y16.852 E-0.00132
G1 F5760
G1 X14.848 Y16.849 E-0.00132
G1 F5760
G1 X14.850 Y16.845 E-0.00132
G1 F5760
G1 X14.851 Y16.842 E-0.00132
G1 F5760
G1 X14.853 Y16.838 E-0.00132
G1 F5760
G1 X14.854 Y16.835 E-0.00132
G1 F5760
G1 X14.856 Y16.831 E-0.00132
G1 F5760
G1 X14.857 Y16.828 E-0.00132
G1 F5760
G1 X14.859 Y16.824 E-0.00132
G1 F5760
G1 X14.861 Y16.821 E-0.00132
G1 F5760
G1 X14.862 Y16.817 E-0.00132
G1 F5760
G1 X14.864 Y16.814 E-0.00132
G1 F5760
G1 X14.865 Y16.811 E-0.00132
G1 F5760
G1 X14.867 Y16.807 E-0.00132
G1 F5760
G1 X14.869 Y16.804 E-0.00132
G1 F5760
G1 X14.870 Y16.800 E-0.00132
G1 F5760
G1 X14.872 Y16.797 E-0.00132
G1 F5760
G1 X14.874 Y16.793 E-0.00132
G1 F5760
G1 X14.875 Y16.790 E-0.00132
G1 F5760
G1 X14.877 Y16.786 E-0.00132
G1 F5760
G1 X14.878 Y16.783 E-0.00132
G1 F5760
G1 X14.880 Y16.780 E-0.00132
G1 F5760
G1 X14.882 Y16.776 E-0.00132
G1 F5760
G1 X14.883 Y16.773 E-0.00132
G1 F5760
G1 X14.885 Y16.769 E-0.00132
G1 F5760
G1 X14.887 Y16.766 E-0.00132
G1 F5760
G1 X14.888 Y16.762 E-0.00132
G1 F5760
G1 X14.890 Y16.759 E-0.00132
G1 F5760
G1 X14.892 Y16.756 E-0.00132
G1 F5760
G1 X14.894 Y16.752 E-0.00132
G1 F5760
G1 X14.895 Y16.749 E-0.00132
G1 F5760
G1 X14.897 Y16.745 E-0.00132
G1 F5760
G1 X14.899 Y16.742 E-0.00132
G1 F5760
G1 X14.900 Y16.739 E-0.00132
G1 F5760
G1 X14.902 Y16.735 E-0.00132
G1 F5760
G1 X14.904 Y16.732 E-0.00132
G1 F5760
G1 X14.906 Y16.728 E-0.00132
G1 F5760
G1 X14.907 Y16.725 E-0.00132
G1 F5760
G1 X14.909 Y16.722 E-0.00132
G1 F5760
G1 X14.911 Y16.718 E-0.00132
G1 F5760
G1 X14.913 Y16.715 E-0.00132
G1 F5760
G1 X14.914 Y16.712 E-0.00132
G1 F5760
G1 X14.916 Y16.708 E-0.00132
G1 F5760
G1 X14.918 Y16.705 E-0.00132
G1 F5760
G1 X14.920 Y16.701 E-0.00132
G1 F5760
G1 X14.921 Y16.698 E-0.00132
G1 F5760
G1 X14.923 Y16.695 E-0.00132
G1 F5760
G1 X14.925 Y16.691 E-0.00132
G1 F5760
G1 X14.927 Y16.688 E-0.00132
G1 F5760
G1 X14.929 Y16.685 E-0.00132
G1 F5760
G1 X14.930 Y16.681 E-0.00132
G1 F5760
G1 X14.932 Y16.678 E-0.00132
G1 F5760
G1 X14.934 Y16.675 E-0.00132
G1 F5760
G1 X14.936 Y16.671 E-0.00132
G1 F5760
G1 X14.938 Y16.668 E-0.00132
G1 F5760
G1 X14.940 Y16.665 E-0.00132
G1 F5760
G1 X14.941 Y16.661 E-0.00132
G1 F5760
G1 X14.943 Y16.658 E-0.00132
G1 F5760
G1 X14.945 Y16.655 E-0.00132
G1 F5760
G1 X14.947 Y16.651 E-0.00132
G1 F5760
G1 X14.949 Y16.648 E-0.00132
G1 F5760
G1 X14.951 Y16.645 E-0.00132
G1 F5760
G1 X14.953 Y16.641 E-0.00132
G1 F5760
G1 X14.955 Y16.638 E-0.00132
G1 F5760
G1 X14.956 Y16.635 E-0.00132
G1 F5760
G1 X14.958 Y16.631 E-0.00132
G1 F5760
G1 X14.960 Y16.628 E-0.00132
G1 F5760
G1 X14.962 Y16.625 E-0.00132
G1 F5760
G1 X14.964 Y16.621 E-0.00132
G1 F5760
G1 X14.966 Y16.618 E-0.00132
G1 F5760
G1 X14.968 Y16.615 E-0.00132
G1 F5760
G1 X14.970 Y16.612 E-0.00132
G1 F5760
G1 X14.972 Y16.608 E-0.00132
G1 F5760
G1 X14.974 Y16.605 E-0.00132
G1 F5760
G1 X14.976 Y16.602 E-0.00132
G1 F5760
G1 X14.978 Y16.599 E-0.00132
G1 F5760
G1 X14.979 Y16.595 E-0.00132
G1 F5760
G1 X14.981 Y16.592 E-0.00132
G1 F5760
G1 X14.983 Y16.589 E-0.00132
G1 F5760
G1 X14.985 Y16.585 E-0.00132
G1 F5760
G1 X14.987 Y16.582 E-0.00132
G1 F5760
G1 X14.989 Y16.579 E-0.00132
G1 F5760
G1 X14.991 Y16.576 E-0.00132
G1 F5760
G1 X14.993 Y16.572 E-0.00132
G1 F5760
G1 X14.995 Y16.569 E-0.00132
G1 F5760
G1 X14.997 Y16.566 E-0.00132
G1 F5760
G1 X14.999 Y16.563 E-0.00132
G1 F5760
G1 X15.001 Y16.559 E-0.00132
G1 F5760
G1 X15.003 Y16.556 E-0.00132
G1 F5760
G1 X15.005 Y16.553 E-0.00132
G1 F5760
G1 X15.007 Y16.550 E-0.00132
G1 F5760
G1 X15.009 Y16.547 E-0.00132
G1 F5760
G1 X15.011 Y16.543 E-0.00132
G1 F5760
G1 X15.013 Y16.540 E-0.00132
G1 F5760
G1 X15.015 Y16.537 E-0.00132
G1 F5760
G1 X15.018 Y16.534 E-0.00132
G1 F5760
G1 X15.020 Y16.530 E-0.00132
G1 F5760
G1 X15.022 Y16.527 E-0.00132
G1 F5760
G1 X15.024 Y16.524 E-0.00132
G1 F5760
G1 X15.026 Y16.521 E-0.00132
G1 F5760
G1 X15.028 Y16.518 E-0.00132
G1 F5760
G1 X15.030 Y16.514 E-0.00132
G1 F5760
G1 X15.032 Y16.511 E-0.00132
G1 F5760
G1 X15.034 Y16.508 E-0.00132
G1 F5760
G1 X15.036 Y16.505 E-0.00132
G1 F5760
G1 X15.038 Y16.502 E-0.00132
G1 F5760
G1 X15.040 Y16.499 E-0.00132
G1 F5760
G1 X15.042 Y16.495 E-0.00132
G1 F5760
G1 X15.045 Y16.492 E-0.00132
G1 F5760
G1 X15.047 Y16.489 E-0.00132
G1 F5760
G1 X15.049 Y16.486 E-0.00132
G1 F5760
G1 X15.051 Y16.483 E-0.00132
G1 F5760
G1 X15.053 Y16.480 E-0.00132
G1 F5760
G1 X15.055 Y16.476 E-0.00132
G1 F5760
G1 X15.057 Y16.473 E-0.00132
G1 F5760
G1 X15.060 Y16.470 E-0.00132
G1 F5760
G1 X15.062 Y16.467 E-0.00132
G1 F5760
G1 X15.064 Y16.464 E-0.00132
G1 F5760
G1 X15.066 Y16.461 E-0.00132
G1 F5760
G1 X15.068 Y16.458 E-0.00132
G1 F5760
G1 X15.070 Y16.454 E-0.00132
G1 F5760
G1 X15.073 Y16.451 E-0.00132
G1 F5760
G1 X15.075 Y16.448 E-0.00132
G1 F5760
G1 X15.077 Y16.445 E-0.00132
G1 F5760
G1 X15.079 Y16.442 E-0.00132
G1 F5760
G1 X15.081 Y16.439 E-0.00132
G1 F5760
G1 X15.084 Y16.436 E-0.00132
G1 F5760
G1 X15.086 Y16.433 E-0.00132
G1 F5760
G1 X15.088 Y16.430 E-0.00132
G1 F5760
G1 X15.090 Y16.427 E-0.00132
G1 F5760
G1 X15.092 Y16.423 E-0.00132
G1 F5760
G1 X15.095 Y16.420 E-0.00132
G1 F5760
G1 X15.097 Y16.417 E-0.00132
G1 F5760
G1 X15.099 Y16.414 E-0.00132
G1 F5760
G1 X15.101 Y16.411 E-0.00132
G1 F5760
G1 X15.104 Y16.408 E-0.00132
G1 F5760
G1 X15.106 Y16.405 E-0.00132
G1 F5760
G1 X15.108 Y16.402 E-0.00132
G1 F5760
G1 X15.110 Y16.399 E-0.00132
G1 F5760
G1 X15.113 Y16.396 E-0.00132
G1 F5760
G1 X15.115 Y16.393 E-0.00132
G1 F5760
G1 X15.117 Y16.390 E-0.00132
G1 F5760
G1 X15.120 Y16.387 E-0.00132
G1 F5760
