; generated by Slic3r 1.33.3-prusa3d on 2017-04-02 at 16:29:46

; external perimeters extrusion width = 0.45mm
; perimeters extrusion width = 0.45mm
; infill extrusion width = 0.45mm
; solid infill extrusion width = 0.45mm
; top infill extrusion width = 0.45mm

M107
M115 U3.0.9 ; tell printer latest fw version
M83  ; extruder relative mode
M104 S220 ; set extruder temp
M140 S55 ; set bed temp
M190 S55 ; wait for bed temp
M109 S220 ; wait for extruder temp
G28 W ; home all without mesh bed level
G80 ; mesh bed leveling
G1 Y-3.0 F1000.0 ; go outside pritn area
G1 X60.0 E9.0  F1000.0 ; intro line
G1 X100.0 E12.5  F1000.0 ; intro line
G21 ; set units to millimeters
G90 ; use absolute coordinates
M83 ; use relative distances for extrusion
G1 E-0.80000 F2100.00000
G1 Z0.200 F7200.000
G1 X30.454 Y18.146 F7200.000
G1 E0.80000 F2100.00000
M204 S1000
G1 F2100
G1 X30.544 Y17.772 E0.01265
G1 X30.695 Y17.415 E0.01278
G1 X30.901 Y17.090 E0.01265
G1 X31.158 Y16.800 E0.01278
G1 X31.456 Y16.557 E0.01265
G1 X31.793 Y16.365 E0.01278
G1 X32.157 Y16.229 E0.01278
G1 X32.538 Y16.155 E0.01278
G1 X75.004 Y13.151 E1.40156
G1 X96.844 Y13.146 E0.71902
G1 X97.140 Y13.168 E0.00977
G1 X97.434 Y13.228 E0.00990
G1 X97.719 Y13.325 E0.00990
G1 X97.989 Y13.457 E0.00990
G1 X98.225 Y13.610 E0.00927
G1 X98.445 Y13.793 E0.00940
G1 X98.640 Y14.001 E0.00940
G1 X98.809 Y14.231 E0.00940
G1 X98.948 Y14.477 E0.00927
G1 X99.058 Y14.740 E0.00940
G1 X99.136 Y15.015 E0.00940
G1 X99.180 Y15.297 E0.00940
G1 X99.190 Y25.522 E0.33664
G1 X99.174 Y25.804 E0.00927
G1 X93.434 Y53.143 E0.91969
G1 X93.332 Y53.490 E0.01190
G1 X93.177 Y53.821 E0.01203
G1 X93.012 Y54.072 E0.00990
G1 X92.819 Y54.298 E0.00977
G1 X92.600 Y54.498 E0.00977
G1 X92.355 Y54.672 E0.00990
G1 X92.092 Y54.811 E0.00977
G1 X91.811 Y54.918 E0.00990
G1 X91.523 Y54.988 E0.00977
G1 X91.228 Y55.021 E0.00977
G1 X69.297 Y55.018 E0.72201
G1 X30.714 Y49.600 E1.28269
G1 X30.285 Y49.496 E0.01453
G1 X29.882 Y49.315 E0.01453
G1 X29.661 Y49.173 E0.00865
G1 X29.458 Y49.007 E0.00865
G1 X29.273 Y48.820 E0.00865
G1 X29.111 Y48.614 E0.00865
G1 X28.972 Y48.391 E0.00865
G1 X28.858 Y48.154 E0.00865
G1 X28.772 Y47.906 E0.00865
G1 X28.712 Y47.646 E0.00877
G1 X28.679 Y47.263 E0.01265
G1 X28.679 Y42.206 E0.16651
G1 X30.445 Y18.205 E0.79227
G1 F5760
G1 X30.454 Y18.142 E-0.02210
G1 F5760
G1 X30.455 Y18.138 E-0.00132
G1 F5760
G1 X30.456 Y18.135 E-0.00132
G1 F5760
G1 X30.456 Y18.131 E-0.00132
G1 F5760
G1 X30.457 Y18.127 E-0.00132
G1 F5760
G1 X30.457 Y18.123 E-0.00132
G1 F5760
G1 X30.458 Y18.120 E-0.00132
G1 F5760
G1 X30.459 Y18.116 E-0.00132
G1 F5760
G1 X30.459 Y18.112 E-0.00132
G1 F5760
G1 X30.460 Y18.108 E-0.00132
G1 F5760
G1 X30.461 Y18.105 E-0.00132
G1 F5760
G1 X30.461 Y18.101 E-0.00132
G1 F5760
G1 X30.462 Y18.097 E-0.00132
G1 F5760
G1 X30.463 Y18.093 E-0.00132
G1 F5760
G1 X30.463 Y18.090 E-0.00132
G1 F5760
G1 X30.464 Y18.086 E-0.00132
G1 F5760
G1 X30.465 Y18.082 E-0.00132
G1 F5760
G1 X30.465 Y18.078 E-0.00132
G1 F5760
G1 X30.466 Y18.075 E-0.00132
G1 F5760
G1 X30.467 Y18.071 E-0.00132
G1 F5760
G1 X30.468 Y18.067 E-0.00132
G1 F5760
G1 X30.468 Y18.063 E-0.00132
G1 F5760
G1 X30.469 Y18.060 E-0.00132
G1 F5760
G1 X30.470 Y18.056 E-0.00132
G1 F5760
G1 X30.471 Y18.052 E-0.00132
G1 F5760
G1 X30.471 Y18.049 E-0.00132
G1 F5760
G1 X30.472 Y18.045 E-0.00132
G1 F5760
G1 X30.473 Y18.041 E-0.00132
G1 F5760
G1 X30.474 Y18.037 E-0.00132
G1 F5760
G1 X30.474 Y18.034 E-0.00132
G1 F5760
G1 X30.475 Y18.030 E-0.00132
G1 F5760
G1 X30.476 Y18.026 E-0.00132
G1 F5760
G1 X30.477 Y18.022 E-0.00132
G1 F5760
G1 X30.477 Y18.019 E-0.00132
G1 F5760
G1 X30.478 Y18.015 E-0.00132
G1 F5760
G1 X30.479 Y18.011 E-0.00132
G1 F5760
G1 X30.480 Y18.008 E-0.00132
G1 F5760
G1 X30.481 Y18.004 E-0.00132
G1 F5760
G1 X30.482 Y18.000 E-0.00132
G1 F5760
G1 X30.482 Y17.996 E-0.00132
G1 F5760
G1 X30.483 Y17.993 E-0.00132
G1 F5760
G1 X30.484 Y17.989 E-0.00132
G1 F5760
G1 X30.485 Y17.985 E-0.00132
G1 F5760
G1 X30.486 Y17.981 E-0.00132
G1 F5760
G1 X30.487 Y17.978 E-0.00132
G1 F5760
G1 X30.487 Y17.974 E-0.00132
G1 F5760
G1 X30.488 Y17.970 E-0.00132
G1 F5760
G1 X30.489 Y17.967 E-0.00132
G1 F5760
G1 X30.490 Y17.963 E-0.00132
G1 F5760
G1 X30.491 Y17.959 E-0.00132
G1 F5760
G1 X30.492 Y17.956 E-0.00132
G1 F5760
G1 X30.493 Y17.952 E-0.00132
G1 F5760
G1 X30.494 Y17.948 E-0.00132
G1 F5760
G1 X30.495 Y17.944 E-0.00132
G1 F5760
G1 X30.496 Y17.941 E-0.00132
G1 F5760
G1 X30.496 Y17.937 E-0.00132
G1 F5760
G1 X30.497 Y17.933 E-0.00132
G1 F5760
G1 X30.498 Y17.930 E-0.00132
G1 F5760
G1 X30.499 Y17.926 E-0.00132
G1 F5760
G1 X30.500 Y17.922 E-0.00132
G1 F5760
G1 X30.501 Y17.919 E-0.00132
G1 F5760
G1 X30.502 Y17.915 E-0.00132
G1 F5760
G1 X30.503 Y17.911 E-0.00132
G1 F5760
G1 X30.504 Y17.908 E-0.00132
G1 F5760
G1 X30.505 Y17.904 E-0.00132
G1 F5760
G1 X30.506 Y17.900 E-0.00132
G1 F5760
G1 X30.507 Y17.897 E-0.00132
G1 F5760
G1 X30.508 Y17.893 E-0.00132
G1 F5760
G1 X30.509 Y17.889 E-0.00132
G1 F5760
G1 X30.510 Y17.885 E-0.00132
G1 F5760
G1 X30.511 Y17.882 E-0.00132
G1 F5760
G1 X30.512 Y17.878 E-0.00132
G1 F5760
G1 X30.513 Y17.874 E-0.00132
G1 F5760
G1 X30.514 Y17.871 E-0.00132
G1 F5760
G1 X30.515 Y17.867 E-0.00132
G1 F5760
G1 X30.516 Y17.863 E-0.00132
G1 F5760
G1 X30.517 Y17.860 E-0.00132
G1 F5760
G1 X30.518 Y17.856 E-0.00132
G1 F5760
G1 X30.519 Y17.853 E-0.00132
G1 F5760
G1 X30.520 Y17.849 E-0.00132
G1 F5760
G1 X30.522 Y17.845 E-0.00132
G1 F5760
G1 X30.523 Y17.842 E-0.00132
G1 F5760
G1 X30.524 Y17.838 E-0.00132
G1 F5760
G1 X30.525 Y17.834 E-0.00132
G1 F5760
G1 X30.526 Y17.831 E-0.00132
G1 F5760
G1 X30.527 Y17.827 E-0.00132
G1 F5760
G1 X30.528 Y17.823 E-0.00132
G1 F5760
G1 X30.529 Y17.820 E-0.00132
G1 F5760
G1 X30.530 Y17.816 E-0.00132
G1 F5760
G1 X30.531 Y17.812 E-0.00132
G1 F5760
G1 X30.533 Y17.809 E-0.00132
G1 F5760
G1 X30.534 Y17.805 E-0.00132
G1 F5760
G1 X30.535 Y17.801 E-0.00132
G1 F5760
G1 X30.536 Y17.798 E-0.00132
G1 F5760
G1 X30.537 Y17.794 E-0.00132
G1 F5760
G1 X30.538 Y17.791 E-0.00132
G1 F5760
G1 X30.540 Y17.787 E-0.00132
G1 F5760
G1 X30.541 Y17.783 E-0.00132
G1 F5760
G1 X30.542 Y17.780 E-0.00132
G1 F5760
G1 X30.543 Y17.776 E-0.00132
G1 F5760
G1 X30.544 Y17.772 E-0.00132
G1 F5760
G1 X30.545 Y17.769 E-0.00132
G1 F5760
G1 X30.547 Y17.765 E-0.00132
G1 F5760
G1 X30.548 Y17.762 E-0.00132
G1 F5760
G1 X30.549 Y17.758 E-0.00132
G1 F5760
G1 X30.550 Y17.754 E-0.00132
G1 F5760
G1 X30.552 Y17.751 E-0.00132
G1 F5760
G1 X30.553 Y17.747 E-0.00132
G1 F5760
G1 X30.554 Y17.744 E-0.00132
G1 F5760
G1 X30.555 Y17.740 E-0.00132
G1 F5760
G1 X30.556 Y17.736 E-0.00132
G1 F5760
G1 X30.558 Y17.733 E-0.00132
G1 F5760
G1 X30.559 Y17.729 E-0.00132
G1 F5760
G1 X30.560 Y17.726 E-0.00132
G1 F5760
G1 X30.562 Y17.722 E-0.00132
G1 F5760
G1 X30.563 Y17.718 E-0.00132
G1 F5760
G1 X30.564 Y17.715 E-0.00132
G1 F5760
G1 X30.565 Y17.711 E-0.00132
G1 F5760
G1 X30.567 Y17.708 E-0.00132
G1 F5760
G1 X30.568 Y17.704 E-0.00132
G1 F5760
G1 X30.569 Y17.701 E-0.00132
G1 F5760
G1 X30.571 Y17.697 E-0.00132
G1 F5760
G1 X30.572 Y17.693 E-0.00132
G1 F5760
G1 X30.573 Y17.690 E-0.00132
G1 F5760
G1 X30.575 Y17.686 E-0.00132
G1 F5760
G1 X30.576 Y17.683 E-0.00132
G1 F5760
G1 X30.577 Y17.679 E-0.00132
G1 F5760
G1 X30.579 Y17.676 E-0.00132
G1 F5760
G1 X30.580 Y17.672 E-0.00132
G1 F5760
G1 X30.581 Y17.668 E-0.00132
G1 F5760
G1 X30.583 Y17.665 E-0.00132
G1 F5760
G1 X30.584 Y17.661 E-0.00132
G1 F5760
G1 X30.585 Y17.658 E-0.00132
G1 F5760
G1 X30.587 Y17.654 E-0.00132
G1 F5760
G1 X30.588 Y17.651 E-0.00132
G1 F5760
G1 X30.590 Y17.647 E-0.00132
G1 F5760
G1 X30.591 Y17.644 E-0.00132
G1 F5760
G1 X30.592 Y17.640 E-0.00132
G1 F5760
G1 X30.594 Y17.636 E-0.00132
G1 F5760
G1 X30.595 Y17.633 E-0.00132
G1 F5760
G1 X30.597 Y17.629 E-0.00132
G1 F5760
G1 X30.598 Y17.626 E-0.00132
G1 F5760
G1 X30.599 Y17.622 E-0.00132
G1 F5760
G1 X30.601 Y17.619 E-0.00132
G1 F5760
G1 X30.602 Y17.615 E-0.00132
G1 F5760
G1 X30.604 Y17.612 E-0.00132
G1 F5760
G1 X30.605 Y17.608 E-0.00132
G1 F5760
G1 X30.607 Y17.605 E-0.00132
G1 F5760
G1 X30.608 Y17.601 E-0.00132
G1 F5760
G1 X30.610 Y17.598 E-0.00132
G1 F5760
G1 X30.611 Y17.594 E-0.00132
G1 F5760
G1 X30.613 Y17.591 E-0.00132
G1 F5760
G1 X30.614 Y17.587 E-0.00132
G1 F5760
G1 X30.616 Y17.584 E-0.00132
G1 F5760
G1 X30.617 Y17.580 E-0.00132
G1 F5760
G1 X30.619 Y17.577 E-0.00132
G1 F5760
G1 X30.620 Y17.573 E-0.00132
G1 F5760
G1 X30.622 Y17.570 E-0.00132
G1 F5760
G1 X30.623 Y17.566 E-0.00132
G1 F5760
G1 X30.625 Y17.563 E-0.00132
G1 F5760
G1 X30.626 Y17.559 E-0.00132
G1 F5760
G1 X30.628 Y17.556 E-0.00132
G1 F5760
G1 X30.629 Y17.552 E-0.00132
G1 F5760
G1 X30.631 Y17.549 E-0.00132
G1 F5760
G1 X30.632 Y17.545 E-0.00132
G1 F5760
G1 X30.634 Y17.542 E-0.00132
G1 F5760
G1 X30.635 Y17.538 E-0.00132
G1 F5760
G1 X30.637 Y17.535 E-0.00132
G1 F5760
G1 X30.639 Y17.531 E-0.00132
G1 F5760
G1 X30.640 Y17.528 E-0.00132
G1 F5760
G1 X30.642 Y17.524 E-0.00132
G1 F5760
G1 X30.643 Y17.521 E-0.00132
G1 F5760
G1 X30.645 Y17.518 E-0.00132
G1 F5760
G1 X30.647 Y17.514 E-0.00132
G1 F5760
G1 X30.648 Y17.511 E-0.00132
G1 F5760
G1 X30.650 Y17.507 E-0.00132
G1 F5760
G1 X30.651 Y17.504 E-0.00132
G1 F5760
G1 X30.653 Y17.500 E-0.00132
G1 F5760
G1 X30.655 Y17.497 E-0.00132
G1 F5760
G1 X30.656 Y17.493 E-0.00132
G1 F5760
G1 X30.658 Y17.490 E-0.00132
G1 F5760
G1 X30.660 Y17.487 E-0.00132
G1 F5760
G1 X30.661 Y17.483 E-0.00132
G1 F5760
G1 X30.663 Y17.480 E-0.00132
G1 F5760
G1 X30.665 Y17.476 E-0.00132
G1 F5760
G1 X30.666 Y17.473 E-0.00132
G1 F5760
G1 X30.668 Y17.469 E-0.00132
G1 F5760
G1 X30.670 Y17.466 E-0.00132
G1 F5760
G1 X30.671 Y17.463 E-0.00132
G1 F5760
G1 X30.673 Y17.459 E-0.00132
G1 F5760
G1 X30.675 Y17.456 E-0.00132
G1 F5760
G1 X30.676 Y17.452 E-0.00132
G1 F5760
G1 X30.678 Y17.449 E-0.00132
G1 F5760
G1 X30.680 Y17.446 E-0.00132
G1 F5760
G1 X30.682 Y17.442 E-0.00132
G1 F5760
G1 X30.683 Y17.439 E-0.00132
G1 F5760
G1 X30.685 Y17.435 E-0.00132
G1 F5760
G1 X30.687 Y17.432 E-0.00132
G1 F5760
G1 X30.688 Y17.429 E-0.00132
G1 F5760
G1 X30.690 Y17.425 E-0.00132
G1 F5760
G1 X30.692 Y17.422 E-0.00132
G1 F5760
G1 X30.694 Y17.418 E-0.00132
G1 F5760
G1 X30.695 Y17.415 E-0.00132
G1 F5760
G1 X30.697 Y17.412 E-0.00132
G1 F5760
G1 X30.699 Y17.408 E-0.00132
G1 F5760
G1 X30.701 Y17.405 E-0.00132
G1 F5760
G1 X30.703 Y17.402 E-0.00132
G1 F5760
G1 X30.704 Y17.398 E-0.00132
G1 F5760
G1 X30.706 Y17.395 E-0.00132
G1 F5760
G1 X30.708 Y17.392 E-0.00132
G1 F5760
G1 X30.710 Y17.388 E-0.00132
G1 F5760
G1 X30.712 Y17.385 E-0.00132
G1 F5760
G1 X30.713 Y17.381 E-0.00132
G1 F5760
G1 X30.715 Y17.378 E-0.00132
G1 F5760
G1 X30.717 Y17.375 E-0.00132
G1 F5760
G1 X30.719 Y17.371 E-0.00132
G1 F5760
G1 X30.721 Y17.368 E-0.00132
G1 F5760
G1 X30.723 Y17.365 E-0.00132
G1 F5760
G1 X30.724 Y17.361 E-0.00132
G1 F5760
G1 X30.726 Y17.358 E-0.00132
G1 F5760
G1 X30.728 Y17.355 E-0.00132
G1 F5760
G1 X30.730 Y17.351 E-0.00132
G1 F5760
G1 X30.732 Y17.348 E-0.00132
G1 F5760
G1 X30.734 Y17.345 E-0.00132
G1 F5760
G1 X30.736 Y17.342 E-0.00132
G1 F5760
G1 X30.738 Y17.338 E-0.00132
G1 F5760
G1 X30.739 Y17.335 E-0.00132
G1 F5760
G1 X30.741 Y17.332 E-0.00132
G1 F5760
G1 X30.743 Y17.328 E-0.00132
G1 F5760
G1 X30.745 Y17.325 E-0.00132
G1 F5760
G1 X30.747 Y17.322 E-0.00132
G1 F5760
G1 X30.749 Y17.318 E-0.00132
G1 F5760
G1 X30.751 Y17.315 E-0.00132
G1 F5760
G1 X30.753 Y17.312 E-0.00132
G1 F5760
G1 X30.755 Y17.309 E-0.00132
G1 F5760
G1 X30.757 Y17.305 E-0.00132
G1 F5760
G1 X30.759 Y17.302 E-0.00132
G1 F5760
G1 X30.761 Y17.299 E-0.00132
G1 F5760
G1 X30.763 Y17.295 E-0.00132
G1 F5760
G1 X30.764 Y17.292 E-0.00132
G1 F5760
G1 X30.766 Y17.289 E-0.00132
G1 F5760
G1 X30.768 Y17.286 E-0.00132
G1 F5760
G1 X30.770 Y17.282 E-0.00132
G1 F5760
G1 X30.772 Y17.279 E-0.00132
G1 F5760
G1 X30.774 Y17.276 E-0.00132
G1 F5760
G1 X30.776 Y17.273 E-0.00132
G1 F5760
G1 X30.778 Y17.269 E-0.00132
G1 F5760
G1 X30.780 Y17.266 E-0.00132
G1 F5760
G1 X30.782 Y17.263 E-0.00132
G1 F5760
G1 X30.784 Y17.260 E-0.00132
G1 F5760
G1 X30.786 Y17.257 E-0.00132
G1 F5760
G1 X30.788 Y17.253 E-0.00132
G1 F5760
G1 X30.790 Y17.250 E-0.00132
G1 F5760
G1 X30.792 Y17.247 E-0.00132
G1 F5760
G1 X30.795 Y17.244 E-0.00132
G1 F5760
G1 X30.797 Y17.240 E-0.00132
G1 F5760
G1 X30.799 Y17.237 E-0.00132
G1 F5760
G1 X30.801 Y17.234 E-0.00132
G1 F5760
G1 X30.803 Y17.231 E-0.00132
G1 F5760
G1 X30.805 Y17.228 E-0.00132
G1 F5760
G1 X30.807 Y17.224 E-0.00132
G1 F5760
G1 X30.809 Y17.221 E-0.00132
G1 F5760
G1 X30.811 Y17.218 E-0.00132
G1 F5760
G1 X30.813 Y17.215 E-0.00132
G1 F5760
G1 X30.815 Y17.212 E-0.00132
G1 F5760
G1 X30.817 Y17.208 E-0.00132
G1 F5760
G1 X30.819 Y17.205 E-0.00132
G1 F5760
G1 X30.821 Y17.202 E-0.00132
G1 F5760
G1 X30.824 Y17.199 E-0.00132
G1 F5760
G1 X30.826 Y17.196 E-0.00132
G1 F5760
G1 X30.828 Y17.193 E-0.00132
G1 F5760
G1 X30.830 Y17.189 E-0.00132
G1 F5760
G1 X30.832 Y17.186 E-0.00132
G1 F5760
G1 X30.834 Y17.183 E-0.00132
G1 F5760
G1 X30.836 Y17.180 E-0.00132
G1 F5760
G1 X30.839 Y17.177 E-0.00132
G1 F5760
G1 X30.841 Y17.174 E-0.00132
G1 F5760
G1 X30.843 Y17.171 E-0.00132
G1 F5760
G1 X30.845 Y17.167 E-0.00132
G1 F5760
G1 X30.847 Y17.164 E-0.00132
G1 F5760
G1 X30.849 Y17.161 E-0.00132
G1 F5760
G1 X30.851 Y17.158 E-0.00132
G1 F5760
G1 X30.854 Y17.155 E-0.00132
G1 F5760
G1 X30.856 Y17.152 E-0.00132
G1 F5760
G1 X30.858 Y17.149 E-0.00132
G1 F5760
G1 X30.860 Y17.146 E-0.00132
G1 F5760
G1 X30.862 Y17.142 E-0.00132
G1 F5760
G1 X30.865 Y17.139 E-0.00132
G1 F5760
G1 X30.867 Y17.136 E-0.00132
G1 F5760
G1 X30.869 Y17.133 E-0.00132
G1 F5760
G1 X30.871 Y17.130 E-0.00132
G1 F5760
G1 X30.874 Y17.127 E-0.00132
G1 F5760
G1 X30.876 Y17.124 E-0.00132
G1 F5760
G1 X30.878 Y17.121 E-0.00132
G1 F5760
G1 X30.880 Y17.118 E-0.00132
G1 F5760
G1 X30.882 Y17.115 E-0.00132
G1 F5760
G1 X30.885 Y17.112 E-0.00132
G1 F5760
G1 X30.887 Y17.108 E-0.00132
G1 F5760
G1 X30.889 Y17.105 E-0.00132
G1 F5760
G1 X30.891 Y17.102 E-0.00132
G1 F5760
G1 X30.894 Y17.099 E-0.00132
G1 F5760
G1 X30.896 Y17.096 E-0.00132
G1 F5760
G1 X30.898 Y17.093 E-0.00132
G1 F5760
G1 X30.901 Y17.090 E-0.00132
G1 F5760
G1 X30.903 Y17.087 E-0.00132
G1 F5760
G1 X30.905 Y17.084 E-0.00132
G1 F5760
G1 X30.907 Y17.081 E-0.00132
G1 F5760
G1 X30.910 Y17.078 E-0.00132
G1 F5760
G1 X30.912 Y17.075 E-0.00132
G1 F5760
G1 X30.914 Y17.072 E-0.00132
G1 F5760
G1 X30.917 Y17.069 E-0.00132
G1 F5760
G1 X30.919 Y17.066 E-0.00132
G1 F5760
G1 X30.921 Y17.063 E-0.00132
G1 F5760
G1 X30.924 Y17.060 E-0.00132
G1 F5760
G1 X30.926 Y17.057 E-0.00132
G1 F5760
G1 X30.928 Y17.054 E-0.00132
G1 F5760
G1 X30.931 Y17.051 E-0.00132
G1 F5760
G1 X30.933 Y17.048 E-0.00132
G1 F5760
G1 X30.935 Y17.045 E-0.00132
G1 F5760
G1 X30.938 Y17.042 E-0.00132
G1 F5760
G1 X30.940 Y17.039 E-0.00132
G1 F5760
G1 X30.943 Y17.036 E-0.00132
G1 F5760
G1 X30.945 Y17.033 E-0.00132
G1 F5760
G1 X30.947 Y17.030 E-0.00132
G1 F5760
G1 X30.950 Y17.027 E-0.00132
G1 F5760
G1 X30.952 Y17.024 E-0.00132
G1 F5760
G1 X30.954 Y17.021 E-0.00132
G1 F5760
G1 X30.957 Y17.018 E-0.00132
G1 F5760
G1 X30.959 Y17.015 E-0.00132
G1 F5760
G1 X30.962 Y17.012 E-0.00132
G1 F5760
G1 X30.964 Y17.009 E-0.00132
G1 F5760
G1 X30.967 Y17.006 E-0.00132
G1 F5760
G1 X30.969 Y17.003 E-0.00132
G1 F5760
G1 X30.971 Y17.000 E-0.00132
G1 F5760
G1 X30.974 Y16.997 E-0.00132
G1 F5760
G1 X30.976 Y16.995 E-0.00132
G1 F5760
G1 X30.979 Y16.992 E-0.00132
G1 F5760
G1 X30.981 Y16.989 E-0.00132
G1 F5760
G1 X30.984 Y16.986 E-0.00132
G1 F5760
G1 X30.986 Y16.983 E-0.00132
G1 F5760
G1 X30.988 Y16.980 E-0.00132
G1 F5760
G1 X30.991 Y16.977 E-0.00132
G1 F5760
G1 X30.993 Y16.974 E-0.00132
G1 F5760
G1 X30.996 Y16.971 E-0.00132
G1 F5760
G1 X30.998 Y16.968 E-0.00132
G1 F5760
G1 X31.001 Y16.965 E-0.00132
G1 F5760
G1 X31.003 Y16.963 E-0.00132
G1 F5760
G1 X31.006 Y16.960 E-0.00132
G1 F5760
G1 X31.008 Y16.957 E-0.00132
G1 F5760
G1 X31.011 Y16.954 E-0.00132
G1 F5760
G1 X31.013 Y16.951 E-0.00132
G1 F5760
G1 X31.016 Y16.948 E-0.00132
G1 F5760
G1 X31.018 Y16.945 E-0.00132
G1 F5760
G1 X31.021 Y16.943 E-0.00132
G1 F5760
G1 X31.023 Y16.940 E-0.00132
G1 F5760
G1 X31.026 Y16.937 E-0.00132
G1 F5760
G1 X31.028 Y16.934 E-0.00132
G1 F5760
G1 X31.031 Y16.931 E-0.00132
G1 F5760
G1 X31.034 Y16.928 E-0.00132
G1 F5760
G1 X31.036 Y16.925 E-0.00132
G1 F5760
G1 X31.039 Y16.923 E-0.00132
G1 F5760
