; generated by Slic3r 1.33.3-prusa3d on 2017-03-23 at 10:29:38

; external perimeters extrusion width = 0.45mm
; perimeters extrusion width = 0.45mm
; infill extrusion width = 0.45mm
; solid infill extrusion width = 0.45mm
; top infill extrusion width = 0.45mm

M107
M115 U3.0.9 ; tell printer latest fw version
M83  ; extruder relative mode
M104 S230 ; set extruder temp
M140 S85 ; set bed temp
M190 S85 ; wait for bed temp
M109 S230 ; wait for extruder temp
G28 W ; home all without mesh bed level
G80 ; mesh bed leveling
G1 Y-3.0 F1000.0 ; go outside pritn area
G1 X60.0 E9.0  F1000.0 ; intro line
G1 X100.0 E12.5  F1000.0 ; intro line
G21 ; set units to millimeters
G90 ; use absolute coordinates
M83 ; use relative distances for extrusion
G1 E-0.80000 F2100.00000
G1 Z0.200 F7200.000
G1 X111.430 Y94.803 F7200.000
G1 E0.80000 F2100.00000
M204 S1000
G1 F2100
G1 X111.508 Y94.322 E0.01528
G1 X111.671 Y93.859 E0.01541
G1 X111.913 Y93.432 E0.01541
G1 X112.228 Y93.054 E0.01541
G1 X112.601 Y92.741 E0.01528
G1 X113.028 Y92.497 E0.01541
G1 X113.491 Y92.333 E0.01541
G1 X113.976 Y92.253 E0.01541
G1 X135.897 Y92.247 E0.68732
G1 X136.349 Y92.296 E0.01425
G1 X136.790 Y92.421 E0.01438
G1 X137.205 Y92.617 E0.01438
G1 X137.578 Y92.877 E0.01425
G1 X137.795 Y93.077 E0.00925
G1 X137.992 Y93.302 E0.00938
G1 X138.161 Y93.544 E0.00925
G1 X138.305 Y93.806 E0.00938
G1 X138.420 Y94.082 E0.00938
G1 X138.504 Y94.369 E0.00938
G1 X138.556 Y94.660 E0.00925
G1 X138.577 Y94.958 E0.00938
G1 X138.576 Y115.078 E0.63084
G1 X138.526 Y115.530 E0.01425
G1 X138.402 Y115.967 E0.01425
G1 X138.205 Y116.382 E0.01438
G1 X137.946 Y116.755 E0.01425
G1 X137.746 Y116.972 E0.00925
G1 X137.521 Y117.169 E0.00938
G1 X137.279 Y117.338 E0.00925
G1 X137.017 Y117.482 E0.00938
G1 X136.741 Y117.597 E0.00938
G1 X136.453 Y117.681 E0.00938
G1 X136.163 Y117.733 E0.00925
G1 X135.865 Y117.754 E0.00938
G1 X114.103 Y117.753 E0.68231
G1 X113.651 Y117.704 E0.01425
G1 X113.210 Y117.579 E0.01438
G1 X112.796 Y117.383 E0.01438
G1 X112.422 Y117.123 E0.01425
G1 X112.211 Y116.929 E0.00899
G1 X112.021 Y116.714 E0.00899
G1 X111.855 Y116.480 E0.00899
G1 X111.713 Y116.231 E0.00899
G1 X111.599 Y115.968 E0.00899
G1 X111.511 Y115.690 E0.00912
G1 X111.454 Y115.409 E0.00899
G1 X111.426 Y115.124 E0.00899
G1 X111.426 Y94.863 E0.63525
G1 X111.808 Y94.802 F7200.000
G1 F2100
G1 X111.881 Y94.386 E0.01324
G1 X112.025 Y93.990 E0.01324
G1 X112.238 Y93.625 E0.01324
G1 X112.512 Y93.303 E0.01324
G1 X112.839 Y93.036 E0.01324
G1 X113.207 Y92.830 E0.01324
G1 X113.610 Y92.692 E0.01336
G1 X114.028 Y92.628 E0.01324
G1 X135.880 Y92.624 E0.68517
G1 X136.277 Y92.667 E0.01253
G1 X136.661 Y92.776 E0.01253
G1 X137.022 Y92.948 E0.01253
G1 X137.352 Y93.180 E0.01264
G1 X137.538 Y93.354 E0.00800
G1 X137.705 Y93.547 E0.00800
G1 X137.849 Y93.757 E0.00800
G1 X137.971 Y93.982 E0.00800
G1 X138.068 Y94.218 E0.00800
G1 X138.138 Y94.463 E0.00800
G1 X138.183 Y94.714 E0.00800
G1 X138.200 Y94.968 E0.00800
G1 X138.199 Y115.061 E0.62999
G1 X138.155 Y115.458 E0.01253
G1 X138.047 Y115.839 E0.01241
G1 X137.875 Y116.199 E0.01253
G1 X137.646 Y116.526 E0.01253
G1 X137.472 Y116.712 E0.00800
G1 X137.279 Y116.879 E0.00800
G1 X137.069 Y117.024 E0.00800
G1 X136.841 Y117.148 E0.00812
G1 X136.605 Y117.245 E0.00800
G1 X136.360 Y117.316 E0.00800
G1 X136.105 Y117.360 E0.00812
G1 X135.851 Y117.377 E0.00800
G1 X114.120 Y117.376 E0.68135
G1 X113.723 Y117.333 E0.01253
G1 X113.339 Y117.224 E0.01253
G1 X112.978 Y117.052 E0.01253
G1 X112.651 Y116.823 E0.01253
G1 X112.470 Y116.654 E0.00776
G1 X112.305 Y116.465 E0.00788
G1 X112.163 Y116.262 E0.00776
G1 X112.042 Y116.046 E0.00776
G1 X111.945 Y115.818 E0.00776
G1 X111.872 Y115.582 E0.00776
G1 X111.824 Y115.339 E0.00776
G1 X111.802 Y115.092 E0.00776
G1 X111.804 Y94.862 E0.63431
G1 F5760
G1 X111.809 Y94.798 E-0.02210
G1 F5760
G1 X111.809 Y94.795 E-0.00132
G1 F5760
G1 X111.809 Y94.791 E-0.00132
G1 F5760
G1 X111.810 Y94.787 E-0.00132
G1 F5760
G1 X111.810 Y94.783 E-0.00132
G1 F5760
G1 X111.810 Y94.779 E-0.00132
G1 F5760
G1 X111.811 Y94.776 E-0.00132
G1 F5760
G1 X111.811 Y94.772 E-0.00132
G1 F5760
G1 X111.811 Y94.768 E-0.00132
G1 F5760
G1 X111.812 Y94.764 E-0.00132
G1 F5760
G1 X111.812 Y94.760 E-0.00132
G1 F5760
G1 X111.813 Y94.757 E-0.00132
G1 F5760
G1 X111.813 Y94.753 E-0.00132
G1 F5760
G1 X111.813 Y94.749 E-0.00132
G1 F5760
G1 X111.814 Y94.745 E-0.00132
G1 F5760
G1 X111.814 Y94.742 E-0.00132
G1 F5760
G1 X111.815 Y94.738 E-0.00132
G1 F5760
G1 X111.815 Y94.734 E-0.00132
G1 F5760
G1 X111.815 Y94.730 E-0.00132
G1 F5760
G1 X111.816 Y94.726 E-0.00132
G1 F5760
G1 X111.816 Y94.723 E-0.00132
G1 F5760
G1 X111.817 Y94.719 E-0.00132
G1 F5760
G1 X111.817 Y94.715 E-0.00132
G1 F5760
G1 X111.818 Y94.711 E-0.00132
G1 F5760
G1 X111.818 Y94.707 E-0.00132
G1 F5760
G1 X111.819 Y94.704 E-0.00132
G1 F5760
G1 X111.819 Y94.700 E-0.00132
G1 F5760
G1 X111.820 Y94.696 E-0.00132
G1 F5760
G1 X111.820 Y94.692 E-0.00132
G1 F5760
G1 X111.821 Y94.689 E-0.00132
G1 F5760
G1 X111.821 Y94.685 E-0.00132
G1 F5760
G1 X111.822 Y94.681 E-0.00132
G1 F5760
G1 X111.822 Y94.677 E-0.00132
G1 F5760
G1 X111.823 Y94.673 E-0.00132
G1 F5760
G1 X111.823 Y94.670 E-0.00132
G1 F5760
G1 X111.824 Y94.666 E-0.00132
G1 F5760
G1 X111.824 Y94.662 E-0.00132
G1 F5760
G1 X111.825 Y94.658 E-0.00132
G1 F5760
G1 X111.825 Y94.655 E-0.00132
G1 F5760
G1 X111.826 Y94.651 E-0.00132
G1 F5760
G1 X111.826 Y94.647 E-0.00132
G1 F5760
G1 X111.827 Y94.643 E-0.00132
G1 F5760
G1 X111.828 Y94.640 E-0.00132
G1 F5760
G1 X111.828 Y94.636 E-0.00132
G1 F5760
G1 X111.829 Y94.632 E-0.00132
G1 F5760
G1 X111.829 Y94.628 E-0.00132
G1 F5760
G1 X111.830 Y94.624 E-0.00132
G1 F5760
G1 X111.830 Y94.621 E-0.00132
G1 F5760
G1 X111.831 Y94.617 E-0.00132
G1 F5760
G1 X111.832 Y94.613 E-0.00132
G1 F5760
G1 X111.832 Y94.609 E-0.00132
G1 F5760
G1 X111.833 Y94.606 E-0.00132
G1 F5760
G1 X111.834 Y94.602 E-0.00132
G1 F5760
G1 X111.834 Y94.598 E-0.00132
G1 F5760
G1 X111.835 Y94.594 E-0.00132
G1 F5760
G1 X111.836 Y94.591 E-0.00132
G1 F5760
G1 X111.836 Y94.587 E-0.00132
G1 F5760
G1 X111.837 Y94.583 E-0.00132
G1 F5760
G1 X111.838 Y94.579 E-0.00132
G1 F5760
G1 X111.838 Y94.576 E-0.00132
G1 F5760
G1 X111.839 Y94.572 E-0.00132
G1 F5760
G1 X111.840 Y94.568 E-0.00132
G1 F5760
G1 X111.840 Y94.564 E-0.00132
G1 F5760
G1 X111.841 Y94.561 E-0.00132
G1 F5760
G1 X111.842 Y94.557 E-0.00132
G1 F5760
G1 X111.842 Y94.553 E-0.00132
G1 F5760
G1 X111.843 Y94.549 E-0.00132
G1 F5760
G1 X111.844 Y94.546 E-0.00132
G1 F5760
G1 X111.845 Y94.542 E-0.00132
G1 F5760
G1 X111.845 Y94.538 E-0.00132
G1 F5760
G1 X111.846 Y94.535 E-0.00132
G1 F5760
G1 X111.847 Y94.531 E-0.00132
G1 F5760
G1 X111.848 Y94.527 E-0.00132
G1 F5760
G1 X111.848 Y94.523 E-0.00132
G1 F5760
G1 X111.849 Y94.520 E-0.00132
G1 F5760
G1 X111.850 Y94.516 E-0.00132
G1 F5760
G1 X111.851 Y94.512 E-0.00132
G1 F5760
G1 X111.851 Y94.508 E-0.00132
G1 F5760
G1 X111.852 Y94.505 E-0.00132
G1 F5760
G1 X111.853 Y94.501 E-0.00132
G1 F5760
G1 X111.854 Y94.497 E-0.00132
G1 F5760
G1 X111.855 Y94.494 E-0.00132
G1 F5760
G1 X111.855 Y94.490 E-0.00132
G1 F5760
G1 X111.856 Y94.486 E-0.00132
G1 F5760
G1 X111.857 Y94.482 E-0.00132
G1 F5760
G1 X111.858 Y94.479 E-0.00132
G1 F5760
G1 X111.859 Y94.475 E-0.00132
G1 F5760
G1 X111.860 Y94.471 E-0.00132
G1 F5760
G1 X111.860 Y94.467 E-0.00132
G1 F5760
G1 X111.861 Y94.464 E-0.00132
G1 F5760
G1 X111.862 Y94.460 E-0.00132
G1 F5760
G1 X111.863 Y94.456 E-0.00132
G1 F5760
G1 X111.864 Y94.453 E-0.00132
G1 F5760
G1 X111.865 Y94.449 E-0.00132
G1 F5760
G1 X111.866 Y94.445 E-0.00132
G1 F5760
G1 X111.867 Y94.442 E-0.00132
G1 F5760
G1 X111.867 Y94.438 E-0.00132
G1 F5760
G1 X111.868 Y94.434 E-0.00132
G1 F5760
G1 X111.869 Y94.430 E-0.00132
G1 F5760
G1 X111.870 Y94.427 E-0.00132
G1 F5760
G1 X111.871 Y94.423 E-0.00132
G1 F5760
G1 X111.872 Y94.419 E-0.00132
G1 F5760
G1 X111.873 Y94.416 E-0.00132
G1 F5760
G1 X111.874 Y94.412 E-0.00132
G1 F5760
G1 X111.875 Y94.408 E-0.00132
G1 F5760
G1 X111.876 Y94.405 E-0.00132
G1 F5760
G1 X111.877 Y94.401 E-0.00132
G1 F5760
G1 X111.878 Y94.397 E-0.00132
G1 F5760
G1 X111.879 Y94.394 E-0.00132
G1 F5760
G1 X111.880 Y94.390 E-0.00132
G1 F5760
G1 X111.881 Y94.386 E-0.00132
G1 F5760
G1 X111.882 Y94.382 E-0.00132
G1 F5760
G1 X111.883 Y94.379 E-0.00132
G1 F5760
G1 X111.884 Y94.375 E-0.00132
G1 F5760
G1 X111.885 Y94.371 E-0.00132
G1 F5760
G1 X111.886 Y94.368 E-0.00132
G1 F5760
G1 X111.887 Y94.364 E-0.00132
G1 F5760
G1 X111.888 Y94.360 E-0.00132
G1 F5760
G1 X111.889 Y94.357 E-0.00132
G1 F5760
G1 X111.890 Y94.353 E-0.00132
G1 F5760
G1 X111.891 Y94.349 E-0.00132
G1 F5760
G1 X111.892 Y94.346 E-0.00132
G1 F5760
G1 X111.893 Y94.342 E-0.00132
G1 F5760
G1 X111.894 Y94.338 E-0.00132
G1 F5760
G1 X111.895 Y94.335 E-0.00132
G1 F5760
G1 X111.896 Y94.331 E-0.00132
G1 F5760
G1 X111.897 Y94.327 E-0.00132
G1 F5760
G1 X111.898 Y94.324 E-0.00132
G1 F5760
G1 X111.899 Y94.320 E-0.00132
G1 F5760
G1 X111.900 Y94.317 E-0.00132
G1 F5760
G1 X111.901 Y94.313 E-0.00132
G1 F5760
G1 X111.903 Y94.309 E-0.00132
G1 F5760
G1 X111.904 Y94.306 E-0.00132
G1 F5760
G1 X111.905 Y94.302 E-0.00132
G1 F5760
G1 X111.906 Y94.298 E-0.00132
G1 F5760
G1 X111.907 Y94.295 E-0.00132
G1 F5760
G1 X111.908 Y94.291 E-0.00132
G1 F5760
G1 X111.909 Y94.287 E-0.00132
G1 F5760
G1 X111.910 Y94.284 E-0.00132
G1 F5760
G1 X111.912 Y94.280 E-0.00132
G1 F5760
G1 X111.913 Y94.277 E-0.00132
G1 F5760
G1 X111.914 Y94.273 E-0.00132
G1 F5760
G1 X111.915 Y94.269 E-0.00132
G1 F5760
G1 X111.916 Y94.266 E-0.00132
G1 F5760
G1 X111.917 Y94.262 E-0.00132
G1 F5760
G1 X111.919 Y94.258 E-0.00132
G1 F5760
G1 X111.920 Y94.255 E-0.00132
G1 F5760
G1 X111.921 Y94.251 E-0.00132
G1 F5760
G1 X111.922 Y94.248 E-0.00132
G1 F5760
G1 X111.923 Y94.244 E-0.00132
G1 F5760
G1 X111.925 Y94.240 E-0.00132
G1 F5760
G1 X111.926 Y94.237 E-0.00132
G1 F5760
G1 X111.927 Y94.233 E-0.00132
G1 F5760
G1 X111.928 Y94.230 E-0.00132
G1 F5760
G1 X111.930 Y94.226 E-0.00132
G1 F5760
G1 X111.931 Y94.222 E-0.00132
G1 F5760
G1 X111.932 Y94.219 E-0.00132
G1 F5760
G1 X111.933 Y94.215 E-0.00132
G1 F5760
G1 X111.935 Y94.212 E-0.00132
G1 F5760
G1 X111.936 Y94.208 E-0.00132
G1 F5760
G1 X111.937 Y94.204 E-0.00132
G1 F5760
G1 X111.938 Y94.201 E-0.00132
G1 F5760
G1 X111.940 Y94.197 E-0.00132
G1 F5760
G1 X111.941 Y94.194 E-0.00132
G1 F5760
G1 X111.942 Y94.190 E-0.00132
G1 F5760
G1 X111.944 Y94.186 E-0.00132
G1 F5760
G1 X111.945 Y94.183 E-0.00132
G1 F5760
G1 X111.946 Y94.179 E-0.00132
G1 F5760
G1 X111.948 Y94.176 E-0.00132
G1 F5760
G1 X111.949 Y94.172 E-0.00132
G1 F5760
G1 X111.950 Y94.169 E-0.00132
G1 F5760
G1 X111.952 Y94.165 E-0.00132
G1 F5760
G1 X111.953 Y94.161 E-0.00132
G1 F5760
G1 X111.954 Y94.158 E-0.00132
G1 F5760
G1 X111.956 Y94.154 E-0.00132
G1 F5760
G1 X111.957 Y94.151 E-0.00132
G1 F5760
G1 X111.958 Y94.147 E-0.00132
G1 F5760
G1 X111.960 Y94.144 E-0.00132
G1 F5760
G1 X111.961 Y94.140 E-0.00132
G1 F5760
G1 X111.962 Y94.137 E-0.00132
G1 F5760
G1 X111.964 Y94.133 E-0.00132
G1 F5760
G1 X111.965 Y94.129 E-0.00132
G1 F5760
G1 X111.967 Y94.126 E-0.00132
G1 F5760
G1 X111.968 Y94.122 E-0.00132
G1 F5760
G1 X111.969 Y94.119 E-0.00132
G1 F5760
G1 X111.971 Y94.115 E-0.00132
G1 F5760
G1 X111.972 Y94.112 E-0.00132
G1 F5760
G1 X111.974 Y94.108 E-0.00132
G1 F5760
G1 X111.975 Y94.105 E-0.00132
G1 F5760
G1 X111.977 Y94.101 E-0.00132
G1 F5760
G1 X111.978 Y94.098 E-0.00132
G1 F5760
G1 X111.979 Y94.094 E-0.00132
G1 F5760
G1 X111.981 Y94.091 E-0.00132
G1 F5760
G1 X111.982 Y94.087 E-0.00132
G1 F5760
G1 X111.984 Y94.084 E-0.00132
G1 F5760
G1 X111.985 Y94.080 E-0.00132
G1 F5760
G1 X111.987 Y94.077 E-0.00132
G1 F5760
G1 X111.988 Y94.073 E-0.00132
G1 F5760
G1 X111.990 Y94.070 E-0.00132
G1 F5760
G1 X111.991 Y94.066 E-0.00132
G1 F5760
G1 X111.993 Y94.063 E-0.00132
G1 F5760
G1 X111.994 Y94.059 E-0.00132
G1 F5760
G1 X111.996 Y94.056 E-0.00132
G1 F5760
G1 X111.997 Y94.052 E-0.00132
G1 F5760
G1 X111.999 Y94.049 E-0.00132
G1 F5760
G1 X112.000 Y94.045 E-0.00132
G1 F5760
G1 X112.002 Y94.042 E-0.00132
G1 F5760
G1 X112.003 Y94.038 E-0.00132
G1 F5760
G1 X112.005 Y94.035 E-0.00132
G1 F5760
G1 X112.006 Y94.031 E-0.00132
G1 F5760
G1 X112.008 Y94.028 E-0.00132
G1 F5760
G1 X112.010 Y94.024 E-0.00132
G1 F5760
G1 X112.011 Y94.021 E-0.00132
G1 F5760
G1 X112.013 Y94.017 E-0.00132
G1 F5760
G1 X112.014 Y94.014 E-0.00132
G1 F5760
G1 X112.016 Y94.010 E-0.00132
G1 F5760
G1 X112.017 Y94.007 E-0.00132
G1 F5760
G1 X112.019 Y94.003 E-0.00132
G1 F5760
G1 X112.021 Y94.000 E-0.00132
G1 F5760
G1 X112.022 Y93.996 E-0.00132
G1 F5760
G1 X112.024 Y93.993 E-0.00132
G1 F5760
G1 X112.025 Y93.990 E-0.00132
G1 F5760
G1 X112.027 Y93.986 E-0.00132
G1 F5760
G1 X112.029 Y93.983 E-0.00132
G1 F5760
G1 X112.030 Y93.979 E-0.00132
G1 F5760
G1 X112.032 Y93.976 E-0.00132
G1 F5760
G1 X112.034 Y93.972 E-0.00132
G1 F5760
G1 X112.035 Y93.969 E-0.00132
G1 F5760
G1 X112.037 Y93.965 E-0.00132
G1 F5760
G1 X112.039 Y93.962 E-0.00132
G1 F5760
G1 X112.040 Y93.959 E-0.00132
G1 F5760
G1 X112.042 Y93.955 E-0.00132
G1 F5760
G1 X112.044 Y93.952 E-0.00132
G1 F5760
G1 X112.045 Y93.948 E-0.00132
G1 F5760
G1 X112.047 Y93.945 E-0.00132
G1 F5760
G1 X112.049 Y93.942 E-0.00132
G1 F5760
G1 X112.050 Y93.938 E-0.00132
G1 F5760
G1 X112.052 Y93.935 E-0.00132
G1 F5760
G1 X112.054 Y93.931 E-0.00132
G1 F5760
G1 X112.056 Y93.928 E-0.00132
G1 F5760
G1 X112.057 Y93.925 E-0.00132
G1 F5760
G1 X112.059 Y93.921 E-0.00132
G1 F5760
G1 X112.061 Y93.918 E-0.00132
G1 F5760
G1 X112.062 Y93.914 E-0.00132
G1 F5760
G1 X112.064 Y93.911 E-0.00132
G1 F5760
G1 X112.066 Y93.908 E-0.00132
G1 F5760
G1 X112.068 Y93.904 E-0.00132
G1 F5760
G1 X112.069 Y93.901 E-0.00132
G1 F5760
G1 X112.071 Y93.897 E-0.00132
G1 F5760
G1 X112.073 Y93.894 E-0.00132
G1 F5760
G1 X112.075 Y93.891 E-0.00132
G1 F5760
G1 X112.077 Y93.887 E-0.00132
G1 F5760
G1 X112.078 Y93.884 E-0.00132
G1 F5760
G1 X112.080 Y93.881 E-0.00132
G1 F5760
G1 X112.082 Y93.877 E-0.00132
G1 F5760
G1 X112.084 Y93.874 E-0.00132
G1 F5760
G1 X112.086 Y93.871 E-0.00132
G1 F5760
G1 X112.087 Y93.867 E-0.00132
G1 F5760
G1 X112.089 Y93.864 E-0.00132
G1 F5760
G1 X112.091 Y93.860 E-0.00132
G1 F5760
G1 X112.093 Y93.857 E-0.00132
G1 F5760
G1 X112.095 Y93.854 E-0.00132
G1 F5760
G1 X112.096 Y93.850 E-0.00132
G1 F5760
G1 X112.098 Y93.847 E-0.00132
G1 F5760
G1 X112.100 Y93.844 E-0.00132
G1 F5760
G1 X112.102 Y93.840 E-0.00132
G1 F5760
G1 X112.104 Y93.837 E-0.00132
G1 F5760
G1 X112.106 Y93.834 E-0.00132
G1 F5760
G1 X112.108 Y93.831 E-0.00132
G1 F5760
G1 X112.109 Y93.827 E-0.00132
G1 F5760
G1 X112.111 Y93.824 E-0.00132
G1 F5760
G1 X112.113 Y93.821 E-0.00132
G1 F5760
G1 X112.115 Y93.817 E-0.00132
G1 F5760
G1 X112.117 Y93.814 E-0.00132
G1 F5760
G1 X112.119 Y93.811 E-0.00132
G1 F5760
G1 X112.121 Y93.807 E-0.00132
G1 F5760
G1 X112.123 Y93.804 E-0.00132
G1 F5760
G1 X112.125 Y93.801 E-0.00132
G1 F5760
G1 X112.127 Y93.798 E-0.00132
G1 F5760
G1 X112.129 Y93.794 E-0.00132
G1 F5760
G1 X112.130 Y93.791 E-0.00132
G1 F5760
G1 X112.132 Y93.788 E-0.00132
G1 F5760
G1 X112.134 Y93.784 E-0.00132
G1 F5760
G1 X112.136 Y93.781 E-0.00132
G1 F5760
G1 X112.138 Y93.778 E-0.00132
G1 F5760
G1 X112.140 Y93.775 E-0.00132
G1 F5760
G1 X112.142 Y93.771 E-0.00132
G1 F5760
G1 X112.144 Y93.768 E-0.00132
G1 F5760
G1 X112.146 Y93.765 E-0.00132
G1 F5760
G1 X112.148 Y93.762 E-0.00132
G1 F5760
G1 X112.150 Y93.758 E-0.00132
G1 F5760
G1 X112.152 Y93.755 E-0.00132
G1 F5760
G1 X112.154 Y93.752 E-0.00132
G1 F5760
G1 X112.156 Y93.749 E-0.00132
G1 F5760
G1 X112.158 Y93.745 E-0.00132
G1 F5760
G1 X112.160 Y93.742 E-0.00132
G1 F5760
G1 X112.162 Y93.739 E-0.00132
G1 F5760
G1 X112.164 Y93.736 E-0.00132
G1 F5760
G1 X112.166 Y93.732 E-0.00132
G1 F5760
G1 X112.168 Y93.729 E-0.00132
G1 F5760
G1 X112.170 Y93.726 E-0.00132
G1 F5760
G1 X112.172 Y93.723 E-0.00132
G1 F5760
G1 X112.174 Y93.720 E-0.00132
G1 F5760
G1 X112.176 Y93.716 E-0.00132
G1 F5760
G1 X112.178 Y93.713 E-0.00132
G1 F5760
G1 X112.181 Y93.710 E-0.00132
G1 F5760
G1 X112.183 Y93.707 E-0.00132
G1 F5760
G1 X112.185 Y93.704 E-0.00132
G1 F5760
G1 X112.187 Y93.700 E-0.00132
G1 F5760
G1 X112.189 Y93.697 E-0.00132
G1 F5760
G1 X112.191 Y93.694 E-0.00132
G1 F5760
G1 X112.193 Y93.691 E-0.00132
G1 F5760
G1 X112.195 Y93.688 E-0.00132
G1 F5760
G1 X112.197 Y93.684 E-0.00132
G1 F5760
