; generated by Slic3r 1.33.3-prusa3d on 2017-03-22 at 19:07:02

; external perimeters extrusion width = 0.45mm
; perimeters extrusion width = 0.45mm
; infill extrusion width = 0.45mm
; solid infill extrusion width = 0.45mm
; top infill extrusion width = 0.45mm

M107
M115 U3.0.9 ; tell printer latest fw version
M83  ; extruder relative mode
M104 S230 ; set extruder temp
M140 S85 ; set bed temp
M190 S85 ; wait for bed temp
M109 S230 ; wait for extruder temp
G28 W ; home all without mesh bed level
G80 ; mesh bed leveling
G1 Y-3.0 F1000.0 ; go outside pritn area
G1 X60.0 E9.0  F1000.0 ; intro line
G1 X100.0 E12.5  F1000.0 ; intro line
G21 ; set units to millimeters
G90 ; use absolute coordinates
M83 ; use relative distances for extrusion
G1 E-0.80000 F2100.00000
G1 Z0.200 F7200.000
G1 X53.730 Y50.241 F7200.000
G1 E0.80000 F2100.00000
M204 S1000
G1 F2100
G1 X53.808 Y49.760 E0.01528
G1 X53.971 Y49.296 E0.01541
G1 X54.211 Y48.872 E0.01528
G1 X54.525 Y48.495 E0.01541
G1 X54.902 Y48.179 E0.01541
G1 X55.324 Y47.936 E0.01528
G1 X55.787 Y47.771 E0.01541
G1 X56.272 Y47.691 E0.01541
G1 X78.097 Y47.684 E0.68431
G1 X78.549 Y47.734 E0.01425
G1 X78.990 Y47.859 E0.01438
G1 X79.405 Y48.055 E0.01438
G1 X79.778 Y48.315 E0.01425
G1 X79.995 Y48.514 E0.00925
G1 X80.192 Y48.740 E0.00938
G1 X80.361 Y48.981 E0.00925
G1 X80.505 Y49.244 E0.00938
G1 X80.620 Y49.520 E0.00938
G1 X80.704 Y49.807 E0.00938
G1 X80.756 Y50.097 E0.00925
G1 X80.777 Y50.396 E0.00938
G1 X80.776 Y70.415 E0.62770
G1 X80.726 Y70.867 E0.01425
G1 X80.602 Y71.304 E0.01425
G1 X80.408 Y71.715 E0.01425
G1 X80.149 Y72.089 E0.01425
G1 X79.949 Y72.306 E0.00925
G1 X79.724 Y72.504 E0.00938
G1 X79.479 Y72.675 E0.00938
G1 X79.217 Y72.819 E0.00938
G1 X78.941 Y72.934 E0.00938
G1 X78.654 Y73.018 E0.00938
G1 X78.363 Y73.071 E0.00925
G1 X78.065 Y73.091 E0.00938
G1 X56.404 Y73.091 E0.67917
G1 X55.952 Y73.041 E0.01425
G1 X55.514 Y72.918 E0.01425
G1 X55.103 Y72.724 E0.01425
G1 X54.726 Y72.463 E0.01438
G1 X54.514 Y72.269 E0.00899
G1 X54.322 Y72.051 E0.00912
G1 X54.155 Y71.818 E0.00899
G1 X54.014 Y71.568 E0.00899
G1 X53.899 Y71.305 E0.00899
G1 X53.811 Y71.028 E0.00912
G1 X53.754 Y70.747 E0.00899
G1 X53.726 Y70.461 E0.00899
G1 X53.727 Y50.301 E0.63212
G1 X54.109 Y50.240 F7200.000
G1 F2100
G1 X54.181 Y49.824 E0.01324
G1 X54.326 Y49.427 E0.01324
G1 X54.539 Y49.062 E0.01324
G1 X54.813 Y48.741 E0.01324
G1 X55.139 Y48.473 E0.01324
G1 X55.508 Y48.267 E0.01324
G1 X55.911 Y48.129 E0.01336
G1 X56.328 Y48.065 E0.01324
G1 X78.080 Y48.061 E0.68203
G1 X78.478 Y48.104 E0.01253
G1 X78.862 Y48.213 E0.01253
G1 X79.223 Y48.385 E0.01253
G1 X79.552 Y48.617 E0.01264
G1 X79.738 Y48.792 E0.00800
G1 X79.905 Y48.985 E0.00800
G1 X80.050 Y49.195 E0.00800
G1 X80.171 Y49.419 E0.00800
G1 X80.268 Y49.655 E0.00800
G1 X80.339 Y49.900 E0.00800
G1 X80.383 Y50.151 E0.00800
G1 X80.400 Y50.406 E0.00800
G1 X80.400 Y70.398 E0.62685
G1 X80.356 Y70.795 E0.01253
G1 X80.248 Y71.176 E0.01241
G1 X80.076 Y71.537 E0.01253
G1 X79.846 Y71.863 E0.01253
G1 X79.672 Y72.050 E0.00800
G1 X79.479 Y72.217 E0.00800
G1 X79.269 Y72.362 E0.00800
G1 X79.042 Y72.485 E0.00812
G1 X78.806 Y72.582 E0.00800
G1 X78.561 Y72.653 E0.00800
G1 X78.306 Y72.698 E0.00812
G1 X78.051 Y72.714 E0.00800
G1 X56.420 Y72.714 E0.67821
G1 X56.023 Y72.671 E0.01253
G1 X55.639 Y72.562 E0.01253
G1 X55.278 Y72.390 E0.01253
G1 X54.952 Y72.160 E0.01253
G1 X54.770 Y71.992 E0.00776
G1 X54.605 Y71.802 E0.00788
G1 X54.463 Y71.599 E0.00776
G1 X54.343 Y71.383 E0.00776
G1 X54.246 Y71.156 E0.00776
G1 X54.173 Y70.919 E0.00776
G1 X54.125 Y70.676 E0.00776
G1 X54.102 Y70.430 E0.00776
G1 X54.104 Y50.299 E0.63118
G1 F5760
G1 X54.109 Y50.236 E-0.02210
G1 F5760
G1 X54.109 Y50.232 E-0.00132
G1 F5760
G1 X54.110 Y50.228 E-0.00132
G1 F5760
G1 X54.110 Y50.224 E-0.00132
G1 F5760
G1 X54.110 Y50.221 E-0.00132
G1 F5760
G1 X54.111 Y50.217 E-0.00132
G1 F5760
G1 X54.111 Y50.213 E-0.00132
G1 F5760
G1 X54.111 Y50.209 E-0.00132
G1 F5760
G1 X54.112 Y50.205 E-0.00132
G1 F5760
G1 X54.112 Y50.202 E-0.00132
G1 F5760
G1 X54.113 Y50.198 E-0.00132
G1 F5760
G1 X54.113 Y50.194 E-0.00132
G1 F5760
G1 X54.113 Y50.190 E-0.00132
G1 F5760
G1 X54.114 Y50.187 E-0.00132
G1 F5760
G1 X54.114 Y50.183 E-0.00132
G1 F5760
G1 X54.115 Y50.179 E-0.00132
G1 F5760
G1 X54.115 Y50.175 E-0.00132
G1 F5760
G1 X54.115 Y50.171 E-0.00132
G1 F5760
G1 X54.116 Y50.168 E-0.00132
G1 F5760
G1 X54.116 Y50.164 E-0.00132
G1 F5760
G1 X54.117 Y50.160 E-0.00132
G1 F5760
G1 X54.117 Y50.156 E-0.00132
G1 F5760
G1 X54.118 Y50.152 E-0.00132
G1 F5760
G1 X54.118 Y50.149 E-0.00132
G1 F5760
G1 X54.119 Y50.145 E-0.00132
G1 F5760
G1 X54.119 Y50.141 E-0.00132
G1 F5760
G1 X54.119 Y50.137 E-0.00132
G1 F5760
G1 X54.120 Y50.134 E-0.00132
G1 F5760
G1 X54.120 Y50.130 E-0.00132
G1 F5760
G1 X54.121 Y50.126 E-0.00132
G1 F5760
G1 X54.121 Y50.122 E-0.00132
G1 F5760
G1 X54.122 Y50.118 E-0.00132
G1 F5760
G1 X54.122 Y50.115 E-0.00132
G1 F5760
G1 X54.123 Y50.111 E-0.00132
G1 F5760
G1 X54.124 Y50.107 E-0.00132
G1 F5760
G1 X54.124 Y50.103 E-0.00132
G1 F5760
G1 X54.125 Y50.100 E-0.00132
G1 F5760
G1 X54.125 Y50.096 E-0.00132
G1 F5760
G1 X54.126 Y50.092 E-0.00132
G1 F5760
G1 X54.126 Y50.088 E-0.00132
G1 F5760
G1 X54.127 Y50.085 E-0.00132
G1 F5760
G1 X54.127 Y50.081 E-0.00132
G1 F5760
G1 X54.128 Y50.077 E-0.00132
G1 F5760
G1 X54.129 Y50.073 E-0.00132
G1 F5760
G1 X54.129 Y50.069 E-0.00132
G1 F5760
G1 X54.130 Y50.066 E-0.00132
G1 F5760
G1 X54.130 Y50.062 E-0.00132
G1 F5760
G1 X54.131 Y50.058 E-0.00132
G1 F5760
G1 X54.132 Y50.054 E-0.00132
G1 F5760
G1 X54.132 Y50.051 E-0.00132
G1 F5760
G1 X54.133 Y50.047 E-0.00132
G1 F5760
G1 X54.133 Y50.043 E-0.00132
G1 F5760
G1 X54.134 Y50.039 E-0.00132
G1 F5760
G1 X54.135 Y50.036 E-0.00132
G1 F5760
G1 X54.135 Y50.032 E-0.00132
G1 F5760
G1 X54.136 Y50.028 E-0.00132
G1 F5760
G1 X54.137 Y50.024 E-0.00132
G1 F5760
G1 X54.137 Y50.021 E-0.00132
G1 F5760
G1 X54.138 Y50.017 E-0.00132
G1 F5760
G1 X54.139 Y50.013 E-0.00132
G1 F5760
G1 X54.139 Y50.009 E-0.00132
G1 F5760
G1 X54.140 Y50.006 E-0.00132
G1 F5760
G1 X54.141 Y50.002 E-0.00132
G1 F5760
G1 X54.141 Y49.998 E-0.00132
G1 F5760
G1 X54.142 Y49.994 E-0.00132
G1 F5760
G1 X54.143 Y49.991 E-0.00132
G1 F5760
G1 X54.144 Y49.987 E-0.00132
G1 F5760
G1 X54.144 Y49.983 E-0.00132
G1 F5760
G1 X54.145 Y49.979 E-0.00132
G1 F5760
G1 X54.146 Y49.976 E-0.00132
G1 F5760
G1 X54.146 Y49.972 E-0.00132
G1 F5760
G1 X54.147 Y49.968 E-0.00132
G1 F5760
G1 X54.148 Y49.964 E-0.00132
G1 F5760
G1 X54.149 Y49.961 E-0.00132
G1 F5760
G1 X54.150 Y49.957 E-0.00132
G1 F5760
G1 X54.150 Y49.953 E-0.00132
G1 F5760
G1 X54.151 Y49.950 E-0.00132
G1 F5760
G1 X54.152 Y49.946 E-0.00132
G1 F5760
G1 X54.153 Y49.942 E-0.00132
G1 F5760
G1 X54.153 Y49.938 E-0.00132
G1 F5760
G1 X54.154 Y49.935 E-0.00132
G1 F5760
G1 X54.155 Y49.931 E-0.00132
G1 F5760
G1 X54.156 Y49.927 E-0.00132
G1 F5760
G1 X54.157 Y49.923 E-0.00132
G1 F5760
G1 X54.158 Y49.920 E-0.00132
G1 F5760
G1 X54.158 Y49.916 E-0.00132
G1 F5760
G1 X54.159 Y49.912 E-0.00132
G1 F5760
G1 X54.160 Y49.909 E-0.00132
G1 F5760
G1 X54.161 Y49.905 E-0.00132
G1 F5760
G1 X54.162 Y49.901 E-0.00132
G1 F5760
G1 X54.163 Y49.897 E-0.00132
G1 F5760
G1 X54.163 Y49.894 E-0.00132
G1 F5760
G1 X54.164 Y49.890 E-0.00132
G1 F5760
G1 X54.165 Y49.886 E-0.00132
G1 F5760
G1 X54.166 Y49.883 E-0.00132
G1 F5760
G1 X54.167 Y49.879 E-0.00132
G1 F5760
G1 X54.168 Y49.875 E-0.00132
G1 F5760
G1 X54.169 Y49.872 E-0.00132
G1 F5760
G1 X54.170 Y49.868 E-0.00132
G1 F5760
G1 X54.171 Y49.864 E-0.00132
G1 F5760
G1 X54.172 Y49.860 E-0.00132
G1 F5760
G1 X54.172 Y49.857 E-0.00132
G1 F5760
G1 X54.173 Y49.853 E-0.00132
G1 F5760
G1 X54.174 Y49.849 E-0.00132
G1 F5760
G1 X54.175 Y49.846 E-0.00132
G1 F5760
G1 X54.176 Y49.842 E-0.00132
G1 F5760
G1 X54.177 Y49.838 E-0.00132
G1 F5760
G1 X54.178 Y49.835 E-0.00132
G1 F5760
G1 X54.179 Y49.831 E-0.00132
G1 F5760
G1 X54.180 Y49.827 E-0.00132
G1 F5760
G1 X54.181 Y49.824 E-0.00132
G1 F5760
G1 X54.182 Y49.820 E-0.00132
G1 F5760
G1 X54.183 Y49.816 E-0.00132
G1 F5760
G1 X54.184 Y49.813 E-0.00132
G1 F5760
G1 X54.185 Y49.809 E-0.00132
G1 F5760
G1 X54.186 Y49.805 E-0.00132
G1 F5760
G1 X54.187 Y49.802 E-0.00132
G1 F5760
G1 X54.188 Y49.798 E-0.00132
G1 F5760
G1 X54.189 Y49.794 E-0.00132
G1 F5760
G1 X54.190 Y49.791 E-0.00132
G1 F5760
G1 X54.191 Y49.787 E-0.00132
G1 F5760
G1 X54.192 Y49.783 E-0.00132
G1 F5760
G1 X54.193 Y49.780 E-0.00132
G1 F5760
G1 X54.194 Y49.776 E-0.00132
G1 F5760
G1 X54.195 Y49.772 E-0.00132
G1 F5760
G1 X54.197 Y49.769 E-0.00132
G1 F5760
G1 X54.198 Y49.765 E-0.00132
G1 F5760
G1 X54.199 Y49.761 E-0.00132
G1 F5760
G1 X54.200 Y49.758 E-0.00132
G1 F5760
G1 X54.201 Y49.754 E-0.00132
G1 F5760
G1 X54.202 Y49.750 E-0.00132
G1 F5760
G1 X54.203 Y49.747 E-0.00132
G1 F5760
G1 X54.204 Y49.743 E-0.00132
G1 F5760
G1 X54.205 Y49.739 E-0.00132
G1 F5760
G1 X54.206 Y49.736 E-0.00132
G1 F5760
G1 X54.208 Y49.732 E-0.00132
G1 F5760
G1 X54.209 Y49.728 E-0.00132
G1 F5760
G1 X54.210 Y49.725 E-0.00132
G1 F5760
G1 X54.211 Y49.721 E-0.00132
G1 F5760
G1 X54.212 Y49.718 E-0.00132
G1 F5760
G1 X54.213 Y49.714 E-0.00132
G1 F5760
G1 X54.214 Y49.710 E-0.00132
G1 F5760
G1 X54.216 Y49.707 E-0.00132
G1 F5760
G1 X54.217 Y49.703 E-0.00132
G1 F5760
G1 X54.218 Y49.699 E-0.00132
G1 F5760
G1 X54.219 Y49.696 E-0.00132
G1 F5760
G1 X54.220 Y49.692 E-0.00132
G1 F5760
G1 X54.221 Y49.689 E-0.00132
G1 F5760
G1 X54.223 Y49.685 E-0.00132
G1 F5760
G1 X54.224 Y49.681 E-0.00132
G1 F5760
G1 X54.225 Y49.678 E-0.00132
G1 F5760
G1 X54.226 Y49.674 E-0.00132
G1 F5760
G1 X54.228 Y49.671 E-0.00132
G1 F5760
G1 X54.229 Y49.667 E-0.00132
G1 F5760
G1 X54.230 Y49.663 E-0.00132
G1 F5760
G1 X54.231 Y49.660 E-0.00132
G1 F5760
G1 X54.233 Y49.656 E-0.00132
G1 F5760
G1 X54.234 Y49.653 E-0.00132
G1 F5760
G1 X54.235 Y49.649 E-0.00132
G1 F5760
G1 X54.236 Y49.645 E-0.00132
G1 F5760
G1 X54.238 Y49.642 E-0.00132
G1 F5760
G1 X54.239 Y49.638 E-0.00132
G1 F5760
G1 X54.240 Y49.635 E-0.00132
G1 F5760
G1 X54.241 Y49.631 E-0.00132
G1 F5760
G1 X54.243 Y49.627 E-0.00132
G1 F5760
G1 X54.244 Y49.624 E-0.00132
G1 F5760
G1 X54.245 Y49.620 E-0.00132
G1 F5760
G1 X54.247 Y49.617 E-0.00132
G1 F5760
G1 X54.248 Y49.613 E-0.00132
G1 F5760
G1 X54.249 Y49.610 E-0.00132
G1 F5760
G1 X54.251 Y49.606 E-0.00132
G1 F5760
G1 X54.252 Y49.602 E-0.00132
G1 F5760
G1 X54.253 Y49.599 E-0.00132
G1 F5760
G1 X54.255 Y49.595 E-0.00132
G1 F5760
G1 X54.256 Y49.592 E-0.00132
G1 F5760
G1 X54.257 Y49.588 E-0.00132
G1 F5760
G1 X54.259 Y49.585 E-0.00132
G1 F5760
G1 X54.260 Y49.581 E-0.00132
G1 F5760
G1 X54.261 Y49.578 E-0.00132
G1 F5760
G1 X54.263 Y49.574 E-0.00132
G1 F5760
G1 X54.264 Y49.570 E-0.00132
G1 F5760
G1 X54.266 Y49.567 E-0.00132
G1 F5760
G1 X54.267 Y49.563 E-0.00132
G1 F5760
G1 X54.268 Y49.560 E-0.00132
G1 F5760
G1 X54.270 Y49.556 E-0.00132
G1 F5760
G1 X54.271 Y49.553 E-0.00132
G1 F5760
G1 X54.273 Y49.549 E-0.00132
G1 F5760
G1 X54.274 Y49.546 E-0.00132
G1 F5760
G1 X54.276 Y49.542 E-0.00132
G1 F5760
G1 X54.277 Y49.539 E-0.00132
G1 F5760
G1 X54.278 Y49.535 E-0.00132
G1 F5760
G1 X54.280 Y49.532 E-0.00132
G1 F5760
G1 X54.281 Y49.528 E-0.00132
G1 F5760
G1 X54.283 Y49.524 E-0.00132
G1 F5760
G1 X54.284 Y49.521 E-0.00132
G1 F5760
G1 X54.286 Y49.517 E-0.00132
G1 F5760
G1 X54.287 Y49.514 E-0.00132
G1 F5760
G1 X54.289 Y49.510 E-0.00132
G1 F5760
G1 X54.290 Y49.507 E-0.00132
G1 F5760
G1 X54.292 Y49.503 E-0.00132
G1 F5760
G1 X54.293 Y49.500 E-0.00132
G1 F5760
G1 X54.295 Y49.496 E-0.00132
G1 F5760
G1 X54.296 Y49.493 E-0.00132
G1 F5760
G1 X54.298 Y49.489 E-0.00132
G1 F5760
G1 X54.299 Y49.486 E-0.00132
G1 F5760
G1 X54.301 Y49.482 E-0.00132
G1 F5760
G1 X54.302 Y49.479 E-0.00132
G1 F5760
G1 X54.304 Y49.475 E-0.00132
G1 F5760
G1 X54.305 Y49.472 E-0.00132
G1 F5760
G1 X54.307 Y49.469 E-0.00132
G1 F5760
G1 X54.308 Y49.465 E-0.00132
G1 F5760
G1 X54.310 Y49.462 E-0.00132
G1 F5760
G1 X54.312 Y49.458 E-0.00132
G1 F5760
G1 X54.313 Y49.455 E-0.00132
G1 F5760
G1 X54.315 Y49.451 E-0.00132
G1 F5760
G1 X54.316 Y49.448 E-0.00132
G1 F5760
G1 X54.318 Y49.444 E-0.00132
G1 F5760
G1 X54.319 Y49.441 E-0.00132
G1 F5760
G1 X54.321 Y49.437 E-0.00132
G1 F5760
G1 X54.323 Y49.434 E-0.00132
G1 F5760
G1 X54.324 Y49.430 E-0.00132
G1 F5760
G1 X54.326 Y49.427 E-0.00132
G1 F5760
G1 X54.328 Y49.424 E-0.00132
G1 F5760
G1 X54.329 Y49.420 E-0.00132
G1 F5760
G1 X54.331 Y49.417 E-0.00132
G1 F5760
G1 X54.332 Y49.413 E-0.00132
G1 F5760
G1 X54.334 Y49.410 E-0.00132
G1 F5760
G1 X54.336 Y49.406 E-0.00132
G1 F5760
G1 X54.337 Y49.403 E-0.00132
G1 F5760
G1 X54.339 Y49.399 E-0.00132
G1 F5760
G1 X54.341 Y49.396 E-0.00132
G1 F5760
G1 X54.342 Y49.393 E-0.00132
G1 F5760
G1 X54.344 Y49.389 E-0.00132
G1 F5760
G1 X54.346 Y49.386 E-0.00132
G1 F5760
G1 X54.347 Y49.382 E-0.00132
G1 F5760
G1 X54.349 Y49.379 E-0.00132
G1 F5760
G1 X54.351 Y49.376 E-0.00132
G1 F5760
G1 X54.353 Y49.372 E-0.00132
G1 F5760
G1 X54.354 Y49.369 E-0.00132
G1 F5760
G1 X54.356 Y49.365 E-0.00132
G1 F5760
G1 X54.358 Y49.362 E-0.00132
G1 F5760
G1 X54.359 Y49.359 E-0.00132
G1 F5760
G1 X54.361 Y49.355 E-0.00132
G1 F5760
G1 X54.363 Y49.352 E-0.00132
G1 F5760
G1 X54.365 Y49.348 E-0.00132
G1 F5760
G1 X54.366 Y49.345 E-0.00132
G1 F5760
G1 X54.368 Y49.342 E-0.00132
G1 F5760
G1 X54.370 Y49.338 E-0.00132
G1 F5760
G1 X54.372 Y49.335 E-0.00132
G1 F5760
G1 X54.373 Y49.331 E-0.00132
G1 F5760
G1 X54.375 Y49.328 E-0.00132
G1 F5760
G1 X54.377 Y49.325 E-0.00132
G1 F5760
G1 X54.379 Y49.321 E-0.00132
G1 F5760
G1 X54.381 Y49.318 E-0.00132
G1 F5760
G1 X54.382 Y49.315 E-0.00132
G1 F5760
G1 X54.384 Y49.311 E-0.00132
G1 F5760
G1 X54.386 Y49.308 E-0.00132
G1 F5760
G1 X54.388 Y49.305 E-0.00132
G1 F5760
G1 X54.390 Y49.301 E-0.00132
G1 F5760
G1 X54.391 Y49.298 E-0.00132
G1 F5760
G1 X54.393 Y49.295 E-0.00132
G1 F5760
G1 X54.395 Y49.291 E-0.00132
G1 F5760
G1 X54.397 Y49.288 E-0.00132
G1 F5760
G1 X54.399 Y49.285 E-0.00132
G1 F5760
G1 X54.401 Y49.281 E-0.00132
G1 F5760
G1 X54.402 Y49.278 E-0.00132
G1 F5760
G1 X54.404 Y49.275 E-0.00132
G1 F5760
G1 X54.406 Y49.271 E-0.00132
G1 F5760
G1 X54.408 Y49.268 E-0.00132
G1 F5760
G1 X54.410 Y49.265 E-0.00132
G1 F5760
G1 X54.412 Y49.261 E-0.00132
G1 F5760
G1 X54.414 Y49.258 E-0.00132
G1 F5760
G1 X54.416 Y49.255 E-0.00132
G1 F5760
G1 X54.417 Y49.251 E-0.00132
G1 F5760
G1 X54.419 Y49.248 E-0.00132
G1 F5760
G1 X54.421 Y49.245 E-0.00132
G1 F5760
G1 X54.423 Y49.242 E-0.00132
G1 F5760
G1 X54.425 Y49.238 E-0.00132
G1 F5760
G1 X54.427 Y49.235 E-0.00132
G1 F5760
G1 X54.429 Y49.232 E-0.00132
G1 F5760
G1 X54.431 Y49.228 E-0.00132
G1 F5760
G1 X54.433 Y49.225 E-0.00132
G1 F5760
G1 X54.435 Y49.222 E-0.00132
G1 F5760
G1 X54.437 Y49.219 E-0.00132
G1 F5760
G1 X54.439 Y49.215 E-0.00132
G1 F5760
G1 X54.441 Y49.212 E-0.00132
G1 F5760
G1 X54.443 Y49.209 E-0.00132
G1 F5760
G1 X54.445 Y49.205 E-0.00132
G1 F5760
G1 X54.447 Y49.202 E-0.00132
G1 F5760
G1 X54.449 Y49.199 E-0.00132
G1 F5760
G1 X54.451 Y49.196 E-0.00132
G1 F5760
G1 X54.453 Y49.192 E-0.00132
G1 F5760
G1 X54.455 Y49.189 E-0.00132
G1 F5760
G1 X54.457 Y49.186 E-0.00132
G1 F5760
G1 X54.459 Y49.183 E-0.00132
G1 F5760
G1 X54.461 Y49.180 E-0.00132
G1 F5760
G1 X54.463 Y49.176 E-0.00132
G1 F5760
G1 X54.465 Y49.173 E-0.00132
G1 F5760
G1 X54.467 Y49.170 E-0.00132
G1 F5760
G1 X54.469 Y49.167 E-0.00132
G1 F5760
G1 X54.471 Y49.163 E-0.00132
G1 F5760
G1 X54.473 Y49.160 E-0.00132
G1 F5760
G1 X54.475 Y49.157 E-0.00132
G1 F5760
G1 X54.477 Y49.154 E-0.00132
G1 F5760
G1 X54.479 Y49.151 E-0.00132
G1 F5760
G1 X54.481 Y49.147 E-0.00132
G1 F5760
G1 X54.483 Y49.144 E-0.00132
G1 F5760
G1 X54.485 Y49.141 E-0.00132
G1 F5760
G1 X54.487 Y49.138 E-0.00132
G1 F5760
G1 X54.489 Y49.135 E-0.00132
G1 F5760
G1 X54.491 Y49.131 E-0.00132
G1 F5760
G1 X54.493 Y49.128 E-0.00132
G1 F5760
G1 X54.496 Y49.125 E-0.00132
G1 F5760
G1 X54.498 Y49.122 E-0.00132
G1 F5760
G1 X54.500 Y49.119 E-0.00132
G1 F5760
G1 X54.502 Y49.116 E-0.00132
G1 F5760
G1 X54.504 Y49.112 E-0.00132
G1 F5760
G1 X54.506 Y49.109 E-0.00132
G1 F5760
G1 X54.508 Y49.106 E-0.00132
G1 F5760
G1 X54.510 Y49.103 E-0.00132
G1 F5760
G1 X54.513 Y49.100 E-0.00132
G1 F5760
G1 X54.515 Y49.097 E-0.00132
G1 F5760
G1 X54.517 Y49.093 E-0.00132
G1 F5760
G1 X54.519 Y49.090 E-0.00132
G1 F5760
G1 X54.521 Y49.087 E-0.00132
G1 F5760
G1 X54.523 Y49.084 E-0.00132
G1 F5760
