; generated by Slic3r 1.33.3-prusa3d on 2017-04-09 at 17:18:15

; external perimeters extrusion width = 0.70mm
; perimeters extrusion width = 0.70mm
; infill extrusion width = 0.70mm
; solid infill extrusion width = 0.70mm
; top infill extrusion width = 0.70mm

M107
M115 U3.0.9 ; tell printer latest fw version
M83  ; extruder relative mode
M104 S220 ; set extruder temp
M140 S55 ; set bed temp
M190 S55 ; wait for bed temp
M109 S220 ; wait for extruder temp
G28 W ; home all without mesh bed level
G80 ; mesh bed leveling
G1 Y-3.0 F1000.0 ; go outside pritn area
G1 X60.0 E9.0  F1000.0 ; intro line
G1 X100.0 E12.5  F1000.0 ; intro line
G21 ; set units to millimeters
G90 ; use absolute coordinates
M83 ; use relative distances for extrusion
G1 E-0.80000 F2100.00000
G1 Z0.200 F7200.000
G1 X101.288 Y84.002 F7200.000
G1 E0.80000 F2100.00000
M204 S1000
G1 F2100
G1 X101.387 Y83.484 E0.04289
G1 X101.578 Y82.987 E0.04323
G1 X101.855 Y82.532 E0.04323
G1 X102.208 Y82.134 E0.04323
G1 X102.626 Y81.805 E0.04323
G1 X103.096 Y81.556 E0.04323
G1 X103.603 Y81.394 E0.04323
G1 X104.130 Y81.325 E0.04323
G1 X145.805 Y81.323 E3.38586
G1 X146.347 Y81.383 E0.04427
G1 X146.869 Y81.541 E0.04427
G1 X147.116 Y81.655 E0.02216
G1 X147.356 Y81.793 E0.02250
G1 X147.786 Y82.128 E0.04427
G1 X147.996 Y82.346 E0.02458
G1 X148.183 Y82.584 E0.02458
G1 X148.344 Y82.840 E0.02458
G1 X148.479 Y83.111 E0.02458
G1 X148.586 Y83.394 E0.02458
G1 X148.663 Y83.686 E0.02458
G1 X148.710 Y83.985 E0.02458
G1 X148.727 Y84.291 E0.02492
G1 X148.727 Y125.755 E3.36873
G1 X148.667 Y126.297 E0.04427
G1 X148.509 Y126.819 E0.04427
G1 X148.259 Y127.303 E0.04427
G1 X147.925 Y127.733 E0.04427
G1 X147.707 Y127.943 E0.02458
G1 X147.469 Y128.130 E0.02458
G1 X147.214 Y128.292 E0.02458
G1 X146.939 Y128.429 E0.02492
G1 X146.656 Y128.536 E0.02458
G1 X146.364 Y128.613 E0.02458
G1 X146.065 Y128.660 E0.02458
G1 X145.759 Y128.677 E0.02492
G1 X104.195 Y128.677 E3.37686
G1 X103.653 Y128.617 E0.04427
G1 X103.131 Y128.459 E0.04427
G1 X102.647 Y128.209 E0.04427
G1 X102.217 Y127.875 E0.04427
G1 X102.010 Y127.660 E0.02423
G1 X101.827 Y127.430 E0.02389
G1 X101.668 Y127.182 E0.02389
G1 X101.533 Y126.917 E0.02423
G1 X101.426 Y126.643 E0.02389
G1 X101.346 Y126.356 E0.02423
G1 X101.295 Y126.062 E0.02423
G1 X101.274 Y125.764 E0.02423
G1 X101.280 Y84.092 E3.38565
G1 F5760
G1 X101.288 Y83.998 E-0.03265
G1 F5760
G1 X101.289 Y83.994 E-0.00148
G1 F5760
G1 X101.289 Y83.989 E-0.00148
G1 F5760
G1 X101.290 Y83.985 E-0.00148
G1 F5760
G1 X101.290 Y83.981 E-0.00148
G1 F5760
G1 X101.291 Y83.977 E-0.00148
G1 F5760
G1 X101.291 Y83.972 E-0.00148
G1 F5760
G1 X101.291 Y83.968 E-0.00148
G1 F5760
G1 X101.292 Y83.964 E-0.00148
G1 F5760
G1 X101.292 Y83.960 E-0.00148
G1 F5760
G1 X101.293 Y83.955 E-0.00148
G1 F5760
G1 X101.293 Y83.951 E-0.00148
G1 F5760
G1 X101.294 Y83.947 E-0.00148
G1 F5760
G1 X101.294 Y83.943 E-0.00148
G1 F5760
G1 X101.295 Y83.939 E-0.00148
G1 F5760
G1 X101.295 Y83.934 E-0.00148
G1 F5760
G1 X101.296 Y83.930 E-0.00148
G1 F5760
G1 X101.297 Y83.926 E-0.00148
G1 F5760
G1 X101.297 Y83.922 E-0.00148
G1 F5760
G1 X101.298 Y83.917 E-0.00148
G1 F5760
G1 X101.298 Y83.913 E-0.00148
G1 F5760
G1 X101.299 Y83.909 E-0.00148
G1 F5760
G1 X101.299 Y83.905 E-0.00148
G1 F5760
G1 X101.300 Y83.901 E-0.00148
G1 F5760
G1 X101.300 Y83.896 E-0.00148
G1 F5760
G1 X101.301 Y83.892 E-0.00148
G1 F5760
G1 X101.302 Y83.888 E-0.00148
G1 F5760
G1 X101.302 Y83.884 E-0.00148
G1 F5760
G1 X101.303 Y83.879 E-0.00148
G1 F5760
G1 X101.303 Y83.875 E-0.00148
G1 F5760
G1 X101.304 Y83.871 E-0.00148
G1 F5760
G1 X101.305 Y83.867 E-0.00148
G1 F5760
G1 X101.305 Y83.863 E-0.00148
G1 F5760
G1 X101.306 Y83.858 E-0.00148
G1 F5760
G1 X101.307 Y83.854 E-0.00148
G1 F5760
G1 X101.307 Y83.850 E-0.00148
G1 F5760
G1 X101.308 Y83.846 E-0.00148
G1 F5760
G1 X101.308 Y83.841 E-0.00148
G1 F5760
G1 X101.309 Y83.837 E-0.00148
G1 F5760
G1 X101.310 Y83.833 E-0.00148
G1 F5760
G1 X101.310 Y83.829 E-0.00148
G1 F5760
G1 X101.311 Y83.825 E-0.00148
G1 F5760
G1 X101.312 Y83.820 E-0.00148
G1 F5760
G1 X101.312 Y83.816 E-0.00148
G1 F5760
G1 X101.313 Y83.812 E-0.00148
G1 F5760
G1 X101.314 Y83.808 E-0.00148
G1 F5760
G1 X101.315 Y83.804 E-0.00148
G1 F5760
G1 X101.315 Y83.799 E-0.00148
G1 F5760
G1 X101.316 Y83.795 E-0.00148
G1 F5760
G1 X101.317 Y83.791 E-0.00148
G1 F5760
G1 X101.317 Y83.787 E-0.00148
G1 F5760
G1 X101.318 Y83.783 E-0.00148
G1 F5760
G1 X101.319 Y83.778 E-0.00148
G1 F5760
G1 X101.320 Y83.774 E-0.00148
G1 F5760
G1 X101.320 Y83.770 E-0.00148
G1 F5760
G1 X101.321 Y83.766 E-0.00148
G1 F5760
G1 X101.322 Y83.762 E-0.00148
G1 F5760
G1 X101.323 Y83.757 E-0.00148
G1 F5760
G1 X101.324 Y83.753 E-0.00148
G1 F5760
G1 X101.324 Y83.749 E-0.00148
G1 F5760
G1 X101.325 Y83.745 E-0.00148
G1 F5760
G1 X101.326 Y83.741 E-0.00148
G1 F5760
G1 X101.327 Y83.736 E-0.00148
G1 F5760
G1 X101.328 Y83.732 E-0.00148
G1 F5760
G1 X101.328 Y83.728 E-0.00148
G1 F5760
G1 X101.329 Y83.724 E-0.00148
G1 F5760
G1 X101.330 Y83.720 E-0.00148
G1 F5760
G1 X101.331 Y83.716 E-0.00148
G1 F5760
G1 X101.332 Y83.711 E-0.00148
G1 F5760
G1 X101.333 Y83.707 E-0.00148
G1 F5760
G1 X101.333 Y83.703 E-0.00148
G1 F5760
G1 X101.334 Y83.699 E-0.00148
G1 F5760
G1 X101.335 Y83.695 E-0.00148
G1 F5760
G1 X101.336 Y83.691 E-0.00148
G1 F5760
G1 X101.337 Y83.686 E-0.00148
G1 F5760
G1 X101.338 Y83.682 E-0.00148
G1 F5760
G1 X101.339 Y83.678 E-0.00148
G1 F5760
G1 X101.340 Y83.674 E-0.00148
G1 F5760
G1 X101.340 Y83.670 E-0.00148
G1 F5760
G1 X101.341 Y83.665 E-0.00148
G1 F5760
G1 X101.342 Y83.661 E-0.00148
G1 F5760
G1 X101.343 Y83.657 E-0.00148
G1 F5760
G1 X101.344 Y83.653 E-0.00148
G1 F5760
G1 X101.345 Y83.649 E-0.00148
G1 F5760
G1 X101.346 Y83.645 E-0.00148
G1 F5760
G1 X101.347 Y83.641 E-0.00148
G1 F5760
G1 X101.348 Y83.636 E-0.00148
G1 F5760
G1 X101.349 Y83.632 E-0.00148
G1 F5760
G1 X101.350 Y83.628 E-0.00148
G1 F5760
G1 X101.351 Y83.624 E-0.00148
G1 F5760
G1 X101.352 Y83.620 E-0.00148
G1 F5760
G1 X101.353 Y83.616 E-0.00148
G1 F5760
G1 X101.354 Y83.611 E-0.00148
G1 F5760
G1 X101.355 Y83.607 E-0.00148
G1 F5760
G1 X101.356 Y83.603 E-0.00148
G1 F5760
G1 X101.357 Y83.599 E-0.00148
G1 F5760
G1 X101.358 Y83.595 E-0.00148
G1 F5760
G1 X101.359 Y83.591 E-0.00148
G1 F5760
G1 X101.360 Y83.587 E-0.00148
G1 F5760
G1 X101.361 Y83.582 E-0.00148
G1 F5760
G1 X101.362 Y83.578 E-0.00148
G1 F5760
G1 X101.363 Y83.574 E-0.00148
G1 F5760
G1 X101.364 Y83.570 E-0.00148
G1 F5760
G1 X101.365 Y83.566 E-0.00148
G1 F5760
G1 X101.366 Y83.562 E-0.00148
G1 F5760
G1 X101.367 Y83.558 E-0.00148
G1 F5760
G1 X101.368 Y83.554 E-0.00148
G1 F5760
G1 X101.369 Y83.549 E-0.00148
G1 F5760
G1 X101.370 Y83.545 E-0.00148
G1 F5760
G1 X101.371 Y83.541 E-0.00148
G1 F5760
G1 X101.372 Y83.537 E-0.00148
G1 F5760
G1 X101.373 Y83.533 E-0.00148
G1 F5760
G1 X101.375 Y83.529 E-0.00148
G1 F5760
G1 X101.376 Y83.525 E-0.00148
G1 F5760
G1 X101.377 Y83.521 E-0.00148
G1 F5760
G1 X101.378 Y83.516 E-0.00148
G1 F5760
G1 X101.379 Y83.512 E-0.00148
G1 F5760
G1 X101.380 Y83.508 E-0.00148
G1 F5760
G1 X101.381 Y83.504 E-0.00148
G1 F5760
G1 X101.382 Y83.500 E-0.00148
G1 F5760
G1 X101.384 Y83.496 E-0.00148
G1 F5760
G1 X101.385 Y83.492 E-0.00148
G1 F5760
G1 X101.386 Y83.488 E-0.00148
G1 F5760
G1 X101.387 Y83.484 E-0.00148
G1 F5760
G1 X101.388 Y83.480 E-0.00148
G1 F5760
G1 X101.389 Y83.475 E-0.00148
G1 F5760
G1 X101.391 Y83.471 E-0.00148
G1 F5760
G1 X101.392 Y83.467 E-0.00148
G1 F5760
G1 X101.393 Y83.463 E-0.00148
G1 F5760
G1 X101.394 Y83.459 E-0.00148
G1 F5760
G1 X101.395 Y83.455 E-0.00148
G1 F5760
G1 X101.397 Y83.451 E-0.00148
G1 F5760
G1 X101.398 Y83.447 E-0.00148
G1 F5760
G1 X101.399 Y83.443 E-0.00148
G1 F5760
G1 X101.400 Y83.439 E-0.00148
G1 F5760
G1 X101.401 Y83.435 E-0.00148
G1 F5760
G1 X101.403 Y83.430 E-0.00148
G1 F5760
G1 X101.404 Y83.426 E-0.00148
G1 F5760
G1 X101.405 Y83.422 E-0.00148
G1 F5760
G1 X101.406 Y83.418 E-0.00148
G1 F5760
G1 X101.408 Y83.414 E-0.00148
G1 F5760
G1 X101.409 Y83.410 E-0.00148
G1 F5760
G1 X101.410 Y83.406 E-0.00148
G1 F5760
G1 X101.412 Y83.402 E-0.00148
G1 F5760
G1 X101.413 Y83.398 E-0.00148
G1 F5760
G1 X101.414 Y83.394 E-0.00148
G1 F5760
G1 X101.415 Y83.390 E-0.00148
G1 F5760
G1 X101.417 Y83.386 E-0.00148
G1 F5760
G1 X101.418 Y83.382 E-0.00148
G1 F5760
G1 X101.419 Y83.378 E-0.00148
G1 F5760
G1 X101.421 Y83.374 E-0.00148
G1 F5760
G1 X101.422 Y83.370 E-0.00148
G1 F5760
G1 X101.423 Y83.365 E-0.00148
G1 F5760
G1 X101.425 Y83.361 E-0.00148
G1 F5760
G1 X101.426 Y83.357 E-0.00148
G1 F5760
G1 X101.427 Y83.353 E-0.00148
G1 F5760
G1 X101.429 Y83.349 E-0.00148
G1 F5760
G1 X101.430 Y83.345 E-0.00148
G1 F5760
G1 X101.432 Y83.341 E-0.00148
G1 F5760
G1 X101.433 Y83.337 E-0.00148
G1 F5760
G1 X101.434 Y83.333 E-0.00148
G1 F5760
G1 X101.436 Y83.329 E-0.00148
G1 F5760
G1 X101.437 Y83.325 E-0.00148
G1 F5760
G1 X101.438 Y83.321 E-0.00148
G1 F5760
G1 X101.440 Y83.317 E-0.00148
G1 F5760
G1 X101.441 Y83.313 E-0.00148
G1 F5760
G1 X101.443 Y83.309 E-0.00148
G1 F5760
G1 X101.444 Y83.305 E-0.00148
G1 F5760
G1 X101.446 Y83.301 E-0.00148
G1 F5760
G1 X101.447 Y83.297 E-0.00148
G1 F5760
G1 X101.448 Y83.293 E-0.00148
G1 F5760
G1 X101.450 Y83.289 E-0.00148
G1 F5760
G1 X101.451 Y83.285 E-0.00148
G1 F5760
G1 X101.453 Y83.281 E-0.00148
G1 F5760
G1 X101.454 Y83.277 E-0.00148
G1 F5760
G1 X101.456 Y83.273 E-0.00148
G1 F5760
G1 X101.457 Y83.269 E-0.00148
G1 F5760
G1 X101.459 Y83.265 E-0.00148
G1 F5760
G1 X101.460 Y83.261 E-0.00148
G1 F5760
G1 X101.462 Y83.257 E-0.00148
G1 F5760
G1 X101.463 Y83.253 E-0.00148
G1 F5760
G1 X101.465 Y83.249 E-0.00148
G1 F5760
G1 X101.466 Y83.245 E-0.00148
G1 F5760
G1 X101.468 Y83.241 E-0.00148
G1 F5760
G1 X101.469 Y83.237 E-0.00148
G1 F5760
G1 X101.471 Y83.233 E-0.00148
G1 F5760
G1 X101.472 Y83.229 E-0.00148
G1 F5760
G1 X101.474 Y83.225 E-0.00148
G1 F5760
G1 X101.475 Y83.221 E-0.00148
G1 F5760
G1 X101.477 Y83.217 E-0.00148
G1 F5760
G1 X101.478 Y83.213 E-0.00148
G1 F5760
G1 X101.480 Y83.209 E-0.00148
G1 F5760
G1 X101.482 Y83.205 E-0.00148
G1 F5760
G1 X101.483 Y83.201 E-0.00148
G1 F5760
G1 X101.485 Y83.197 E-0.00148
G1 F5760
G1 X101.486 Y83.193 E-0.00148
G1 F5760
G1 X101.488 Y83.189 E-0.00148
G1 F5760
G1 X101.489 Y83.185 E-0.00148
G1 F5760
G1 X101.491 Y83.181 E-0.00148
G1 F5760
G1 X101.493 Y83.178 E-0.00148
G1 F5760
G1 X101.494 Y83.174 E-0.00148
G1 F5760
G1 X101.496 Y83.170 E-0.00148
G1 F5760
G1 X101.497 Y83.166 E-0.00148
G1 F5760
G1 X101.499 Y83.162 E-0.00148
G1 F5760
G1 X101.501 Y83.158 E-0.00148
G1 F5760
G1 X101.502 Y83.154 E-0.00148
G1 F5760
G1 X101.504 Y83.150 E-0.00148
G1 F5760
G1 X101.506 Y83.146 E-0.00148
G1 F5760
G1 X101.507 Y83.142 E-0.00148
G1 F5760
G1 X101.509 Y83.138 E-0.00148
G1 F5760
G1 X101.511 Y83.134 E-0.00148
G1 F5760
G1 X101.512 Y83.130 E-0.00148
G1 F5760
G1 X101.514 Y83.126 E-0.00148
G1 F5760
G1 X101.516 Y83.122 E-0.00148
G1 F5760
G1 X101.517 Y83.119 E-0.00148
G1 F5760
G1 X101.519 Y83.115 E-0.00148
G1 F5760
G1 X101.521 Y83.111 E-0.00148
G1 F5760
G1 X101.522 Y83.107 E-0.00148
G1 F5760
G1 X101.524 Y83.103 E-0.00148
G1 F5760
G1 X101.526 Y83.099 E-0.00148
G1 F5760
G1 X101.528 Y83.095 E-0.00148
G1 F5760
G1 X101.529 Y83.091 E-0.00148
G1 F5760
G1 X101.531 Y83.087 E-0.00148
G1 F5760
G1 X101.533 Y83.083 E-0.00148
G1 F5760
G1 X101.535 Y83.080 E-0.00148
G1 F5760
G1 X101.536 Y83.076 E-0.00148
G1 F5760
G1 X101.538 Y83.072 E-0.00148
G1 F5760
G1 X101.540 Y83.068 E-0.00148
G1 F5760
G1 X101.542 Y83.064 E-0.00148
G1 F5760
G1 X101.543 Y83.060 E-0.00148
G1 F5760
G1 X101.545 Y83.056 E-0.00148
G1 F5760
G1 X101.547 Y83.052 E-0.00148
G1 F5760
G1 X101.549 Y83.049 E-0.00148
G1 F5760
G1 X101.551 Y83.045 E-0.00148
G1 F5760
G1 X101.552 Y83.041 E-0.00148
G1 F5760
G1 X101.554 Y83.037 E-0.00148
G1 F5760
G1 X101.556 Y83.033 E-0.00148
G1 F5760
G1 X101.558 Y83.029 E-0.00148
G1 F5760
G1 X101.560 Y83.025 E-0.00148
G1 F5760
G1 X101.561 Y83.022 E-0.00148
G1 F5760
G1 X101.563 Y83.018 E-0.00148
G1 F5760
G1 X101.565 Y83.014 E-0.00148
G1 F5760
G1 X101.567 Y83.010 E-0.00148
G1 F5760
G1 X101.569 Y83.006 E-0.00148
G1 F5760
G1 X101.571 Y83.002 E-0.00148
G1 F5760
G1 X101.572 Y82.998 E-0.00148
G1 F5760
G1 X101.574 Y82.995 E-0.00148
G1 F5760
G1 X101.576 Y82.991 E-0.00148
G1 F5760
G1 X101.578 Y82.987 E-0.00148
G1 F5760
G1 X101.580 Y82.983 E-0.00148
G1 F5760
G1 X101.582 Y82.979 E-0.00148
G1 F5760
G1 X101.584 Y82.976 E-0.00148
G1 F5760
G1 X101.586 Y82.972 E-0.00148
G1 F5760
G1 X101.588 Y82.968 E-0.00148
G1 F5760
G1 X101.589 Y82.964 E-0.00148
G1 F5760
G1 X101.591 Y82.960 E-0.00148
G1 F5760
G1 X101.593 Y82.956 E-0.00148
G1 F5760
G1 X101.595 Y82.953 E-0.00148
G1 F5760
G1 X101.597 Y82.949 E-0.00148
G1 F5760
G1 X101.599 Y82.945 E-0.00148
G1 F5760
G1 X101.601 Y82.941 E-0.00148
G1 F5760
G1 X101.603 Y82.937 E-0.00148
G1 F5760
G1 X101.605 Y82.934 E-0.00148
G1 F5760
G1 X101.607 Y82.930 E-0.00148
G1 F5760
G1 X101.609 Y82.926 E-0.00148
G1 F5760
G1 X101.611 Y82.922 E-0.00148
G1 F5760
G1 X101.613 Y82.919 E-0.00148
G1 F5760
G1 X101.615 Y82.915 E-0.00148
G1 F5760
G1 X101.617 Y82.911 E-0.00148
G1 F5760
G1 X101.619 Y82.907 E-0.00148
G1 F5760
G1 X101.621 Y82.903 E-0.00148
G1 F5760
G1 X101.623 Y82.900 E-0.00148
G1 F5760
G1 X101.625 Y82.896 E-0.00148
G1 F5760
G1 X101.627 Y82.892 E-0.00148
G1 F5760
G1 X101.629 Y82.888 E-0.00148
G1 F5760
G1 X101.631 Y82.885 E-0.00148
G1 F5760
G1 X101.633 Y82.881 E-0.00148
G1 F5760
G1 X101.635 Y82.877 E-0.00148
G1 F5760
G1 X101.637 Y82.873 E-0.00148
G1 F5760
G1 X101.639 Y82.870 E-0.00148
G1 F5760
G1 X101.641 Y82.866 E-0.00148
G1 F5760
G1 X101.643 Y82.862 E-0.00148
G1 F5760
G1 X101.645 Y82.859 E-0.00148
G1 F5760
G1 X101.647 Y82.855 E-0.00148
G1 F5760
G1 X101.649 Y82.851 E-0.00148
G1 F5760
G1 X101.651 Y82.847 E-0.00148
G1 F5760
G1 X101.653 Y82.844 E-0.00148
G1 F5760
G1 X101.656 Y82.840 E-0.00148
G1 F5760
G1 X101.658 Y82.836 E-0.00148
G1 F5760
G1 X101.660 Y82.832 E-0.00148
G1 F5760
G1 X101.662 Y82.829 E-0.00148
G1 F5760
G1 X101.664 Y82.825 E-0.00148
G1 F5760
G1 X101.666 Y82.821 E-0.00148
G1 F5760
G1 X101.668 Y82.818 E-0.00148
G1 F5760
G1 X101.670 Y82.814 E-0.00148
G1 F5760
G1 X101.672 Y82.810 E-0.00148
G1 F5760
G1 X101.675 Y82.807 E-0.00148
G1 F5760
G1 X101.677 Y82.803 E-0.00148
G1 F5760
G1 X101.679 Y82.799 E-0.00148
G1 F5760
G1 X101.681 Y82.796 E-0.00148
G1 F5760
G1 X101.683 Y82.792 E-0.00148
G1 F5760
G1 X101.685 Y82.788 E-0.00148
G1 F5760
G1 X101.688 Y82.785 E-0.00148
G1 F5760
G1 X101.690 Y82.781 E-0.00148
G1 F5760
G1 X101.692 Y82.777 E-0.00148
G1 F5760
G1 X101.694 Y82.774 E-0.00148
G1 F5760
G1 X101.696 Y82.770 E-0.00148
G1 F5760
G1 X101.698 Y82.766 E-0.00148
G1 F5760
G1 X101.701 Y82.763 E-0.00148
G1 F5760
G1 X101.703 Y82.759 E-0.00148
G1 F5760
G1 X101.705 Y82.755 E-0.00148
G1 F5760
G1 X101.707 Y82.752 E-0.00148
G1 F5760
G1 X101.709 Y82.748 E-0.00148
G1 F5760
G1 X101.712 Y82.744 E-0.00148
G1 F5760
G1 X101.714 Y82.741 E-0.00148
G1 F5760
G1 X101.716 Y82.737 E-0.00148
G1 F5760
G1 X101.718 Y82.733 E-0.00148
G1 F5760
G1 X101.721 Y82.730 E-0.00148
G1 F5760
G1 X101.723 Y82.726 E-0.00148
G1 F5760
G1 X101.725 Y82.723 E-0.00148
G1 F5760
G1 X101.727 Y82.719 E-0.00148
G1 F5760
G1 X101.730 Y82.715 E-0.00148
G1 F5760
G1 X101.732 Y82.712 E-0.00148
G1 F5760
G1 X101.734 Y82.708 E-0.00148
G1 F5760
G1 X101.737 Y82.705 E-0.00148
G1 F5760
G1 X101.739 Y82.701 E-0.00148
G1 F5760
G1 X101.741 Y82.697 E-0.00148
G1 F5760
G1 X101.743 Y82.694 E-0.00148
G1 F5760
G1 X101.746 Y82.690 E-0.00148
G1 F5760
G1 X101.748 Y82.687 E-0.00148
G1 F5760
G1 X101.750 Y82.683 E-0.00148
G1 F5760
G1 X101.753 Y82.679 E-0.00148
G1 F5760
G1 X101.755 Y82.676 E-0.00148
G1 F5760
G1 X101.757 Y82.672 E-0.00148
G1 F5760
G1 X101.760 Y82.669 E-0.00148
G1 F5760
G1 X101.762 Y82.665 E-0.00148
G1 F5760
G1 X101.764 Y82.662 E-0.00148
G1 F5760
G1 X101.767 Y82.658 E-0.00148
G1 F5760
G1 X101.769 Y82.655 E-0.00148
G1 F5760
G1 X101.771 Y82.651 E-0.00148
G1 F5760
G1 X101.774 Y82.647 E-0.00148
G1 F5760
G1 X101.776 Y82.644 E-0.00148
G1 F5760
G1 X101.778 Y82.640 E-0.00148
G1 F5760
G1 X101.781 Y82.637 E-0.00148
G1 F5760
G1 X101.783 Y82.633 E-0.00148
G1 F5760
G1 X101.786 Y82.630 E-0.00148
G1 F5760
G1 X101.788 Y82.626 E-0.00148
G1 F5760
G1 X101.790 Y82.623 E-0.00148
G1 F5760
G1 X101.793 Y82.619 E-0.00148
G1 F5760
G1 X101.795 Y82.616 E-0.00148
G1 F5760
G1 X101.798 Y82.612 E-0.00148
