; generated by Slic3r 1.33.3-prusa3d on 2017-04-09 at 17:11:53

; external perimeters extrusion width = 0.45mm
; perimeters extrusion width = 0.45mm
; infill extrusion width = 0.45mm
; solid infill extrusion width = 0.45mm
; top infill extrusion width = 0.40mm

M107
M115 U3.0.9 ; tell printer latest fw version
M83  ; extruder relative mode
M104 S230 ; set extruder temp
M140 S85 ; set bed temp
M190 S85 ; wait for bed temp
M109 S230 ; wait for extruder temp
G28 W ; home all without mesh bed level
G80 ; mesh bed leveling
G1 Y-3.0 F1000.0 ; go outside pritn area
G1 X60.0 E9.0  F1000.0 ; intro line
G1 X100.0 E12.5  F1000.0 ; intro line
G21 ; set units to millimeters
G90 ; use absolute coordinates
M83 ; use relative distances for extrusion
G1 E-0.80000 F2100.00000
G1 Z0.200 F7200.000
G1 X101.881 Y84.102 F7200.000
G1 E0.80000 F2100.00000
M204 S1000
G1 F2100
G1 X101.956 Y83.679 E0.01348
G1 X102.105 Y83.276 E0.01348
G1 X102.327 Y82.903 E0.01360
G1 X102.610 Y82.580 E0.01348
G1 X102.946 Y82.312 E0.01348
G1 X103.329 Y82.109 E0.01360
G1 X103.739 Y81.979 E0.01348
G1 X104.169 Y81.924 E0.01360
G1 X145.784 Y81.923 E1.30482
G1 X146.223 Y81.970 E0.01383
G1 X146.649 Y82.099 E0.01395
G1 X147.040 Y82.303 E0.01383
G1 X147.387 Y82.576 E0.01383
G1 X147.699 Y82.939 E0.01502
G1 X147.932 Y83.358 E0.01502
G1 X148.078 Y83.819 E0.01514
G1 X148.127 Y84.295 E0.01502
G1 X148.127 Y125.734 E1.29930
G1 X148.080 Y126.173 E0.01383
G1 X147.952 Y126.595 E0.01383
G1 X147.749 Y126.987 E0.01383
G1 X147.476 Y127.334 E0.01383
G1 X147.114 Y127.647 E0.01502
G1 X146.692 Y127.882 E0.01514
G1 X146.231 Y128.028 E0.01514
G1 X145.755 Y128.077 E0.01502
G1 X104.216 Y128.077 E1.30243
G1 X103.777 Y128.030 E0.01383
G1 X103.355 Y127.902 E0.01383
G1 X102.963 Y127.699 E0.01383
G1 X102.616 Y127.426 E0.01383
G1 X102.307 Y127.070 E0.01478
G1 X102.075 Y126.659 E0.01478
G1 X101.929 Y126.211 E0.01478
G1 X101.873 Y125.739 E0.01490
G1 X101.877 Y84.162 E1.30362
G1 F5760
G1 X101.881 Y84.098 E-0.02210
G1 F5760
G1 X101.882 Y84.095 E-0.00132
G1 F5760
G1 X101.882 Y84.091 E-0.00132
G1 F5760
G1 X101.882 Y84.087 E-0.00132
G1 F5760
G1 X101.883 Y84.083 E-0.00132
G1 F5760
G1 X101.883 Y84.079 E-0.00132
G1 F5760
G1 X101.884 Y84.076 E-0.00132
G1 F5760
G1 X101.884 Y84.072 E-0.00132
G1 F5760
G1 X101.884 Y84.068 E-0.00132
G1 F5760
G1 X101.885 Y84.064 E-0.00132
G1 F5760
G1 X101.885 Y84.060 E-0.00132
G1 F5760
G1 X101.885 Y84.057 E-0.00132
G1 F5760
G1 X101.886 Y84.053 E-0.00132
G1 F5760
G1 X101.886 Y84.049 E-0.00132
G1 F5760
G1 X101.887 Y84.045 E-0.00132
G1 F5760
G1 X101.887 Y84.041 E-0.00132
G1 F5760
G1 X101.887 Y84.038 E-0.00132
G1 F5760
G1 X101.888 Y84.034 E-0.00132
G1 F5760
G1 X101.888 Y84.030 E-0.00132
G1 F5760
G1 X101.889 Y84.026 E-0.00132
G1 F5760
G1 X101.889 Y84.023 E-0.00132
G1 F5760
G1 X101.890 Y84.019 E-0.00132
G1 F5760
G1 X101.890 Y84.015 E-0.00132
G1 F5760
G1 X101.891 Y84.011 E-0.00132
G1 F5760
G1 X101.891 Y84.007 E-0.00132
G1 F5760
G1 X101.891 Y84.004 E-0.00132
G1 F5760
G1 X101.892 Y84.000 E-0.00132
G1 F5760
G1 X101.892 Y83.996 E-0.00132
G1 F5760
G1 X101.893 Y83.992 E-0.00132
G1 F5760
G1 X101.893 Y83.989 E-0.00132
G1 F5760
G1 X101.894 Y83.985 E-0.00132
G1 F5760
G1 X101.894 Y83.981 E-0.00132
G1 F5760
G1 X101.895 Y83.977 E-0.00132
G1 F5760
G1 X101.895 Y83.973 E-0.00132
G1 F5760
G1 X101.896 Y83.970 E-0.00132
G1 F5760
G1 X101.897 Y83.966 E-0.00132
G1 F5760
G1 X101.897 Y83.962 E-0.00132
G1 F5760
G1 X101.898 Y83.958 E-0.00132
G1 F5760
G1 X101.898 Y83.955 E-0.00132
G1 F5760
G1 X101.899 Y83.951 E-0.00132
G1 F5760
G1 X101.899 Y83.947 E-0.00132
G1 F5760
G1 X101.900 Y83.943 E-0.00132
G1 F5760
G1 X101.900 Y83.940 E-0.00132
G1 F5760
G1 X101.901 Y83.936 E-0.00132
G1 F5760
G1 X101.902 Y83.932 E-0.00132
G1 F5760
G1 X101.902 Y83.928 E-0.00132
G1 F5760
G1 X101.903 Y83.924 E-0.00132
G1 F5760
G1 X101.903 Y83.921 E-0.00132
G1 F5760
G1 X101.904 Y83.917 E-0.00132
G1 F5760
G1 X101.905 Y83.913 E-0.00132
G1 F5760
G1 X101.905 Y83.909 E-0.00132
G1 F5760
G1 X101.906 Y83.906 E-0.00132
G1 F5760
G1 X101.906 Y83.902 E-0.00132
G1 F5760
G1 X101.907 Y83.898 E-0.00132
G1 F5760
G1 X101.908 Y83.894 E-0.00132
G1 F5760
G1 X101.908 Y83.891 E-0.00132
G1 F5760
G1 X101.909 Y83.887 E-0.00132
G1 F5760
G1 X101.910 Y83.883 E-0.00132
G1 F5760
G1 X101.910 Y83.879 E-0.00132
G1 F5760
G1 X101.911 Y83.876 E-0.00132
G1 F5760
G1 X101.912 Y83.872 E-0.00132
G1 F5760
G1 X101.912 Y83.868 E-0.00132
G1 F5760
G1 X101.913 Y83.864 E-0.00132
G1 F5760
G1 X101.914 Y83.861 E-0.00132
G1 F5760
G1 X101.915 Y83.857 E-0.00132
G1 F5760
G1 X101.915 Y83.853 E-0.00132
G1 F5760
G1 X101.916 Y83.849 E-0.00132
G1 F5760
G1 X101.917 Y83.846 E-0.00132
G1 F5760
G1 X101.917 Y83.842 E-0.00132
G1 F5760
G1 X101.918 Y83.838 E-0.00132
G1 F5760
G1 X101.919 Y83.835 E-0.00132
G1 F5760
G1 X101.920 Y83.831 E-0.00132
G1 F5760
G1 X101.920 Y83.827 E-0.00132
G1 F5760
G1 X101.921 Y83.823 E-0.00132
G1 F5760
G1 X101.922 Y83.820 E-0.00132
G1 F5760
G1 X101.923 Y83.816 E-0.00132
G1 F5760
G1 X101.924 Y83.812 E-0.00132
G1 F5760
G1 X101.924 Y83.808 E-0.00132
G1 F5760
G1 X101.925 Y83.805 E-0.00132
G1 F5760
G1 X101.926 Y83.801 E-0.00132
G1 F5760
G1 X101.927 Y83.797 E-0.00132
G1 F5760
G1 X101.928 Y83.794 E-0.00132
G1 F5760
G1 X101.928 Y83.790 E-0.00132
G1 F5760
G1 X101.929 Y83.786 E-0.00132
G1 F5760
G1 X101.930 Y83.782 E-0.00132
G1 F5760
G1 X101.931 Y83.779 E-0.00132
G1 F5760
G1 X101.932 Y83.775 E-0.00132
G1 F5760
G1 X101.932 Y83.771 E-0.00132
G1 F5760
G1 X101.933 Y83.767 E-0.00132
G1 F5760
G1 X101.934 Y83.764 E-0.00132
G1 F5760
G1 X101.935 Y83.760 E-0.00132
G1 F5760
G1 X101.936 Y83.756 E-0.00132
G1 F5760
G1 X101.937 Y83.753 E-0.00132
G1 F5760
G1 X101.938 Y83.749 E-0.00132
G1 F5760
G1 X101.939 Y83.745 E-0.00132
G1 F5760
G1 X101.939 Y83.742 E-0.00132
G1 F5760
G1 X101.940 Y83.738 E-0.00132
G1 F5760
G1 X101.941 Y83.734 E-0.00132
G1 F5760
G1 X101.942 Y83.730 E-0.00132
G1 F5760
G1 X101.943 Y83.727 E-0.00132
G1 F5760
G1 X101.944 Y83.723 E-0.00132
G1 F5760
G1 X101.945 Y83.719 E-0.00132
G1 F5760
G1 X101.946 Y83.716 E-0.00132
G1 F5760
G1 X101.947 Y83.712 E-0.00132
G1 F5760
G1 X101.948 Y83.708 E-0.00132
G1 F5760
G1 X101.949 Y83.705 E-0.00132
G1 F5760
G1 X101.950 Y83.701 E-0.00132
G1 F5760
G1 X101.951 Y83.697 E-0.00132
G1 F5760
G1 X101.952 Y83.694 E-0.00132
G1 F5760
G1 X101.953 Y83.690 E-0.00132
G1 F5760
G1 X101.954 Y83.686 E-0.00132
G1 F5760
G1 X101.955 Y83.682 E-0.00132
G1 F5760
G1 X101.956 Y83.679 E-0.00132
G1 F5760
G1 X101.957 Y83.675 E-0.00132
G1 F5760
G1 X101.958 Y83.671 E-0.00132
G1 F5760
G1 X101.959 Y83.668 E-0.00132
G1 F5760
G1 X101.960 Y83.664 E-0.00132
G1 F5760
G1 X101.961 Y83.660 E-0.00132
G1 F5760
G1 X101.962 Y83.657 E-0.00132
G1 F5760
G1 X101.963 Y83.653 E-0.00132
G1 F5760
G1 X101.964 Y83.649 E-0.00132
G1 F5760
G1 X101.965 Y83.646 E-0.00132
G1 F5760
G1 X101.966 Y83.642 E-0.00132
G1 F5760
G1 X101.967 Y83.638 E-0.00132
G1 F5760
G1 X101.968 Y83.635 E-0.00132
G1 F5760
G1 X101.969 Y83.631 E-0.00132
G1 F5760
G1 X101.970 Y83.627 E-0.00132
G1 F5760
G1 X101.971 Y83.624 E-0.00132
G1 F5760
G1 X101.972 Y83.620 E-0.00132
G1 F5760
G1 X101.973 Y83.617 E-0.00132
G1 F5760
G1 X101.974 Y83.613 E-0.00132
G1 F5760
G1 X101.975 Y83.609 E-0.00132
G1 F5760
G1 X101.977 Y83.606 E-0.00132
G1 F5760
G1 X101.978 Y83.602 E-0.00132
G1 F5760
G1 X101.979 Y83.598 E-0.00132
G1 F5760
G1 X101.980 Y83.595 E-0.00132
G1 F5760
G1 X101.981 Y83.591 E-0.00132
G1 F5760
G1 X101.982 Y83.587 E-0.00132
G1 F5760
G1 X101.983 Y83.584 E-0.00132
G1 F5760
G1 X101.985 Y83.580 E-0.00132
G1 F5760
G1 X101.986 Y83.577 E-0.00132
G1 F5760
G1 X101.987 Y83.573 E-0.00132
G1 F5760
G1 X101.988 Y83.569 E-0.00132
G1 F5760
G1 X101.989 Y83.566 E-0.00132
G1 F5760
G1 X101.990 Y83.562 E-0.00132
G1 F5760
G1 X101.992 Y83.558 E-0.00132
G1 F5760
G1 X101.993 Y83.555 E-0.00132
G1 F5760
G1 X101.994 Y83.551 E-0.00132
G1 F5760
G1 X101.995 Y83.548 E-0.00132
G1 F5760
G1 X101.996 Y83.544 E-0.00132
G1 F5760
G1 X101.998 Y83.540 E-0.00132
G1 F5760
G1 X101.999 Y83.537 E-0.00132
G1 F5760
G1 X102.000 Y83.533 E-0.00132
G1 F5760
G1 X102.001 Y83.530 E-0.00132
G1 F5760
G1 X102.002 Y83.526 E-0.00132
G1 F5760
G1 X102.004 Y83.522 E-0.00132
G1 F5760
G1 X102.005 Y83.519 E-0.00132
G1 F5760
G1 X102.006 Y83.515 E-0.00132
G1 F5760
G1 X102.007 Y83.512 E-0.00132
G1 F5760
G1 X102.009 Y83.508 E-0.00132
G1 F5760
G1 X102.010 Y83.504 E-0.00132
G1 F5760
G1 X102.011 Y83.501 E-0.00132
G1 F5760
G1 X102.013 Y83.497 E-0.00132
G1 F5760
G1 X102.014 Y83.494 E-0.00132
G1 F5760
G1 X102.015 Y83.490 E-0.00132
G1 F5760
G1 X102.016 Y83.486 E-0.00132
G1 F5760
G1 X102.018 Y83.483 E-0.00132
G1 F5760
G1 X102.019 Y83.479 E-0.00132
G1 F5760
G1 X102.020 Y83.476 E-0.00132
G1 F5760
G1 X102.022 Y83.472 E-0.00132
G1 F5760
G1 X102.023 Y83.469 E-0.00132
G1 F5760
G1 X102.024 Y83.465 E-0.00132
G1 F5760
G1 X102.026 Y83.461 E-0.00132
G1 F5760
G1 X102.027 Y83.458 E-0.00132
G1 F5760
G1 X102.028 Y83.454 E-0.00132
G1 F5760
G1 X102.030 Y83.451 E-0.00132
G1 F5760
G1 X102.031 Y83.447 E-0.00132
G1 F5760
G1 X102.033 Y83.444 E-0.00132
G1 F5760
G1 X102.034 Y83.440 E-0.00132
G1 F5760
G1 X102.035 Y83.437 E-0.00132
G1 F5760
G1 X102.037 Y83.433 E-0.00132
G1 F5760
G1 X102.038 Y83.429 E-0.00132
G1 F5760
G1 X102.039 Y83.426 E-0.00132
G1 F5760
G1 X102.041 Y83.422 E-0.00132
G1 F5760
G1 X102.042 Y83.419 E-0.00132
G1 F5760
G1 X102.044 Y83.415 E-0.00132
G1 F5760
G1 X102.045 Y83.412 E-0.00132
G1 F5760
G1 X102.047 Y83.408 E-0.00132
G1 F5760
G1 X102.048 Y83.405 E-0.00132
G1 F5760
G1 X102.049 Y83.401 E-0.00132
G1 F5760
G1 X102.051 Y83.398 E-0.00132
G1 F5760
G1 X102.052 Y83.394 E-0.00132
G1 F5760
G1 X102.054 Y83.391 E-0.00132
G1 F5760
G1 X102.055 Y83.387 E-0.00132
G1 F5760
G1 X102.057 Y83.384 E-0.00132
G1 F5760
G1 X102.058 Y83.380 E-0.00132
G1 F5760
G1 X102.060 Y83.377 E-0.00132
G1 F5760
G1 X102.061 Y83.373 E-0.00132
G1 F5760
G1 X102.063 Y83.370 E-0.00132
G1 F5760
G1 X102.064 Y83.366 E-0.00132
G1 F5760
G1 X102.066 Y83.363 E-0.00132
G1 F5760
G1 X102.067 Y83.359 E-0.00132
G1 F5760
G1 X102.069 Y83.356 E-0.00132
G1 F5760
G1 X102.070 Y83.352 E-0.00132
G1 F5760
G1 X102.072 Y83.349 E-0.00132
G1 F5760
G1 X102.073 Y83.345 E-0.00132
G1 F5760
G1 X102.075 Y83.342 E-0.00132
G1 F5760
G1 X102.076 Y83.338 E-0.00132
G1 F5760
G1 X102.078 Y83.335 E-0.00132
G1 F5760
G1 X102.079 Y83.331 E-0.00132
G1 F5760
G1 X102.081 Y83.328 E-0.00132
G1 F5760
G1 X102.082 Y83.324 E-0.00132
G1 F5760
G1 X102.084 Y83.321 E-0.00132
G1 F5760
G1 X102.086 Y83.317 E-0.00132
G1 F5760
G1 X102.087 Y83.314 E-0.00132
G1 F5760
G1 X102.089 Y83.310 E-0.00132
G1 F5760
G1 X102.090 Y83.307 E-0.00132
G1 F5760
G1 X102.092 Y83.303 E-0.00132
G1 F5760
G1 X102.094 Y83.300 E-0.00132
G1 F5760
G1 X102.095 Y83.296 E-0.00132
G1 F5760
G1 X102.097 Y83.293 E-0.00132
G1 F5760
G1 X102.098 Y83.290 E-0.00132
G1 F5760
G1 X102.100 Y83.286 E-0.00132
G1 F5760
G1 X102.102 Y83.283 E-0.00132
G1 F5760
G1 X102.103 Y83.279 E-0.00132
G1 F5760
G1 X102.105 Y83.276 E-0.00132
G1 F5760
G1 X102.107 Y83.272 E-0.00132
G1 F5760
G1 X102.108 Y83.269 E-0.00132
G1 F5760
G1 X102.110 Y83.265 E-0.00132
G1 F5760
G1 X102.112 Y83.262 E-0.00132
G1 F5760
G1 X102.113 Y83.259 E-0.00132
G1 F5760
G1 X102.115 Y83.255 E-0.00132
G1 F5760
G1 X102.117 Y83.252 E-0.00132
G1 F5760
G1 X102.118 Y83.248 E-0.00132
G1 F5760
G1 X102.120 Y83.245 E-0.00132
G1 F5760
G1 X102.122 Y83.242 E-0.00132
G1 F5760
G1 X102.123 Y83.238 E-0.00132
G1 F5760
G1 X102.125 Y83.235 E-0.00132
G1 F5760
G1 X102.127 Y83.231 E-0.00132
G1 F5760
G1 X102.128 Y83.228 E-0.00132
G1 F5760
G1 X102.130 Y83.225 E-0.00132
G1 F5760
G1 X102.132 Y83.221 E-0.00132
G1 F5760
G1 X102.134 Y83.218 E-0.00132
G1 F5760
G1 X102.135 Y83.214 E-0.00132
G1 F5760
G1 X102.137 Y83.211 E-0.00132
G1 F5760
G1 X102.139 Y83.208 E-0.00132
G1 F5760
G1 X102.141 Y83.204 E-0.00132
G1 F5760
G1 X102.142 Y83.201 E-0.00132
G1 F5760
G1 X102.144 Y83.197 E-0.00132
G1 F5760
G1 X102.146 Y83.194 E-0.00132
G1 F5760
G1 X102.148 Y83.191 E-0.00132
G1 F5760
G1 X102.149 Y83.187 E-0.00132
G1 F5760
G1 X102.151 Y83.184 E-0.00132
G1 F5760
G1 X102.153 Y83.181 E-0.00132
G1 F5760
G1 X102.155 Y83.177 E-0.00132
G1 F5760
G1 X102.157 Y83.174 E-0.00132
G1 F5760
G1 X102.158 Y83.171 E-0.00132
G1 F5760
G1 X102.160 Y83.167 E-0.00132
G1 F5760
G1 X102.162 Y83.164 E-0.00132
G1 F5760
G1 X102.164 Y83.160 E-0.00132
G1 F5760
G1 X102.166 Y83.157 E-0.00132
G1 F5760
G1 X102.168 Y83.154 E-0.00132
G1 F5760
G1 X102.169 Y83.150 E-0.00132
G1 F5760
G1 X102.171 Y83.147 E-0.00132
G1 F5760
G1 X102.173 Y83.144 E-0.00132
G1 F5760
G1 X102.175 Y83.140 E-0.00132
G1 F5760
G1 X102.177 Y83.137 E-0.00132
G1 F5760
G1 X102.179 Y83.134 E-0.00132
G1 F5760
G1 X102.181 Y83.131 E-0.00132
G1 F5760
G1 X102.182 Y83.127 E-0.00132
G1 F5760
G1 X102.184 Y83.124 E-0.00132
G1 F5760
G1 X102.186 Y83.121 E-0.00132
G1 F5760
G1 X102.188 Y83.117 E-0.00132
G1 F5760
G1 X102.190 Y83.114 E-0.00132
G1 F5760
G1 X102.192 Y83.111 E-0.00132
G1 F5760
G1 X102.194 Y83.107 E-0.00132
G1 F5760
G1 X102.196 Y83.104 E-0.00132
G1 F5760
G1 X102.198 Y83.101 E-0.00132
G1 F5760
G1 X102.200 Y83.098 E-0.00132
G1 F5760
G1 X102.201 Y83.094 E-0.00132
G1 F5760
G1 X102.203 Y83.091 E-0.00132
G1 F5760
G1 X102.205 Y83.088 E-0.00132
G1 F5760
G1 X102.207 Y83.084 E-0.00132
G1 F5760
G1 X102.209 Y83.081 E-0.00132
G1 F5760
G1 X102.211 Y83.078 E-0.00132
G1 F5760
G1 X102.213 Y83.075 E-0.00132
G1 F5760
G1 X102.215 Y83.071 E-0.00132
G1 F5760
G1 X102.217 Y83.068 E-0.00132
G1 F5760
G1 X102.219 Y83.065 E-0.00132
G1 F5760
G1 X102.221 Y83.062 E-0.00132
G1 F5760
G1 X102.223 Y83.058 E-0.00132
G1 F5760
G1 X102.225 Y83.055 E-0.00132
G1 F5760
G1 X102.227 Y83.052 E-0.00132
G1 F5760
G1 X102.229 Y83.049 E-0.00132
G1 F5760
G1 X102.231 Y83.045 E-0.00132
G1 F5760
G1 X102.233 Y83.042 E-0.00132
G1 F5760
G1 X102.235 Y83.039 E-0.00132
G1 F5760
G1 X102.237 Y83.036 E-0.00132
G1 F5760
G1 X102.239 Y83.032 E-0.00132
G1 F5760
G1 X102.241 Y83.029 E-0.00132
G1 F5760
G1 X102.243 Y83.026 E-0.00132
G1 F5760
G1 X102.245 Y83.023 E-0.00132
G1 F5760
G1 X102.247 Y83.020 E-0.00132
G1 F5760
G1 X102.249 Y83.016 E-0.00132
G1 F5760
G1 X102.251 Y83.013 E-0.00132
G1 F5760
G1 X102.253 Y83.010 E-0.00132
G1 F5760
G1 X102.256 Y83.007 E-0.00132
G1 F5760
G1 X102.258 Y83.004 E-0.00132
G1 F5760
G1 X102.260 Y83.000 E-0.00132
G1 F5760
G1 X102.262 Y82.997 E-0.00132
G1 F5760
G1 X102.264 Y82.994 E-0.00132
G1 F5760
G1 X102.266 Y82.991 E-0.00132
G1 F5760
G1 X102.268 Y82.988 E-0.00132
G1 F5760
G1 X102.270 Y82.984 E-0.00132
G1 F5760
G1 X102.272 Y82.981 E-0.00132
G1 F5760
G1 X102.274 Y82.978 E-0.00132
G1 F5760
G1 X102.276 Y82.975 E-0.00132
G1 F5760
G1 X102.279 Y82.972 E-0.00132
G1 F5760
G1 X102.281 Y82.969 E-0.00132
G1 F5760
G1 X102.283 Y82.965 E-0.00132
G1 F5760
G1 X102.285 Y82.962 E-0.00132
G1 F5760
G1 X102.287 Y82.959 E-0.00132
G1 F5760
G1 X102.289 Y82.956 E-0.00132
G1 F5760
G1 X102.291 Y82.953 E-0.00132
G1 F5760
G1 X102.294 Y82.950 E-0.00132
G1 F5760
G1 X102.296 Y82.947 E-0.00132
G1 F5760
G1 X102.298 Y82.944 E-0.00132
G1 F5760
G1 X102.300 Y82.940 E-0.00132
G1 F5760
G1 X102.302 Y82.937 E-0.00132
G1 F5760
G1 X102.305 Y82.934 E-0.00132
G1 F5760
G1 X102.307 Y82.931 E-0.00132
G1 F5760
G1 X102.309 Y82.928 E-0.00132
G1 F5760
G1 X102.311 Y82.925 E-0.00132
G1 F5760
G1 X102.313 Y82.922 E-0.00132
G1 F5760
G1 X102.316 Y82.919 E-0.00132
G1 F5760
G1 X102.318 Y82.915 E-0.00132
G1 F5760
G1 X102.320 Y82.912 E-0.00132
G1 F5760
G1 X102.322 Y82.909 E-0.00132
G1 F5760
G1 X102.324 Y82.906 E-0.00132
G1 F5760
G1 X102.327 Y82.903 E-0.00132
G1 F5760
G1 X102.329 Y82.900 E-0.00132
G1 F5760
G1 X102.331 Y82.897 E-0.00132
G1 F5760
G1 X102.333 Y82.894 E-0.00132
G1 F5760
G1 X102.336 Y82.891 E-0.00132
G1 F5760
G1 X102.338 Y82.888 E-0.00132
G1 F5760
G1 X102.340 Y82.885 E-0.00132
G1 F5760
G1 X102.342 Y82.882 E-0.00132
G1 F5760
G1 X102.345 Y82.879 E-0.00132
G1 F5760
G1 X102.347 Y82.876 E-0.00132
G1 F5760
G1 X102.349 Y82.872 E-0.00132
G1 F5760
G1 X102.352 Y82.869 E-0.00132
G1 F5760
G1 X102.354 Y82.866 E-0.00132
G1 F5760
G1 X102.356 Y82.863 E-0.00132
G1 F5760
G1 X102.358 Y82.860 E-0.00132
G1 F5760
G1 X102.361 Y82.857 E-0.00132
G1 F5760
G1 X102.363 Y82.854 E-0.00132
G1 F5760
G1 X102.365 Y82.851 E-0.00132
G1 F5760
G1 X102.368 Y82.848 E-0.00132
G1 F5760
G1 X102.370 Y82.845 E-0.00132
G1 F5760
G1 X102.372 Y82.842 E-0.00132
G1 F5760
