; generated by Slic3r 1.34.1-prusa3d on 2017-04-23 at 20:11:28

; external perimeters extrusion width = 0.45mm
; perimeters extrusion width = 0.45mm
; infill extrusion width = 0.45mm
; solid infill extrusion width = 0.45mm
; top infill extrusion width = 0.45mm

M107
M115 U3.0.9 ; tell printer latest fw version
M83  ; extruder relative mode
M104 S230 ; set extruder temp
M140 S85 ; set bed temp
M190 S85 ; wait for bed temp
M109 S230 ; wait for extruder temp
G28 W ; home all without mesh bed level
G80 ; mesh bed leveling
G1 Y-3.0 F1000.0 ; go outside pritn area
G1 X60.0 E9.0  F1000.0 ; intro line
G1 X100.0 E12.5  F1000.0 ; intro line
G21 ; set units to millimeters
G90 ; use absolute coordinates
M83 ; use relative distances for extrusion
G1 E-0.80000 F2100.00000
G1 Z0.200 F7200.000
G1 X70.772 Y60.142 F7200.000
G1 E0.80000 F2100.00000
M204 S1000
G1 F2100
G1 X72.716 Y57.890 E0.09327
G1 X75.742 Y54.735 E0.13706
G1 X77.907 Y52.701 E0.09314
G1 X80.159 Y50.758 E0.09327
G1 X83.613 Y48.079 E0.13706
G1 X86.052 Y46.383 E0.09314
G1 X88.564 Y44.789 E0.09327
G1 X92.373 Y42.643 E0.13707
G1 X95.033 Y41.322 E0.09314
G1 X97.751 Y40.112 E0.09327
G1 X101.832 Y38.546 E0.13707
G1 X104.657 Y37.627 E0.09314
G1 X107.522 Y36.828 E0.09327
G1 X111.788 Y35.874 E0.13706
G1 X114.721 Y35.378 E0.09326
G1 X117.668 Y35.006 E0.09315
G1 X122.028 Y34.686 E0.13706
G1 X125.006 Y34.623 E0.09338
G1 X127.972 Y34.686 E0.09303
G1 X132.354 Y35.008 E0.13777
G1 X135.306 Y35.382 E0.09327
G1 X139.608 Y36.156 E0.13706
G1 X142.500 Y36.833 E0.09314
G1 X145.365 Y37.634 E0.09327
G1 X149.508 Y39.028 E0.13706
G1 X152.270 Y40.121 E0.09314
G1 X154.988 Y41.332 E0.09327
G1 X158.882 Y43.316 E0.13706
G1 X161.459 Y44.803 E0.09326
G1 X163.967 Y46.395 E0.09315
G1 X167.530 Y48.928 E0.13707
G1 X169.858 Y50.772 E0.09314
G1 X172.110 Y52.716 E0.09327
G1 X175.265 Y55.742 E0.13706
G1 X177.299 Y57.907 E0.09314
G1 X179.242 Y60.159 E0.09327
G1 X181.921 Y63.613 E0.13706
G1 X183.617 Y66.052 E0.09314
G1 X185.211 Y68.564 E0.09327
G1 X187.357 Y72.373 E0.13707
G1 X188.680 Y75.037 E0.09325
G1 X189.888 Y77.751 E0.09315
G1 X191.454 Y81.832 E0.13707
G1 X192.374 Y84.660 E0.09325
G1 X193.172 Y87.522 E0.09315
G1 X194.126 Y91.788 E0.13706
G1 X194.622 Y94.717 E0.09314
G1 X194.994 Y97.668 E0.09327
G1 X195.314 Y102.028 E0.13706
G1 X195.377 Y104.998 E0.09314
G1 X195.314 Y107.972 E0.09327
G1 X194.994 Y112.332 E0.13706
G1 X194.622 Y115.279 E0.09314
G1 X194.126 Y118.212 E0.09327
G1 X193.172 Y122.478 E0.13706
G1 X192.374 Y125.339 E0.09314
G1 X191.454 Y128.168 E0.09326
G1 X189.888 Y132.249 E0.13707
G1 X188.680 Y134.963 E0.09314
G1 X187.357 Y137.627 E0.09326
G1 X185.211 Y141.436 E0.13707
G1 X183.620 Y143.944 E0.09315
G1 X181.921 Y146.387 E0.09327
G1 X179.242 Y149.841 E0.13706
G1 X177.302 Y152.090 E0.09314
G1 X175.265 Y154.258 E0.09326
G1 X172.110 Y157.284 E0.13706
G1 X169.861 Y159.225 E0.09314
G1 X167.530 Y161.072 E0.09326
G1 X163.967 Y163.605 E0.13707
G1 X161.459 Y165.197 E0.09314
G1 X158.882 Y166.684 E0.09327
G1 X154.987 Y168.668 E0.13706
G1 X152.271 Y169.879 E0.09326
G1 X149.508 Y170.972 E0.09315
G1 X145.343 Y172.373 E0.13777
G1 X142.478 Y173.172 E0.09327
G1 X138.212 Y174.126 E0.13706
G1 X135.283 Y174.622 E0.09314
G1 X132.332 Y174.994 E0.09327
G1 X127.972 Y175.314 E0.13706
G1 X124.998 Y175.377 E0.09326
G1 X122.028 Y175.314 E0.09315
G1 X117.668 Y174.994 E0.13706
G1 X114.721 Y174.622 E0.09314
G1 X111.788 Y174.126 E0.09327
G1 X107.522 Y173.172 E0.13706
G1 X104.657 Y172.373 E0.09326
G1 X101.832 Y171.454 E0.09314
G1 X97.733 Y169.880 E0.13766
G1 X95.012 Y168.668 E0.09339
G1 X91.118 Y166.684 E0.13706
G1 X88.545 Y165.199 E0.09314
G1 X86.037 Y163.607 E0.09315
G1 X82.470 Y161.072 E0.13719
G1 X80.144 Y159.230 E0.09302
G1 X77.893 Y157.286 E0.09326
G1 X74.917 Y154.440 E0.12914
G1 X72.704 Y152.096 E0.10107
G1 X70.760 Y149.844 E0.09326
G1 X68.079 Y146.387 E0.13718
G1 X66.385 Y143.951 E0.09302
G1 X64.789 Y141.436 E0.09339
G1 X62.643 Y137.627 E0.13707
G1 X61.322 Y134.967 E0.09314
G1 X60.114 Y132.253 E0.09314
G1 X58.546 Y128.168 E0.13720
G1 X57.627 Y125.343 E0.09314
G1 X56.828 Y122.478 E0.09327
G1 X55.874 Y118.212 E0.13706
G1 X55.378 Y115.279 E0.09326
G1 X55.006 Y112.332 E0.09315
G1 X54.686 Y107.972 E0.13706
G1 X54.623 Y105.002 E0.09314
G1 X54.686 Y102.028 E0.09327
G1 X55.006 Y97.668 E0.13706
G1 X55.378 Y94.721 E0.09314
G1 X55.874 Y91.788 E0.09327
G1 X56.828 Y87.522 E0.13706
G1 X57.627 Y84.657 E0.09326
G1 X59.028 Y80.492 E0.13778
G1 X60.121 Y77.730 E0.09314
G1 X61.332 Y75.012 E0.09327
G1 X63.316 Y71.118 E0.13706
G1 X64.803 Y68.541 E0.09326
G1 X66.395 Y66.033 E0.09315
G1 X68.928 Y62.470 E0.13707
G1 X70.735 Y60.189 E0.09126
G1 F5760
G1 X72.168 Y58.527 E-0.76000
G1 E-0.04000 F2100.00000
G1 X73.331 Y62.291 F7200.000
G1 E0.80000 F2100.00000
G1 F1680
G1 X74.254 Y61.197 E0.04487
G1 X75.183 Y60.144 E0.04402
G1 X76.133 Y59.111 E0.04402
G1 X77.105 Y58.098 E0.04402
G1 X78.098 Y57.105 E0.04402
G1 X79.111 Y56.133 E0.04402
G1 X80.144 Y55.183 E0.04402
G1 X81.197 Y54.254 E0.04402
G1 X82.270 Y53.348 E0.04402
G1 X83.361 Y52.464 E0.04402
G1 X84.470 Y51.604 E0.04402
G1 X85.597 Y50.767 E0.04402
G1 X86.742 Y49.954 E0.04402
G1 X87.903 Y49.165 E0.04402
G1 X89.080 Y48.400 E0.04402
G1 X90.274 Y47.660 E0.04402
G1 X91.482 Y46.945 E0.04402
G1 X92.705 Y46.256 E0.04402
G1 X93.943 Y45.593 E0.04402
G1 X95.194 Y44.955 E0.04402
G1 X96.458 Y44.344 E0.04402
G1 X97.734 Y43.760 E0.04402
G1 X99.023 Y43.202 E0.04402
G1 X100.322 Y42.672 E0.04402
G1 X101.633 Y42.169 E0.04402
G1 X102.954 Y41.693 E0.04402
G1 X104.285 Y41.245 E0.04402
G1 X105.381 Y40.902 E0.03602
G1 X106.974 Y40.433 E0.05207
G1 X108.329 Y40.070 E0.04397
G1 X109.692 Y39.735 E0.04402
G1 X111.062 Y39.429 E0.04402
G1 X112.439 Y39.152 E0.04402
G1 X113.821 Y38.903 E0.04402
G1 X115.207 Y38.683 E0.04402
G1 X116.598 Y38.493 E0.04402
G1 X117.993 Y38.331 E0.04402
G1 X119.391 Y38.199 E0.04402
G1 X120.791 Y38.097 E0.04402
G1 X122.193 Y38.023 E0.04402
G1 X123.596 Y37.979 E0.04402
G1 X125.000 Y37.964 E0.04402
G1 X127.809 Y38.023 E0.08808
G1 X129.209 Y38.097 E0.04397
G1 X130.609 Y38.199 E0.04402
G1 X132.007 Y38.331 E0.04402
G1 X133.402 Y38.493 E0.04402
G1 X134.793 Y38.683 E0.04402
G1 X135.927 Y38.863 E0.03602
G1 X137.563 Y39.152 E0.05207
G1 X138.938 Y39.429 E0.04397
G1 X140.308 Y39.735 E0.04402
G1 X141.671 Y40.070 E0.04402
G1 X143.027 Y40.434 E0.04402
G1 X144.375 Y40.825 E0.04402
G1 X145.715 Y41.245 E0.04402
G1 X147.046 Y41.693 E0.04402
G1 X148.367 Y42.169 E0.04402
G1 X149.678 Y42.672 E0.04402
G1 X150.977 Y43.202 E0.04402
G1 X152.266 Y43.760 E0.04402
G1 X153.542 Y44.344 E0.04402
G1 X154.806 Y44.955 E0.04402
G1 X156.057 Y45.593 E0.04402
G1 X157.295 Y46.256 E0.04402
G1 X158.518 Y46.945 E0.04402
G1 X159.726 Y47.660 E0.04402
G1 X160.920 Y48.400 E0.04402
G1 X162.097 Y49.165 E0.04402
G1 X163.047 Y49.810 E0.03602
G1 X164.404 Y50.768 E0.05207
G1 X165.530 Y51.604 E0.04397
G1 X166.639 Y52.464 E0.04402
G1 X167.730 Y53.348 E0.04402
G1 X168.803 Y54.254 E0.04402
G1 X169.856 Y55.183 E0.04402
G1 X170.889 Y56.133 E0.04402
G1 X171.902 Y57.105 E0.04402
G1 X172.895 Y58.098 E0.04402
G1 X173.867 Y59.111 E0.04402
G1 X174.817 Y60.144 E0.04402
G1 X175.746 Y61.197 E0.04402
G1 X176.652 Y62.270 E0.04402
G1 X177.536 Y63.361 E0.04402
G1 X178.396 Y64.470 E0.04402
G1 X179.233 Y65.597 E0.04402
G1 X180.046 Y66.742 E0.04402
G1 X180.835 Y67.903 E0.04402
G1 X181.600 Y69.080 E0.04402
G1 X182.340 Y70.274 E0.04402
G1 X183.055 Y71.482 E0.04402
G1 X183.744 Y72.705 E0.04402
G1 X184.407 Y73.943 E0.04402
G1 X185.045 Y75.194 E0.04402
G1 X185.656 Y76.458 E0.04402
G1 X186.240 Y77.734 E0.04402
G1 X186.798 Y79.023 E0.04402
G1 X187.328 Y80.322 E0.04402
G1 X187.831 Y81.633 E0.04402
G1 X188.307 Y82.954 E0.04402
G1 X188.755 Y84.285 E0.04402
G1 X189.175 Y85.625 E0.04402
G1 X189.566 Y86.973 E0.04402
G1 X189.930 Y88.329 E0.04402
G1 X190.265 Y89.692 E0.04402
G1 X190.571 Y91.062 E0.04402
G1 X190.848 Y92.439 E0.04402
G1 X191.097 Y93.821 E0.04402
G1 X191.317 Y95.207 E0.04402
G1 X191.507 Y96.598 E0.04402
G1 X191.669 Y97.993 E0.04402
G1 X191.801 Y99.391 E0.04402
G1 X191.903 Y100.791 E0.04402
G1 X191.977 Y102.193 E0.04402
G1 X192.021 Y103.596 E0.04402
G1 X192.036 Y105.000 E0.04402
G1 X192.021 Y106.404 E0.04402
G1 X191.977 Y107.807 E0.04402
G1 X191.903 Y109.209 E0.04402
G1 X191.801 Y110.609 E0.04402
G1 X191.669 Y112.007 E0.04402
G1 X191.507 Y113.402 E0.04402
G1 X191.317 Y114.793 E0.04402
G1 X191.097 Y116.179 E0.04402
G1 X190.848 Y117.561 E0.04402
G1 X190.571 Y118.938 E0.04402
G1 X190.265 Y120.308 E0.04402
G1 X189.930 Y121.671 E0.04402
G1 X189.566 Y123.027 E0.04402
G1 X189.175 Y124.375 E0.04402
G1 X188.755 Y125.715 E0.04402
G1 X188.307 Y127.046 E0.04402
G1 X187.831 Y128.367 E0.04402
G1 X187.328 Y129.678 E0.04402
G1 X186.798 Y130.977 E0.04402
G1 X186.240 Y132.266 E0.04402
G1 X185.656 Y133.542 E0.04402
G1 X185.045 Y134.806 E0.04402
G1 X184.407 Y136.057 E0.04402
G1 X183.744 Y137.295 E0.04402
G1 X183.055 Y138.518 E0.04402
G1 X182.340 Y139.726 E0.04402
G1 X181.600 Y140.920 E0.04402
G1 X180.835 Y142.097 E0.04402
G1 X180.046 Y143.258 E0.04402
G1 X179.233 Y144.403 E0.04402
G1 X178.396 Y145.530 E0.04402
G1 X177.536 Y146.639 E0.04402
G1 X176.652 Y147.730 E0.04402
G1 X175.746 Y148.803 E0.04402
G1 X174.817 Y149.856 E0.04402
G1 X173.867 Y150.889 E0.04402
G1 X172.895 Y151.902 E0.04402
G1 X171.902 Y152.895 E0.04402
G1 X170.889 Y153.867 E0.04402
G1 X169.856 Y154.817 E0.04402
G1 X168.803 Y155.746 E0.04402
G1 X167.730 Y156.652 E0.04402
G1 X166.639 Y157.536 E0.04402
G1 X165.530 Y158.396 E0.04402
G1 X164.403 Y159.233 E0.04402
G1 X163.258 Y160.046 E0.04402
G1 X162.097 Y160.835 E0.04402
G1 X160.920 Y161.600 E0.04402
G1 X159.726 Y162.340 E0.04402
G1 X158.518 Y163.055 E0.04402
G1 X157.295 Y163.744 E0.04402
G1 X156.057 Y164.407 E0.04402
G1 X154.806 Y165.045 E0.04402
G1 X153.542 Y165.656 E0.04402
G1 X152.266 Y166.240 E0.04402
G1 X150.977 Y166.798 E0.04402
G1 X149.678 Y167.328 E0.04402
G1 X148.367 Y167.831 E0.04402
G1 X147.046 Y168.307 E0.04402
G1 X145.715 Y168.755 E0.04402
G1 X144.375 Y169.175 E0.04402
G1 X143.027 Y169.566 E0.04402
G1 X141.671 Y169.930 E0.04402
G1 X140.308 Y170.265 E0.04402
G1 X138.938 Y170.571 E0.04402
G1 X137.561 Y170.848 E0.04402
G1 X136.179 Y171.097 E0.04402
G1 X134.793 Y171.317 E0.04402
G1 X133.402 Y171.507 E0.04402
G1 X132.007 Y171.669 E0.04402
G1 X130.609 Y171.801 E0.04402
G1 X129.209 Y171.903 E0.04402
G1 X127.807 Y171.977 E0.04402
G1 X126.404 Y172.021 E0.04402
G1 X125.000 Y172.036 E0.04402
G1 X123.596 Y172.021 E0.04402
G1 X122.193 Y171.977 E0.04402
G1 X120.791 Y171.903 E0.04402
G1 X119.391 Y171.801 E0.04402
G1 X117.993 Y171.669 E0.04402
G1 X116.598 Y171.507 E0.04402
G1 X115.207 Y171.317 E0.04402
G1 X113.821 Y171.097 E0.04402
G1 X112.439 Y170.848 E0.04402
G1 X111.062 Y170.571 E0.04402
G1 X109.692 Y170.265 E0.04402
G1 X108.329 Y169.930 E0.04402
G1 X106.973 Y169.566 E0.04402
G1 X105.625 Y169.175 E0.04402
G1 X104.285 Y168.755 E0.04402
G1 X102.954 Y168.307 E0.04402
G1 X101.633 Y167.831 E0.04402
G1 X100.322 Y167.328 E0.04402
G1 X99.023 Y166.798 E0.04402
G1 X97.734 Y166.240 E0.04402
G1 X96.458 Y165.656 E0.04402
G1 X95.194 Y165.045 E0.04402
G1 X93.943 Y164.407 E0.04402
G1 X92.705 Y163.744 E0.04402
G1 X91.482 Y163.055 E0.04402
G1 X90.274 Y162.340 E0.04402
G1 X89.080 Y161.600 E0.04402
G1 X87.903 Y160.835 E0.04402
G1 X86.742 Y160.046 E0.04402
G1 X85.597 Y159.233 E0.04402
G1 X84.470 Y158.396 E0.04402
G1 X83.361 Y157.536 E0.04402
G1 X82.270 Y156.652 E0.04402
G1 X81.197 Y155.746 E0.04402
G1 X80.144 Y154.817 E0.04402
G1 X79.111 Y153.867 E0.04402
G1 X78.098 Y152.895 E0.04402
G1 X77.285 Y152.083 E0.03602
G1 X76.132 Y150.888 E0.05207
G1 X75.183 Y149.856 E0.04397
G1 X74.254 Y148.803 E0.04402
G1 X73.348 Y147.730 E0.04402
G1 X72.464 Y146.639 E0.04402
G1 X71.604 Y145.530 E0.04402
G1 X70.767 Y144.403 E0.04402
G1 X69.954 Y143.258 E0.04402
G1 X69.165 Y142.097 E0.04402
G1 X68.400 Y140.920 E0.04402
G1 X67.660 Y139.726 E0.04402
G1 X66.945 Y138.518 E0.04402
G1 X66.256 Y137.295 E0.04402
G1 X65.593 Y136.057 E0.04402
G1 X64.955 Y134.806 E0.04402
G1 X64.344 Y133.542 E0.04402
G1 X63.760 Y132.266 E0.04402
G1 X63.202 Y130.977 E0.04402
G1 X62.672 Y129.678 E0.04402
G1 X62.169 Y128.367 E0.04402
G1 X61.693 Y127.046 E0.04402
G1 X61.245 Y125.715 E0.04402
G1 X60.825 Y124.375 E0.04402
G1 X60.434 Y123.027 E0.04402
G1 X60.070 Y121.671 E0.04402
G1 X59.735 Y120.308 E0.04402
G1 X59.429 Y118.938 E0.04402
G1 X59.152 Y117.561 E0.04402
G1 X58.903 Y116.179 E0.04402
G1 X58.683 Y114.793 E0.04402
G1 X58.493 Y113.402 E0.04402
G1 X58.331 Y112.007 E0.04402
G1 X58.199 Y110.609 E0.04402
G1 X58.097 Y109.209 E0.04402
G1 X58.023 Y107.807 E0.04402
G1 X57.979 Y106.404 E0.04402
G1 X57.964 Y105.000 E0.04402
G1 X57.979 Y103.596 E0.04402
G1 X58.023 Y102.193 E0.04402
G1 X58.097 Y100.791 E0.04402
G1 X58.199 Y99.391 E0.04402
G1 X58.331 Y97.993 E0.04402
G1 X58.493 Y96.598 E0.04402
G1 X58.683 Y95.207 E0.04402
G1 X58.903 Y93.821 E0.04402
G1 X59.152 Y92.439 E0.04402
G1 X59.429 Y91.062 E0.04402
G1 X59.735 Y89.692 E0.04402
G1 X60.070 Y88.329 E0.04402
G1 X60.434 Y86.973 E0.04402
G1 X60.825 Y85.625 E0.04402
G1 X61.245 Y84.285 E0.04402
G1 X61.693 Y82.954 E0.04402
G1 X62.169 Y81.633 E0.04402
G1 X62.672 Y80.322 E0.04402
G1 X63.202 Y79.023 E0.04402
G1 X63.760 Y77.734 E0.04402
G1 X64.344 Y76.458 E0.04402
G1 X64.955 Y75.194 E0.04402
G1 X65.593 Y73.943 E0.04402
G1 X66.256 Y72.705 E0.04402
G1 X66.945 Y71.482 E0.04402
G1 X67.660 Y70.274 E0.04402
G1 X68.400 Y69.080 E0.04402
G1 X69.165 Y67.903 E0.04402
G1 X69.954 Y66.742 E0.04402
G1 X70.767 Y65.597 E0.04402
G1 X71.604 Y64.470 E0.04402
G1 X72.464 Y63.361 E0.04402
G1 X73.293 Y62.337 E0.04129
G1 X73.000 Y62.100 F7200.000
G1 F1680
G1 X73.969 Y60.951 E0.04712
G1 X74.903 Y59.892 E0.04427
G1 X75.858 Y58.853 E0.04427
G1 X76.835 Y57.834 E0.04427
G1 X77.834 Y56.835 E0.04427
G1 X78.853 Y55.858 E0.04427
G1 X79.892 Y54.903 E0.04427
G1 X80.951 Y53.969 E0.04427
G1 X82.029 Y53.057 E0.04427
G1 X83.127 Y52.169 E0.04427
G1 X84.242 Y51.304 E0.04427
G1 X85.376 Y50.462 E0.04427
G1 X86.527 Y49.644 E0.04427
G1 X87.694 Y48.850 E0.04427
G1 X88.878 Y48.081 E0.04427
G1 X90.078 Y47.337 E0.04427
G1 X91.294 Y46.619 E0.04427
G1 X92.524 Y45.926 E0.04427
G1 X93.768 Y45.259 E0.04427
G1 X95.026 Y44.617 E0.04427
G1 X96.297 Y44.003 E0.04427
G1 X97.581 Y43.415 E0.04427
G1 X98.876 Y42.855 E0.04427
G1 X100.184 Y42.321 E0.04427
G1 X101.502 Y41.815 E0.04427
G1 X102.830 Y41.337 E0.04427
G1 X104.168 Y40.887 E0.04427
G1 X105.271 Y40.541 E0.03625
G1 X106.872 Y40.070 E0.05232
G1 X108.235 Y39.705 E0.04424
G1 X109.606 Y39.368 E0.04427
G1 X110.984 Y39.060 E0.04427
G1 X112.368 Y38.781 E0.04427
G1 X113.758 Y38.531 E0.04427
G1 X115.152 Y38.310 E0.04427
G1 X116.551 Y38.119 E0.04427
G1 X117.953 Y37.956 E0.04427
G1 X119.359 Y37.824 E0.04427
G1 X120.767 Y37.720 E0.04427
G1 X122.177 Y37.646 E0.04427
G1 X123.588 Y37.602 E0.04427
G1 X125.000 Y37.587 E0.04427
G1 X127.824 Y37.646 E0.08856
G1 X129.233 Y37.720 E0.04424
G1 X130.641 Y37.824 E0.04427
G1 X132.047 Y37.956 E0.04427
G1 X133.449 Y38.119 E0.04427
G1 X134.848 Y38.310 E0.04427
G1 X137.633 Y38.781 E0.08856
G1 X139.016 Y39.060 E0.04424
G1 X140.394 Y39.368 E0.04427
G1 X141.765 Y39.705 E0.04427
G1 X143.129 Y40.070 E0.04427
G1 X144.484 Y40.464 E0.04427
G1 X145.832 Y40.887 E0.04427
G1 X147.170 Y41.337 E0.04427
G1 X148.498 Y41.815 E0.04427
G1 X149.816 Y42.321 E0.04427
G1 X151.124 Y42.855 E0.04427
G1 X152.419 Y43.415 E0.04427
G1 X153.703 Y44.003 E0.04427
G1 X154.974 Y44.617 E0.04427
G1 X156.232 Y45.259 E0.04427
G1 X157.476 Y45.926 E0.04427
G1 X158.706 Y46.619 E0.04427
G1 X159.922 Y47.337 E0.04427
G1 X161.122 Y48.081 E0.04427
G1 X162.306 Y48.850 E0.04427
G1 X163.262 Y49.500 E0.03625
G1 X164.625 Y50.462 E0.05232
G1 X165.758 Y51.304 E0.04424
G1 X166.873 Y52.169 E0.04427
G1 X167.971 Y53.057 E0.04427
G1 X169.049 Y53.969 E0.04427
G1 X170.108 Y54.903 E0.04427
G1 X171.147 Y55.858 E0.04427
G1 X172.166 Y56.835 E0.04427
G1 X173.165 Y57.834 E0.04427
G1 X174.142 Y58.853 E0.04427
G1 X175.097 Y59.892 E0.04427
G1 X176.031 Y60.951 E0.04427
G1 X176.943 Y62.029 E0.04427
G1 X177.831 Y63.127 E0.04427
G1 X178.696 Y64.242 E0.04427
G1 X179.538 Y65.376 E0.04427
G1 X180.356 Y66.527 E0.04427
G1 X181.150 Y67.694 E0.04427
G1 X181.919 Y68.878 E0.04427
